GriTRini/uon_rt/demo/sim/tcp_test/tcp_multi_test_data.csv
Scenario,Time,J1,J2,J3,J4,J5,J6,Target_X,Target_Y,Target_Z,TCP_X,TCP_Y,TCP_Z,TCP_R,TCP_P,TCP_Yw
no_tcp,0.00000,0.00000,0.00000,0.00000,0.00000,0.00000,0.00000,0.50000,0.10000,0.40000,0.00000,0.00000,0.00000,0.00000,0.00000,0.00000
no_tcp,0.00100,0.00000,0.00000,0.00000,0.00000,0.00000,0.00000,0.50000,0.10000,0.40000,0.00000,0.00000,0.00000,0.00000,0.00000,0.00000
no_tcp,0.00200,0.00000,0.00000,0.00000,0.00000,0.00000,0.00000,0.50000,0.10000,0.40000,0.00000,0.00000,0.00000,0.00000,0.00000,0.00000
no_tcp,0.00300,0.00000,0.00000,0.00000,0.00000,0.00000,0.00000,0.50000,0.10000,0.40000,0.00000,0.00000,0.00000,0.00000,0.00000,0.00000
no_tcp,0.00400,-0.00000,0.00000,-0.00000,0.00000,-0.00000,0.00000,0.50000,0.10000,0.40000,0.00000,0.00000,0.00000,0.00000,0.00000,0.00000
no_tcp,0.00500,-0.00000,0.00000,-0.00000,0.00000,-0.00000,0.00000,0.50000,0.10000,0.40000,0.00000,0.00000,0.00000,0.00000,0.00000,0.00000
no_tcp,0.00600,-0.00000,0.00000,-0.00000,0.00000,-0.00000,0.00000,0.50000,0.10000,0.40000,0.00000,0.00000,0.00000,0.00000,0.00000,0.00000
no_tcp,0.00700,-0.00000,0.00000,-0.00000,0.00000,-0.00000,0.00000,0.50000,0.10000,0.40000,0.00000,0.00000,0.00000,0.00000,0.00000,0.00000
no_tcp,0.00800,-0.00000,-0.00001,0.00002,0.00000,-0.00001,-0.00000,0.50000,0.10000,0.40000,0.00000,0.00000,0.00000,0.00000,0.00000,0.00000
no_tcp,0.00900,-0.00000,-0.00004,0.00008,0.00001,-0.00004,-0.00000,0.50000,0.10000,0.40000,0.00000,0.00000,0.00000,0.00000,0.00000,0.00000
no_tcp,0.01000,-0.00000,-0.00007,0.00016,0.00001,-0.00008,-0.00001,0.50000,0.10000,0.40000,0.00000,0.00000,0.00000,0.00000,0.00000,0.00000
no_tcp,0.01100,-0.00001,-0.00013,0.00028,0.00002,-0.00015,-0.00001,0.50000,0.10000,0.40000,0.00000,0.00000,0.00000,0.00000,0.00000,0.00000
no_tcp,0.01200,-0.00001,-0.00020,0.00043,0.00003,-0.00023,-0.00002,0.50000,0.10000,0.40000,0.00000,0.00000,0.00000,0.00000,0.00000,0.00000
no_tcp,0.01300,-0.00001,-0.00029,0.00063,0.00004,-0.00033,-0.00003,0.50000,0.10000,0.40000,0.00000,0.00000,0.00000,0.00000,0.00000,0.00000
no_tcp,0.01400,-0.00002,-0.00041,0.00086,0.00006,-0.00046,-0.00004,0.50000,0.10000,0.40000,0.00000,0.00000,0.00000,0.00000,0.00000,0.00000
no_tcp,0.01500,-0.00002,-0.00054,0.00115,0.00008,-0.00061,-0.00005,0.50000,0.10000,0.40000,0.00000,0.00000,0.00000,0.00000,0.00000,0.00000
no_tcp,0.01600,-0.00002,-0.00054,0.00115,0.00008,-0.00061,-0.00005,0.50000,0.10000,0.40000,0.00000,0.00000,0.00000,0.00000,0.00000,0.00000
no_tcp,0.01700,-0.00002,-0.00054,0.00115,0.00008,-0.00061,-0.00005,0.50000,0.10000,0.40000,0.00000,0.00000,0.00000,0.00000,0.00000,0.00000
no_tcp,0.01800,-0.00002,-0.00054,0.00115,0.00008,-0.00061,-0.00005,0.50000,0.10000,0.40000,0.00000,0.00000,0.00000,0.00000,0.00000,0.00000
no_tcp,0.01900,-0.00002,-0.00054,0.00115,0.00008,-0.00061,-0.00005,0.50000,0.10000,0.40000,0.00000,0.00000,0.00000,0.00000,0.00000,0.00000
no_tcp,0.02000,-0.00002,-0.00054,0.00115,0.00008,-0.00061,-0.00005,0.50000,0.10000,0.40000,0.00000,0.00000,0.00000,0.00000,0.00000,0.00000
no_tcp,0.02100,-0.00002,-0.00054,0.00115,0.00008,-0.00061,-0.00005,0.50000,0.10000,0.40000,0.00000,0.00000,0.00000,0.00000,0.00000,0.00000
no_tcp,0.02200,-0.00002,-0.00054,0.00115,0.00008,-0.00061,-0.00005,0.50000,0.10000,0.40000,0.00000,0.00000,0.00000,0.00000,0.00000,0.00000
no_tcp,0.02300,-0.00002,-0.00054,0.00115,0.00008,-0.00061,-0.00005,0.50000,0.10000,0.40000,0.00000,0.00000,0.00000,0.00000,0.00000,0.00000
no_tcp,0.02400,-0.00002,-0.00054,0.00115,0.00008,-0.00061,-0.00005,0.50000,0.10000,0.40000,0.00000,0.00000,0.00000,0.00000,0.00000,0.00000
no_tcp,0.02500,-0.00002,-0.00054,0.00115,0.00008,-0.00061,-0.00005,0.50000,0.10000,0.40000,0.00000,0.00000,0.00000,0.00000,0.00000,0.00000
no_tcp,0.02600,-0.00002,-0.00054,0.00115,0.00008,-0.00061,-0.00005,0.50000,0.10000,0.40000,0.00000,0.00000,0.00000,0.00000,0.00000,0.00000
no_tcp,0.02700,-0.00002,-0.00054,0.00115,0.00008,-0.00061,-0.00005,0.50000,0.10000,0.40000,0.00000,0.00000,0.00000,0.00000,0.00000,0.00000
no_tcp,0.02800,-0.00002,-0.00054,0.00115,0.00008,-0.00061,-0.00005,0.50000,0.10000,0.40000,0.00000,0.00000,0.00000,0.00000,0.00000,0.00000
no_tcp,0.02900,-0.00002,-0.00054,0.00115,0.00008,-0.00061,-0.00005,0.50000,0.10000,0.40000,0.00000,0.00000,0.00000,0.00000,0.00000,0.00000
no_tcp,0.03000,-0.00002,-0.00054,0.00115,0.00008,-0.00061,-0.00005,0.50000,0.10000,0.40000,0.00000,0.00000,0.00000,0.00000,0.00000,0.00000
no_tcp,0.03100,-0.00002,-0.00054,0.00115,0.00008,-0.00061,-0.00005,0.50000,0.10000,0.40000,0.00000,0.00000,0.00000,0.00000,0.00000,0.00000
no_tcp,0.03200,-0.00002,-0.00054,0.00115,0.00008,-0.00061,-0.00005,0.50000,0.10000,0.40000,0.00000,0.00000,0.00000,0.00000,0.00000,0.00000
no_tcp,0.03300,-0.00002,-0.00054,0.00115,0.00008,-0.00061,-0.00005,0.50000,0.10000,0.40000,0.00000,0.00000,0.00000,0.00000,0.00000,0.00000
no_tcp,0.03400,-0.00002,-0.00054,0.00115,0.00008,-0.00061,-0.00005,0.50000,0.10000,0.40000,0.00000,0.00000,0.00000,0.00000,0.00000,0.00000
no_tcp,0.03500,0.00003,-0.00073,0.00155,0.00010,-0.00082,-0.00013,0.50000,0.10000,0.40000,0.00000,0.00000,0.00000,0.00000,0.00000,0.00000
no_tcp,0.03600,0.00013,-0.00096,0.00206,0.00013,-0.00110,-0.00027,0.50000,0.10000,0.40000,0.00000,0.00000,0.00000,0.00000,0.00000,0.00000
no_tcp,0.03700,0.00029,-0.00125,0.00269,0.00017,-0.00144,-0.00047,0.50000,0.10000,0.40000,0.00000,0.00000,0.00000,0.00000,0.00000,0.00000
no_tcp,0.03800,0.00051,-0.00159,0.00343,0.00022,-0.00184,-0.00073,0.50000,0.10000,0.40000,0.00000,0.00000,0.00000,0.00000,0.00000,0.00000
no_tcp,0.03900,0.00079,-0.00198,0.00430,0.00027,-0.00232,-0.00106,0.50000,0.10000,0.40000,0.00000,0.00000,0.00000,0.00000,0.00000,0.00000
no_tcp,0.04000,0.00113,-0.00243,0.00528,0.00033,-0.00286,-0.00145,0.50000,0.10000,0.40000,0.00000,0.00000,0.00000,0.00000,0.00000,0.00000
no_tcp,0.04100,0.00152,-0.00293,0.00640,0.00039,-0.00347,-0.00191,0.50000,0.10000,0.40000,0.00000,0.00000,0.00000,0.00000,0.00000,0.00000
no_tcp,0.04200,0.00198,-0.00349,0.00764,0.00047,-0.00415,-0.00244,0.50000,0.10000,0.40000,0.00000,0.00000,0.00000,0.00000,0.00000,0.00000
no_tcp,0.04300,0.00249,-0.00411,0.00901,0.00055,-0.00490,-0.00304,0.50000,0.10000,0.40000,0.00000,0.00000,0.00000,0.00000,0.00000,0.00000
no_tcp,0.04400,0.00307,-0.00479,0.01051,0.00064,-0.00573,-0.00370,0.50000,0.10000,0.40000,0.00000,0.00000,0.00000,0.00000,0.00000,0.00000
no_tcp,0.04500,0.00371,-0.00553,0.01215,0.00073,-0.00663,-0.00444,0.50000,0.10000,0.40000,0.00000,0.00000,0.00000,0.00000,0.00000,0.00000
no_tcp,0.04600,0.00441,-0.00633,0.01392,0.00084,-0.00760,-0.00525,0.50000,0.10000,0.40000,0.00000,0.00000,0.00000,0.00000,0.00000,0.00000
no_tcp,0.04700,0.00518,-0.00719,0.01584,0.00095,-0.00866,-0.00613,0.50000,0.10000,0.40000,0.00000,0.00000,0.00000,0.00000,0.00000,0.00000
no_tcp,0.04800,0.00601,-0.00811,0.01789,0.00107,-0.00979,-0.00708,0.50000,0.10000,0.40000,0.00000,0.00000,0.00000,0.00000,0.00000,0.00000
no_tcp,0.04900,0.00691,-0.00910,0.02009,0.00120,-0.01101,-0.00810,0.50000,0.10000,0.40000,0.00000,0.00000,0.00000,0.00000,0.00000,0.00000
no_tcp,0.05000,0.00787,-0.01015,0.02244,0.00134,-0.01230,-0.00920,0.50000,0.10000,0.40000,0.00000,0.00000,0.00000,0.00000,0.00000,0.00000
no_tcp,0.05100,0.00889,-0.01127,0.02493,0.00149,-0.01368,-0.01037,0.50000,0.10000,0.40000,0.00000,0.00000,0.00000,0.00000,0.00000,0.00000
no_tcp,0.05200,0.00998,-0.01245,0.02757,0.00164,-0.01514,-0.01162,0.50000,0.10000,0.40000,0.00000,0.00000,0.00000,0.00000,0.00000,0.00000
no_tcp,0.05300,0.01114,-0.01370,0.03037,0.00181,-0.01669,-0.01294,0.50000,0.10000,0.40000,0.00000,0.00000,0.00000,0.00000,0.00000,0.00000
no_tcp,0.05400,0.01237,-0.01502,0.03332,0.00198,-0.01832,-0.01433,0.50000,0.10000,0.40000,0.00000,0.00000,0.00000,0.00000,0.00000,0.00000
no_tcp,0.05500,0.01366,-0.01641,0.03643,0.00216,-0.02004,-0.01580,0.50000,0.10000,0.40000,0.00000,0.00000,0.00000,0.00000,0.00000,0.00000
no_tcp,0.05600,0.01501,-0.01787,0.03969,0.00235,-0.02185,-0.01735,0.50000,0.10000,0.40000,0.00000,0.00000,0.00000,0.00000,0.00000,0.00000
no_tcp,0.05700,0.01644,-0.01940,0.04311,0.00256,-0.02375,-0.01897,0.50000,0.10000,0.40000,0.00000,0.00000,0.00000,0.00000,0.00000,0.00000
no_tcp,0.05800,0.01793,-0.02100,0.04670,0.00277,-0.02574,-0.02067,0.50000,0.10000,0.40000,0.00000,0.00000,0.00000,0.00000,0.00000,0.00000
no_tcp,0.05900,0.01949,-0.02267,0.05045,0.00299,-0.02782,-0.02245,0.50000,0.10000,0.40000,0.00000,0.00000,0.00000,0.00000,0.00000,0.00000
no_tcp,0.06000,0.02112,-0.02441,0.05436,0.00322,-0.02999,-0.02431,0.50000,0.10000,0.40000,0.00000,0.00000,0.00000,0.00000,0.00000,0.00000
no_tcp,0.06100,0.02281,-0.02623,0.05844,0.00346,-0.03226,-0.02624,0.50000,0.10000,0.40000,0.00000,0.00000,0.00000,0.00000,0.00000,0.00000
no_tcp,0.06200,0.02457,-0.02812,0.06269,0.00371,-0.03462,-0.02825,0.50000,0.10000,0.40000,0.00000,0.00000,0.00000,0.00000,0.00000,0.00000
no_tcp,0.06300,0.02640,-0.03009,0.06710,0.00397,-0.03707,-0.03034,0.50000,0.10000,0.40000,0.00000,0.00000,0.00000,0.00000,0.00000,0.00000
no_tcp,0.06400,0.02830,-0.03213,0.07169,0.00424,-0.03962,-0.03250,0.50000,0.10000,0.40000,0.00000,0.00000,0.00000,0.00000,0.00000,0.00000
no_tcp,0.06500,0.03027,-0.03425,0.07645,0.00452,-0.04227,-0.03475,0.50000,0.10000,0.40000,0.00000,0.00000,0.00000,0.00000,0.00000,0.00000
no_tcp,0.06600,0.03231,-0.03644,0.08138,0.00481,-0.04502,-0.03707,0.50000,0.10000,0.40000,0.00000,0.00000,0.00000,0.00000,0.00000,0.00000
no_tcp,0.06700,0.03441,-0.03871,0.08649,0.00512,-0.04786,-0.03948,0.50000,0.10000,0.40000,0.00000,0.00000,0.00000,0.00000,0.00000,0.00000
no_tcp,0.06800,0.03659,-0.04106,0.09177,0.00543,-0.05080,-0.04197,0.50000,0.10000,0.40000,0.00000,0.00000,0.00000,0.00000,0.00000,0.00000
no_tcp,0.06900,0.03883,-0.04348,0.09723,0.00576,-0.05384,-0.04453,0.50000,0.10000,0.40000,0.00000,0.00000,0.00000,0.00000,0.00000,0.00000
no_tcp,0.07000,0.04115,-0.04599,0.10287,0.00609,-0.05699,-0.04718,0.50000,0.10000,0.40000,0.00000,0.00000,0.00000,0.00000,0.00000,0.00000
no_tcp,0.07100,0.04353,-0.04857,0.10869,0.00644,-0.06023,-0.04990,0.50000,0.10000,0.40000,0.00000,0.00000,0.00000,0.00000,0.00000,0.00000
no_tcp,0.07200,0.04598,-0.05123,0.11468,0.00680,-0.06358,-0.05271,0.50000,0.10000,0.40000,0.00000,0.00000,0.00000,0.00000,0.00000,0.00000
no_tcp,0.07300,0.04850,-0.05397,0.12086,0.00717,-0.06703,-0.05559,0.50000,0.10000,0.40000,0.00000,0.00000,0.00000,0.00000,0.00000,0.00000
no_tcp,0.07400,0.05108,-0.05679,0.12722,0.00756,-0.07058,-0.05856,0.50000,0.10000,0.40000,0.00000,0.00000,0.00000,0.00000,0.00000,0.00000
no_tcp,0.07500,0.05374,-0.05969,0.13376,0.00795,-0.07424,-0.06160,0.50000,0.10000,0.40000,0.00000,0.00000,0.00000,0.00000,0.00000,0.00000
no_tcp,0.07600,0.05646,-0.06267,0.14048,0.00836,-0.07800,-0.06473,0.50000,0.10000,0.40000,0.00000,0.00000,0.00000,0.00000,0.00000,0.00000
no_tcp,0.07700,0.05926,-0.06573,0.14737,0.00878,-0.08186,-0.06793,0.50000,0.10000,0.40000,0.00000,0.00000,0.00000,0.00000,0.00000,0.00000
no_tcp,0.07800,0.06212,-0.06888,0.15445,0.00922,-0.08583,-0.07122,0.50000,0.10000,0.40000,0.00000,0.00000,0.00000,0.00000,0.00000,0.00000
no_tcp,0.07900,0.06505,-0.07210,0.16171,0.00966,-0.08991,-0.07459,0.50000,0.10000,0.40000,0.00000,0.00000,0.00000,0.00000,0.00000,0.00000
no_tcp,0.08000,0.06804,-0.07541,0.16915,0.01012,-0.09410,-0.07804,0.50000,0.10000,0.40000,0.00000,0.00000,0.00000,0.00000,0.00000,0.00000
no_tcp,0.08100,0.07111,-0.07880,0.17677,0.01060,-0.09839,-0.08157,0.50000,0.10000,0.40000,0.00000,0.00000,0.00000,0.00000,0.00000,0.00000
no_tcp,0.08200,0.07425,-0.08227,0.18456,0.01108,-0.10279,-0.08518,0.50000,0.10000,0.40000,0.00000,0.00000,0.00000,0.00000,0.00000,0.00000
no_tcp,0.08300,0.07745,-0.08583,0.19254,0.01158,-0.10730,-0.08888,0.50000,0.10000,0.40000,0.00000,0.00000,0.00000,0.00000,0.00000,0.00000
no_tcp,0.08400,0.08072,-0.08947,0.20070,0.01209,-0.11192,-0.09265,0.50000,0.10000,0.40000,0.00000,0.00000,0.00000,0.00000,0.00000,0.00000
no_tcp,0.08500,0.08407,-0.09319,0.20904,0.01262,-0.11664,-0.09651,0.50000,0.10000,0.40000,0.00000,0.00000,0.00000,0.00000,0.00000,0.00000
no_tcp,0.08600,0.08748,-0.09700,0.21755,0.01316,-0.12148,-0.10045,0.50000,0.10000,0.40000,0.00000,0.00000,0.00000,0.00000,0.00000,0.00000
no_tcp,0.08700,0.09096,-0.10089,0.22625,0.01371,-0.12643,-0.10447,0.50000,0.10000,0.40000,0.00000,0.00000,0.00000,0.00000,0.00000,0.00000
no_tcp,0.08800,0.09450,-0.10487,0.23513,0.01428,-0.13148,-0.10858,0.50000,0.10000,0.40000,0.00000,0.00000,0.00000,0.00000,0.00000,0.00000
no_tcp,0.08900,0.09812,-0.10893,0.24419,0.01486,-0.13665,-0.11277,0.50000,0.10000,0.40000,0.00000,0.00000,0.00000,0.00000,0.00000,0.00000
no_tcp,0.09000,0.10181,-0.11307,0.25343,0.01546,-0.14194,-0.11704,0.50000,0.10000,0.40000,0.00000,0.00000,0.00000,0.00000,0.00000,0.00000
no_tcp,0.09100,0.10557,-0.11730,0.26284,0.01607,-0.14733,-0.12140,0.50000,0.10000,0.40000,0.00000,0.00000,0.00000,0.00000,0.00000,0.00000
no_tcp,0.09200,0.10940,-0.12162,0.27244,0.01670,-0.15283,-0.12584,0.50000,0.10000,0.40000,0.00000,0.00000,0.00000,0.00000,0.00000,0.00000
no_tcp,0.09300,0.11330,-0.12602,0.28222,0.01734,-0.15845,-0.13037,0.50000,0.10000,0.40000,0.00000,0.00000,0.00000,0.00000,0.00000,0.00000
no_tcp,0.09400,0.11727,-0.13051,0.29218,0.01800,-0.16419,-0.13498,0.50000,0.10000,0.40000,0.00000,0.00000,0.00000,0.00000,0.00000,0.00000
no_tcp,0.09500,0.12131,-0.13508,0.30232,0.01867,-0.17003,-0.13968,0.50000,0.10000,0.40000,0.00000,0.00000,0.00000,0.00000,0.00000,0.00000
no_tcp,0.09600,0.12542,-0.13974,0.31263,0.01936,-0.17599,-0.14446,0.50000,0.10000,0.40000,0.00000,0.00000,0.00000,0.00000,0.00000,0.00000
no_tcp,0.09700,0.12960,-0.14448,0.32313,0.02006,-0.18207,-0.14933,0.50000,0.10000,0.40000,0.00000,0.00000,0.00000,0.00000,0.00000,0.00000
no_tcp,0.09800,0.13385,-0.14932,0.33381,0.02078,-0.18826,-0.15428,0.50000,0.10000,0.40000,0.00000,0.00000,0.00000,0.00000,0.00000,0.00000
no_tcp,0.09900,0.13816,-0.15423,0.34467,0.02152,-0.19456,-0.15931,0.50000,0.10000,0.40000,0.00000,0.00000,0.00000,0.00000,0.00000,0.00000
no_tcp,0.10000,0.14255,-0.15924,0.35571,0.02227,-0.20098,-0.16443,0.50000,0.10000,0.40000,0.00000,0.00000,0.00000,0.00000,0.00000,0.00000
no_tcp,0.10100,0.14701,-0.16433,0.36692,0.02304,-0.20752,-0.16964,0.50000,0.10000,0.40000,0.00000,0.00000,0.00000,0.00000,0.00000,0.00000
no_tcp,0.10200,0.15153,-0.16951,0.37832,0.02382,-0.21417,-0.17493,0.50000,0.10000,0.40000,0.00000,0.00000,0.00000,0.00000,0.00000,0.00000
no_tcp,0.10300,0.15613,-0.17477,0.38990,0.02462,-0.22094,-0.18030,0.50000,0.10000,0.40000,0.00000,0.00000,0.00000,0.00000,0.00000,0.00000
no_tcp,0.10400,0.16079,-0.18012,0.40166,0.02544,-0.22782,-0.18576,0.50000,0.10000,0.40000,0.00000,0.00000,0.00000,0.00000,0.00000,0.00000
no_tcp,0.10500,0.16552,-0.18556,0.41360,0.02628,-0.23483,-0.19131,0.50000,0.10000,0.40000,0.00000,0.00000,0.00000,0.00000,0.00000,0.00000
no_tcp,0.10600,0.17032,-0.19109,0.42571,0.02713,-0.24195,-0.19693,0.50000,0.10000,0.40000,0.00000,0.00000,0.00000,0.00000,0.00000,0.00000
no_tcp,0.10700,0.17519,-0.19670,0.43801,0.02800,-0.24918,-0.20265,0.50000,0.10000,0.40000,0.00000,0.00000,0.00000,0.00000,0.00000,0.00000
no_tcp,0.10800,0.18013,-0.20241,0.45049,0.02888,-0.25654,-0.20845,0.50000,0.10000,0.40000,0.00000,0.00000,0.00000,0.00000,0.00000,0.00000
no_tcp,0.10900,0.18513,-0.20820,0.46315,0.02979,-0.26401,-0.21433,0.50000,0.10000,0.40000,0.00000,0.00000,0.00000,0.00000,0.00000,0.00000
no_tcp,0.11000,0.19021,-0.21407,0.47599,0.03071,-0.27160,-0.22030,0.50000,0.10000,0.40000,0.00000,0.00000,0.00000,0.00000,0.00000,0.00000
no_tcp,0.11100,0.19535,-0.22004,0.48900,0.03165,-0.27931,-0.22636,0.50000,0.10000,0.40000,0.00000,0.00000,0.00000,0.00000,0.00000,0.00000
no_tcp,0.11200,0.20056,-0.22609,0.50220,0.03261,-0.28714,-0.23250,0.50000,0.10000,0.40000,0.00000,0.00000,0.00000,0.00000,0.00000,0.00000
no_tcp,0.11300,0.20583,-0.23223,0.51558,0.03359,-0.29509,-0.23872,0.50000,0.10000,0.40000,0.00000,0.00000,0.00000,0.00000,0.00000,0.00000
no_tcp,0.11400,0.21118,-0.23846,0.52914,0.03458,-0.30315,-0.24503,0.50000,0.10000,0.40000,0.00000,0.00000,0.00000,0.00000,0.00000,0.00000
no_tcp,0.11500,0.21659,-0.24478,0.54288,0.03559,-0.31134,-0.25143,0.50000,0.10000,0.40000,0.00000,0.00000,0.00000,0.00000,0.00000,0.00000
no_tcp,0.11600,0.22207,-0.25118,0.55679,0.03663,-0.31964,-0.25791,0.50000,0.10000,0.40000,0.00000,0.00000,0.00000,0.00000,0.00000,0.00000
no_tcp,0.11700,0.22762,-0.25767,0.57089,0.03768,-0.32807,-0.26447,0.50000,0.10000,0.40000,0.00000,0.00000,0.00000,0.00000,0.00000,0.00000
no_tcp,0.11800,0.23323,-0.26425,0.58517,0.03875,-0.33661,-0.27112,0.50000,0.10000,0.40000,0.00000,0.00000,0.00000,0.00000,0.00000,0.00000
no_tcp,0.11900,0.23891,-0.27092,0.59963,0.03984,-0.34528,-0.27786,0.50000,0.10000,0.40000,0.00000,0.00000,0.00000,0.00000,0.00000,0.00000
no_tcp,0.12000,0.24466,-0.27768,0.61427,0.04095,-0.35407,-0.28468,0.50000,0.10000,0.40000,0.00000,0.00000,0.00000,0.00000,0.00000,0.00000
no_tcp,0.12100,0.25048,-0.28452,0.62908,0.04207,-0.36297,-0.29159,0.50000,0.10000,0.40000,0.00000,0.00000,0.00000,0.00000,0.00000,0.00000
no_tcp,0.12200,0.25636,-0.29146,0.64408,0.04322,-0.37200,-0.29858,0.50000,0.10000,0.40000,0.00000,0.00000,0.00000,0.00000,0.00000,0.00000
no_tcp,0.12300,0.26231,-0.29848,0.65926,0.04439,-0.38115,-0.30566,0.50000,0.10000,0.40000,0.00000,0.00000,0.00000,0.00000,0.00000,0.00000
no_tcp,0.12400,0.26832,-0.30559,0.67462,0.04558,-0.39041,-0.31282,0.50000,0.10000,0.40000,0.00000,0.00000,0.00000,0.00000,0.00000,0.00000
no_tcp,0.12500,0.27440,-0.31278,0.69016,0.04679,-0.39980,-0.32007,0.50000,0.10000,0.40000,0.00000,0.00000,0.00000,0.00000,0.00000,0.00000
no_tcp,0.12600,0.28055,-0.32007,0.70587,0.04801,-0.40932,-0.32740,0.50000,0.10000,0.40000,0.00000,0.00000,0.00000,0.00000,0.00000,0.00000
no_tcp,0.12700,0.28677,-0.32744,0.72177,0.04926,-0.41895,-0.33482,0.50000,0.10000,0.40000,0.00000,0.00000,0.00000,0.00000,0.00000,0.00000
no_tcp,0.12800,0.29305,-0.33490,0.73785,0.05053,-0.42870,-0.34233,0.50000,0.10000,0.40000,0.00000,0.00000,0.00000,0.00000,0.00000,0.00000
no_tcp,0.12900,0.29940,-0.34245,0.75411,0.05182,-0.43858,-0.34992,0.50000,0.10000,0.40000,0.00000,0.00000,0.00000,0.00000,0.00000,0.00000
no_tcp,0.13000,0.30581,-0.35009,0.77054,0.05313,-0.44857,-0.35760,0.50000,0.10000,0.40000,0.00000,0.00000,0.00000,0.00000,0.00000,0.00000
no_tcp,0.13100,0.31229,-0.35782,0.78716,0.05447,-0.45869,-0.36536,0.50000,0.10000,0.40000,0.00000,0.00000,0.00000,0.00000,0.00000,0.00000
no_tcp,0.13200,0.31883,-0.36563,0.80396,0.05582,-0.46893,-0.37321,0.50000,0.10000,0.40000,0.00000,0.00000,0.00000,0.00000,0.00000,0.00000
no_tcp,0.13300,0.32544,-0.37353,0.82094,0.05720,-0.47930,-0.38115,0.50000,0.10000,0.40000,0.00000,0.00000,0.00000,0.00000,0.00000,0.00000
no_tcp,0.13400,0.33212,-0.38152,0.83810,0.05859,-0.48978,-0.38917,0.50000,0.10000,0.40000,0.00000,0.00000,0.00000,0.00000,0.00000,0.00000
no_tcp,0.13500,0.33886,-0.38960,0.85543,0.06001,-0.50039,-0.39727,0.50000,0.10000,0.40000,0.00000,0.00000,0.00000,0.00000,0.00000,0.00000
no_tcp,0.13600,0.34567,-0.39776,0.87295,0.06145,-0.51112,-0.40546,0.50000,0.10000,0.40000,0.00000,0.00000,0.00000,0.00000,0.00000,0.00000
no_tcp,0.13700,0.35254,-0.40601,0.89065,0.06291,-0.52197,-0.41374,0.50000,0.10000,0.40000,0.00000,0.00000,0.00000,0.00000,0.00000,0.00000
no_tcp,0.13800,0.35948,-0.41435,0.90853,0.06440,-0.53295,-0.42210,0.50000,0.10000,0.40000,0.00000,0.00000,0.00000,0.00000,0.00000,0.00000
no_tcp,0.13900,0.36648,-0.42278,0.92659,0.06591,-0.54405,-0.43055,0.50000,0.10000,0.40000,0.00000,0.00000,0.00000,0.00000,0.00000,0.00000
no_tcp,0.14000,0.37355,-0.43129,0.94482,0.06743,-0.55527,-0.43909,0.50000,0.10000,0.40000,0.00000,0.00000,0.00000,0.00000,0.00000,0.00000
no_tcp,0.14100,0.38068,-0.43990,0.96324,0.06899,-0.56661,-0.44771,0.50000,0.10000,0.40000,0.00000,0.00000,0.00000,0.00000,0.00000,0.00000
no_tcp,0.14200,0.38787,-0.44858,0.98184,0.07056,-0.57807,-0.45641,0.50000,0.10000,0.40000,0.00000,0.00000,0.00000,0.00000,0.00000,0.00000
no_tcp,0.14300,0.39513,-0.45736,1.00062,0.07216,-0.58966,-0.46520,0.50000,0.10000,0.40000,0.00000,0.00000,0.00000,0.00000,0.00000,0.00000
no_tcp,0.14400,0.40245,-0.46622,1.01958,0.07378,-0.60137,-0.47408,0.50000,0.10000,0.40000,0.00000,0.00000,0.00000,0.00000,0.00000,0.00000
no_tcp,0.14500,0.40984,-0.47518,1.03871,0.07543,-0.61321,-0.48304,0.50000,0.10000,0.40000,0.00000,0.00000,0.00000,0.00000,0.00000,0.00000
no_tcp,0.14600,0.41729,-0.48421,1.05803,0.07709,-0.62517,-0.49209,0.50000,0.10000,0.40000,0.00000,0.00000,0.00000,0.00000,0.00000,0.00000
no_tcp,0.14700,0.42481,-0.49334,1.07753,0.07878,-0.63725,-0.50123,0.50000,0.10000,0.40000,0.00000,0.00000,0.00000,0.00000,0.00000,0.00000
no_tcp,0.14800,0.43239,-0.50255,1.09721,0.08050,-0.64945,-0.51045,0.50000,0.10000,0.40000,0.00000,0.00000,0.00000,0.00000,0.00000,0.00000
no_tcp,0.14900,0.44003,-0.51185,1.11707,0.08224,-0.66178,-0.51975,0.50000,0.10000,0.40000,0.00000,0.00000,0.00000,0.00000,0.00000,0.00000
no_tcp,0.15000,0.44773,-0.52123,1.13710,0.08400,-0.67422,-0.52914,0.50000,0.10000,0.40000,0.00000,0.00000,0.00000,0.00000,0.00000,0.00000
no_tcp,0.15100,0.45550,-0.53070,1.15732,0.08579,-0.68680,-0.53862,0.50000,0.10000,0.40000,0.00000,0.00000,0.00000,0.00000,0.00000,0.00000
no_tcp,0.15200,0.46333,-0.54026,1.17772,0.08760,-0.69949,-0.54818,0.50000,0.10000,0.40000,0.00000,0.00000,0.00000,0.00000,0.00000,0.00000
no_tcp,0.15300,0.47123,-0.54990,1.19830,0.08944,-0.71231,-0.55783,0.50000,0.10000,0.40000,0.00000,0.00000,0.00000,0.00000,0.00000,0.00000
no_tcp,0.15400,0.47919,-0.55963,1.21906,0.09130,-0.72525,-0.56756,0.50000,0.10000,0.40000,0.00000,0.00000,0.00000,0.00000,0.00000,0.00000
no_tcp,0.15500,0.48720,-0.56945,1.23999,0.09318,-0.73832,-0.57738,0.50000,0.10000,0.40000,0.00000,0.00000,0.00000,0.00000,0.00000,0.00000
no_tcp,0.15600,0.49529,-0.57935,1.26111,0.09509,-0.75151,-0.58728,0.50000,0.10000,0.40000,0.00000,0.00000,0.00000,0.00000,0.00000,0.00000
no_tcp,0.15700,0.50343,-0.58934,1.28241,0.09703,-0.76482,-0.59727,0.50000,0.10000,0.40000,0.00000,0.00000,0.00000,0.00000,0.00000,0.00000
no_tcp,0.15800,0.51164,-0.59941,1.30389,0.09899,-0.77825,-0.60734,0.50000,0.10000,0.40000,0.00000,0.00000,0.00000,0.00000,0.00000,0.00000
no_tcp,0.15900,0.51991,-0.60957,1.32555,0.10098,-0.79181,-0.61750,0.50000,0.10000,0.40000,0.00000,0.00000,0.00000,0.00000,0.00000,0.00000
no_tcp,0.16000,0.52824,-0.61981,1.34738,0.10299,-0.80549,-0.62774,0.50000,0.10000,0.40000,0.00000,0.00000,0.00000,0.00000,0.00000,0.00000
no_tcp,0.16100,0.53663,-0.63014,1.36940,0.10503,-0.81930,-0.63807,0.50000,0.10000,0.40000,0.00000,0.00000,0.00000,0.00000,0.00000,0.00000
no_tcp,0.16200,0.54508,-0.64055,1.39160,0.10709,-0.83323,-0.64849,0.50000,0.10000,0.40000,0.00000,0.00000,0.00000,0.00000,0.00000,0.00000
no_tcp,0.16300,0.55360,-0.65105,1.41398,0.10918,-0.84728,-0.65899,0.50000,0.10000,0.40000,0.00000,0.00000,0.00000,0.00000,0.00000,0.00000
no_tcp,0.16400,0.56217,-0.66164,1.43654,0.11129,-0.86145,-0.66957,0.50000,0.10000,0.40000,0.00000,0.00000,0.00000,0.00000,0.00000,0.00000
no_tcp,0.16500,0.57081,-0.67230,1.45927,0.11344,-0.87575,-0.68024,0.50000,0.10000,0.40000,0.00000,0.00000,0.00000,0.00000,0.00000,0.00000
no_tcp,0.16600,0.57951,-0.68306,1.48219,0.11560,-0.89017,-0.69100,0.50000,0.10000,0.40000,0.00000,0.00000,0.00000,0.00000,0.00000,0.00000
no_tcp,0.16700,0.58827,-0.69389,1.50529,0.11780,-0.90471,-0.70184,0.50000,0.10000,0.40000,0.00000,0.00000,0.00000,0.00000,0.00000,0.00000
no_tcp,0.16800,0.59708,-0.70482,1.52857,0.12002,-0.91938,-0.71277,0.50000,0.10000,0.40000,0.00000,0.00000,0.00000,0.00000,0.00000,0.00000
no_tcp,0.16900,0.60596,-0.71582,1.55203,0.12227,-0.93417,-0.72378,0.50000,0.10000,0.40000,0.00000,0.00000,0.00000,0.00000,0.00000,0.00000
no_tcp,0.17000,0.61490,-0.72691,1.57566,0.12454,-0.94908,-0.73487,0.50000,0.10000,0.40000,0.00000,0.00000,0.00000,0.00000,0.00000,0.00000
no_tcp,0.17100,0.62390,-0.73808,1.59948,0.12684,-0.96412,-0.74605,0.50000,0.10000,0.40000,0.00000,0.00000,0.00000,0.00000,0.00000,0.00000
no_tcp,0.17200,0.63296,-0.74934,1.62348,0.12917,-0.97927,-0.75731,0.50000,0.10000,0.40000,0.00000,0.00000,0.00000,0.00000,0.00000,0.00000
no_tcp,0.17300,0.64208,-0.76068,1.64766,0.13153,-0.99455,-0.76866,0.50000,0.10000,0.40000,0.00000,0.00000,0.00000,0.00000,0.00000,0.00000
no_tcp,0.17400,0.65126,-0.77210,1.67201,0.13391,-1.00996,-0.78009,0.50000,0.10000,0.40000,0.00000,0.00000,0.00000,0.00000,0.00000,0.00000
no_tcp,0.17500,0.66050,-0.78361,1.69655,0.13633,-1.02548,-0.79161,0.50000,0.10000,0.40000,0.00000,0.00000,0.00000,0.00000,0.00000,0.00000
no_tcp,0.17600,0.66979,-0.79520,1.72127,0.13877,-1.04113,-0.80321,0.50000,0.10000,0.40000,0.00000,0.00000,0.00000,0.00000,0.00000,0.00000
no_tcp,0.17700,0.67915,-0.80687,1.74617,0.14123,-1.05690,-0.81490,0.50000,0.10000,0.40000,0.00000,0.00000,0.00000,0.00000,0.00000,0.00000
no_tcp,0.17800,0.68856,-0.81863,1.77125,0.14373,-1.07280,-0.82667,0.50000,0.10000,0.40000,0.00000,0.00000,0.00000,0.00000,0.00000,0.00000
no_tcp,0.17900,0.69804,-0.83046,1.79650,0.14625,-1.08881,-0.83852,0.50000,0.10000,0.40000,0.00000,0.00000,0.00000,0.00000,0.00000,0.00000
no_tcp,0.18000,0.70757,-0.84238,1.82194,0.14881,-1.10495,-0.85046,0.50000,0.10000,0.40000,0.00000,0.00000,0.00000,0.00000,0.00000,0.00000
no_tcp,0.18100,0.71716,-0.85439,1.84756,0.15139,-1.12121,-0.86248,0.50000,0.10000,0.40000,0.00000,0.00000,0.00000,0.00000,0.00000,0.00000
no_tcp,0.18200,0.72680,-0.86647,1.87336,0.15400,-1.13760,-0.87459,0.50000,0.10000,0.40000,0.00000,0.00000,0.00000,0.00000,0.00000,0.00000
no_tcp,0.18300,0.73651,-0.87863,1.89934,0.15664,-1.15410,-0.88678,0.50000,0.10000,0.40000,0.00000,0.00000,0.00000,0.00000,0.00000,0.00000
no_tcp,0.18400,0.74627,-0.89088,1.92549,0.15930,-1.17073,-0.89905,0.50000,0.10000,0.40000,0.00000,0.00000,0.00000,0.00000,0.00000,0.00000
no_tcp,0.18500,0.75609,-0.90321,1.95183,0.16200,-1.18748,-0.91141,0.50000,0.10000,0.40000,0.00000,0.00000,0.00000,0.00000,0.00000,0.00000
no_tcp,0.18600,0.76597,-0.91562,1.97835,0.16473,-1.20435,-0.92385,0.50000,0.10000,0.40000,0.00000,0.00000,0.00000,0.00000,0.00000,0.00000
no_tcp,0.18700,0.77591,-0.92811,2.00505,0.16748,-1.22135,-0.93637,0.50000,0.10000,0.40000,0.00000,0.00000,0.00000,0.00000,0.00000,0.00000
no_tcp,0.18800,0.78590,-0.94068,2.03193,0.17026,-1.23846,-0.94898,0.50000,0.10000,0.40000,0.00000,0.00000,0.00000,0.00000,0.00000,0.00000
no_tcp,0.18900,0.79595,-0.95333,2.05898,0.17308,-1.25570,-0.96167,0.50000,0.10000,0.40000,0.00000,0.00000,0.00000,0.00000,0.00000,0.00000
no_tcp,0.19000,0.80605,-0.96606,2.08622,0.17592,-1.27306,-0.97444,0.50000,0.10000,0.40000,0.00000,0.00000,0.00000,0.00000,0.00000,0.00000
no_tcp,0.19100,0.81621,-0.97888,2.11364,0.17880,-1.29054,-0.98730,0.50000,0.10000,0.40000,0.00000,0.00000,0.00000,0.00000,0.00000,0.00000
no_tcp,0.19200,0.82643,-0.99177,2.14124,0.18170,-1.30814,-1.00024,0.50000,0.10000,0.40000,0.00000,0.00000,0.00000,0.00000,0.00000,0.00000
no_tcp,0.19300,0.83671,-1.00474,2.16902,0.18463,-1.32587,-1.01326,0.50000,0.10000,0.40000,0.00000,0.00000,0.00000,0.00000,0.00000,0.00000
no_tcp,0.19400,0.84704,-1.01779,2.19697,0.18760,-1.34371,-1.02637,0.50000,0.10000,0.40000,0.00000,0.00000,0.00000,0.00000,0.00000,0.00000
no_tcp,0.19500,0.85743,-1.03092,2.22511,0.19059,-1.36168,-1.03957,0.50000,0.10000,0.40000,0.00000,0.00000,0.00000,0.00000,0.00000,0.00000
no_tcp,0.19600,0.86788,-1.04413,2.25343,0.19362,-1.37977,-1.05284,0.50000,0.10000,0.40000,0.00000,0.00000,0.00000,0.00000,0.00000,0.00000
no_tcp,0.19700,0.87838,-1.05742,2.28193,0.19667,-1.39798,-1.06620,0.50000,0.10000,0.40000,0.00000,0.00000,0.00000,0.00000,0.00000,0.00000
no_tcp,0.19800,0.88894,-1.07079,2.31061,0.19976,-1.41631,-1.07965,0.50000,0.10000,0.40000,0.00000,0.00000,0.00000,0.00000,0.00000,0.00000
no_tcp,0.19900,0.89956,-1.08424,2.33946,0.20288,-1.43476,-1.09318,0.50000,0.10000,0.40000,0.00000,0.00000,0.00000,0.00000,0.00000,0.00000
no_tcp,0.20000,0.91023,-1.09776,2.36850,0.20602,-1.45333,-1.10679,0.50000,0.10000,0.40000,0.00000,0.00000,0.00000,0.00000,0.00000,0.00000
no_tcp,0.20100,0.92096,-1.11136,2.39772,0.20920,-1.47202,-1.12048,0.50000,0.10000,0.40000,0.00000,0.00000,0.00000,0.00000,0.00000,0.00000
no_tcp,0.20200,0.93175,-1.12505,2.42712,0.21241,-1.49083,-1.13426,0.50000,0.10000,0.40000,0.00000,0.00000,0.00000,0.00000,0.00000,0.00000
no_tcp,0.20300,0.94259,-1.13880,2.45670,0.21565,-1.50977,-1.14813,0.50000,0.10000,0.40000,0.00000,0.00000,0.00000,0.00000,0.00000,0.00000
no_tcp,0.20400,0.95348,-1.15264,2.48645,0.21893,-1.52882,-1.16207,0.50000,0.10000,0.40000,0.00000,0.00000,0.00000,0.00000,0.00000,0.00000
no_tcp,0.20500,0.96443,-1.16655,2.51639,0.22223,-1.54800,-1.17610,0.50000,0.10000,0.40000,0.00000,0.00000,0.00000,0.00000,0.00000,0.00000
no_tcp,0.20600,0.97544,-1.18054,2.54651,0.22557,-1.56729,-1.19021,0.50000,0.10000,0.40000,0.00000,0.00000,0.00000,0.00000,0.00000,0.00000
no_tcp,0.20700,0.98650,-1.19461,2.57681,0.22894,-1.58670,-1.20441,0.50000,0.10000,0.40000,0.00000,0.00000,0.00000,0.00000,0.00000,0.00000
no_tcp,0.20800,0.99762,-1.20876,2.60729,0.23234,-1.60624,-1.21869,0.50000,0.10000,0.40000,0.00000,0.00000,0.00000,0.00000,0.00000,0.00000
no_tcp,0.20900,1.00879,-1.22298,2.63794,0.23577,-1.62589,-1.23305,0.50000,0.10000,0.40000,0.00000,0.00000,0.00000,0.00000,0.00000,0.00000
no_tcp,0.21000,1.02001,-1.23727,2.66878,0.23924,-1.64567,-1.24749,0.50000,0.10000,0.40000,0.00000,0.00000,0.00000,0.00000,0.00000,0.00000
no_tcp,0.21100,1.03129,-1.25165,2.69980,0.24273,-1.66556,-1.26202,0.50000,0.10000,0.40000,0.00000,0.00000,0.00000,0.00000,0.00000,0.00000
no_tcp,0.21200,1.04262,-1.26609,2.73100,0.24626,-1.68557,-1.27663,0.50000,0.10000,0.40000,0.00000,0.00000,0.00000,0.00000,0.00000,0.00000
no_tcp,0.21300,1.05401,-1.28062,2.76238,0.24983,-1.70570,-1.29132,0.50000,0.10000,0.40000,0.00000,0.00000,0.00000,0.00000,0.00000,0.00000
no_tcp,0.21400,1.06545,-1.29522,2.79393,0.25342,-1.72596,-1.30610,0.50000,0.10000,0.40000,0.00000,0.00000,0.00000,0.00000,0.00000,0.00000
no_tcp,0.21500,1.07695,-1.30989,2.82567,0.25705,-1.74633,-1.32095,0.50000,0.10000,0.40000,0.00000,0.00000,0.00000,0.00000,0.00000,0.00000
no_tcp,0.21600,1.08850,-1.32464,2.85759,0.26071,-1.76682,-1.33589,0.50000,0.10000,0.40000,0.00000,0.00000,0.00000,0.00000,0.00000,0.00000
no_tcp,0.21700,1.10010,-1.33947,2.88969,0.26440,-1.78742,-1.35091,0.50000,0.10000,0.40000,0.00000,0.00000,0.00000,0.00000,0.00000,0.00000
no_tcp,0.21800,1.11175,-1.35436,2.92196,0.26813,-1.80815,-1.36602,0.50000,0.10000,0.40000,0.00000,0.00000,0.00000,0.00000,0.00000,0.00000
no_tcp,0.21900,1.12346,-1.36934,2.95442,0.27189,-1.82900,-1.38120,0.50000,0.10000,0.40000,0.00000,0.00000,0.00000,0.00000,0.00000,0.00000
no_tcp,0.22000,1.13522,-1.38438,2.98706,0.27569,-1.84996,-1.39647,0.50000,0.10000,0.40000,0.00000,0.00000,0.00000,0.00000,0.00000,0.00000
no_tcp,0.22100,1.14703,-1.39951,3.01988,0.27951,-1.87104,-1.41182,0.50000,0.10000,0.40000,0.00000,0.00000,0.00000,0.00000,0.00000,0.00000
no_tcp,0.22200,1.15890,-1.41470,3.05288,0.28338,-1.89225,-1.42725,0.50000,0.10000,0.40000,0.00000,0.00000,0.00000,0.00000,0.00000,0.00000
no_tcp,0.22300,1.17082,-1.42997,3.08605,0.28727,-1.91356,-1.44277,0.50000,0.10000,0.40000,0.00000,0.00000,0.00000,0.00000,0.00000,0.00000
no_tcp,0.22400,1.18279,-1.44531,3.11941,0.29120,-1.93500,-1.45836,0.50000,0.10000,0.40000,0.00000,0.00000,0.00000,0.00000,0.00000,0.00000
no_tcp,0.22500,1.19482,-1.46072,3.15295,0.29516,-1.95656,-1.47404,0.50000,0.10000,0.40000,0.00000,0.00000,0.00000,0.00000,0.00000,0.00000
no_tcp,0.22600,1.20689,-1.47621,3.18667,0.29916,-1.97823,-1.48980,0.50000,0.10000,0.40000,0.00000,0.00000,0.00000,0.00000,0.00000,0.00000
no_tcp,0.22700,1.21902,-1.49176,3.22057,0.30319,-2.00002,-1.50564,0.50000,0.10000,0.40000,0.00000,0.00000,0.00000,0.00000,0.00000,0.00000
no_tcp,0.22800,1.23120,-1.50740,3.25464,0.30726,-2.02193,-1.52156,0.50000,0.10000,0.40000,0.00000,0.00000,0.00000,0.00000,0.00000,0.00000
no_tcp,0.22900,1.24344,-1.52310,3.28890,0.31136,-2.04395,-1.53757,0.50000,0.10000,0.40000,0.00000,0.00000,0.00000,0.00000,0.00000,0.00000
no_tcp,0.23000,1.25572,-1.53887,3.32334,0.31549,-2.06609,-1.55366,0.50000,0.10000,0.40000,0.00000,0.00000,0.00000,0.00000,0.00000,0.00000
no_tcp,0.23100,1.26806,-1.55472,3.35796,0.31966,-2.08835,-1.56982,0.50000,0.10000,0.40000,0.00000,0.00000,0.00000,0.00000,0.00000,0.00000
no_tcp,0.23200,1.28045,-1.57063,3.39276,0.32387,-2.11073,-1.58607,0.50000,0.10000,0.40000,0.00000,0.00000,0.00000,0.00000,0.00000,0.00000
no_tcp,0.23300,1.29289,-1.58662,3.42773,0.32811,-2.13322,-1.60240,0.50000,0.10000,0.40000,0.00000,0.00000,0.00000,0.00000,0.00000,0.00000
no_tcp,0.23400,1.30538,-1.60268,3.46289,0.33238,-2.15583,-1.61882,0.50000,0.10000,0.40000,0.00000,0.00000,0.00000,0.00000,0.00000,0.00000
no_tcp,0.23500,1.31792,-1.61881,3.49823,0.33669,-2.17856,-1.63531,0.50000,0.10000,0.40000,0.00000,0.00000,0.00000,0.00000,0.00000,0.00000
no_tcp,0.23600,1.33051,-1.63501,3.53375,0.34103,-2.20140,-1.65188,0.50000,0.10000,0.40000,0.00000,0.00000,0.00000,0.00000,0.00000,0.00000
no_tcp,0.23700,1.34315,-1.65127,3.56945,0.34541,-2.22436,-1.66854,0.50000,0.10000,0.40000,0.00000,0.00000,0.00000,0.00000,0.00000,0.00000
no_tcp,0.23800,1.35585,-1.66761,3.60532,0.34983,-2.24743,-1.68528,0.50000,0.10000,0.40000,0.00000,0.00000,0.00000,0.00000,0.00000,0.00000
no_tcp,0.23900,1.36859,-1.68402,3.64138,0.35428,-2.27062,-1.70209,0.50000,0.10000,0.40000,0.00000,0.00000,0.00000,0.00000,0.00000,0.00000
no_tcp,0.24000,1.38139,-1.70050,3.67762,0.35877,-2.29393,-1.71899,0.50000,0.10000,0.40000,0.00000,0.00000,0.00000,0.00000,0.00000,0.00000
no_tcp,0.24100,1.39423,-1.71704,3.71404,0.36329,-2.31735,-1.73597,0.50000,0.10000,0.40000,0.00000,0.00000,0.00000,0.00000,0.00000,0.00000
no_tcp,0.24200,1.40713,-1.73366,3.75064,0.36785,-2.34089,-1.75303,0.50000,0.10000,0.40000,0.00000,0.00000,0.00000,0.00000,0.00000,0.00000
no_tcp,0.24300,1.42007,-1.75034,3.78741,0.37244,-2.36454,-1.77017,0.50000,0.10000,0.40000,0.00000,0.00000,0.00000,0.00000,0.00000,0.00000
no_tcp,0.24400,1.43307,-1.76709,3.82437,0.37707,-2.38831,-1.78739,0.50000,0.10000,0.40000,0.00000,0.00000,0.00000,0.00000,0.00000,0.00000
no_tcp,0.24500,1.44611,-1.78391,3.86151,0.38174,-2.41219,-1.80469,0.50000,0.10000,0.40000,0.00000,0.00000,0.00000,0.00000,0.00000,0.00000
no_tcp,0.24600,1.45921,-1.80080,3.89883,0.38644,-2.43619,-1.82207,0.50000,0.10000,0.40000,0.00000,0.00000,0.00000,0.00000,0.00000,0.00000
no_tcp,0.24700,1.47235,-1.81776,3.93633,0.39118,-2.46030,-1.83953,0.50000,0.10000,0.40000,0.00000,0.00000,0.00000,0.00000,0.00000,0.00000
no_tcp,0.24800,1.48554,-1.83478,3.97400,0.39595,-2.48452,-1.85707,0.50000,0.10000,0.40000,0.00000,0.00000,0.00000,0.00000,0.00000,0.00000
no_tcp,0.24900,1.49878,-1.85187,4.01186,0.40077,-2.50887,-1.87468,0.50000,0.10000,0.40000,0.00000,0.00000,0.00000,0.00000,0.00000,0.00000
no_tcp,0.25000,1.51207,-1.86902,4.04990,0.40561,-2.53332,-1.89238,0.50000,0.10000,0.40000,0.00000,0.00000,0.00000,0.00000,0.00000,0.00000
no_tcp,0.25100,1.52540,-1.88625,4.08812,0.41050,-2.55789,-1.91016,0.50000,0.10000,0.40000,0.00000,0.00000,0.00000,0.00000,0.00000,0.00000
no_tcp,0.25200,1.53879,-1.90354,4.12652,0.41542,-2.58257,-1.92801,0.50000,0.10000,0.40000,0.00000,0.00000,0.00000,0.00000,0.00000,0.00000
no_tcp,0.25300,1.55222,-1.92089,4.16509,0.42038,-2.60737,-1.94595,0.50000,0.10000,0.40000,0.00000,0.00000,0.00000,0.00000,0.00000,0.00000
no_tcp,0.25400,1.56570,-1.93831,4.20385,0.42538,-2.63228,-1.96396,0.50000,0.10000,0.40000,0.00000,0.00000,0.00000,0.00000,0.00000,0.00000
no_tcp,0.25500,1.57923,-1.95580,4.24279,0.43041,-2.65731,-1.98206,0.50000,0.10000,0.40000,0.00000,0.00000,0.00000,0.00000,0.00000,0.00000
no_tcp,0.25600,1.59281,-1.97335,4.28191,0.43548,-2.68244,-2.00023,0.50000,0.10000,0.40000,0.00000,0.00000,0.00000,0.00000,0.00000,0.00000
no_tcp,0.25700,1.60643,-1.99097,4.32120,0.44059,-2.70769,-2.01848,0.50000,0.10000,0.40000,0.00000,0.00000,0.00000,0.00000,0.00000,0.00000
no_tcp,0.25800,1.62010,-2.00865,4.36068,0.44574,-2.73306,-2.03681,0.50000,0.10000,0.40000,0.00000,0.00000,0.00000,0.00000,0.00000,0.00000
no_tcp,0.25900,1.63382,-2.02640,4.40034,0.45092,-2.75853,-2.05522,0.50000,0.10000,0.40000,0.00000,0.00000,0.00000,0.00000,0.00000,0.00000
no_tcp,0.26000,1.64759,-2.04421,4.44018,0.45614,-2.78412,-2.07370,0.50000,0.10000,0.40000,0.00000,0.00000,0.00000,0.00000,0.00000,0.00000
no_tcp,0.26100,1.66140,-2.06209,4.48020,0.46140,-2.80982,-2.09227,0.50000,0.10000,0.40000,0.00000,0.00000,0.00000,0.00000,0.00000,0.00000
no_tcp,0.26200,1.67526,-2.08002,4.52039,0.46670,-2.83564,-2.11092,0.50000,0.10000,0.40000,0.00000,0.00000,0.00000,0.00000,0.00000,0.00000
no_tcp,0.26300,1.68917,-2.09803,4.56077,0.47203,-2.86157,-2.12964,0.50000,0.10000,0.40000,0.00000,0.00000,0.00000,0.00000,0.00000,0.00000
no_tcp,0.26400,1.70312,-2.11609,4.60133,0.47740,-2.88760,-2.14844,0.50000,0.10000,0.40000,0.00000,0.00000,0.00000,0.00000,0.00000,0.00000
no_tcp,0.26500,1.71712,-2.13422,4.64207,0.48281,-2.91375,-2.16732,0.50000,0.10000,0.40000,0.00000,0.00000,0.00000,0.00000,0.00000,0.00000
no_tcp,0.26600,1.73117,-2.15241,4.68299,0.48826,-2.94002,-2.18628,0.50000,0.10000,0.40000,0.00000,0.00000,0.00000,0.00000,0.00000,0.00000
no_tcp,0.26700,1.74527,-2.17067,4.72408,0.49375,-2.96639,-2.20532,0.50000,0.10000,0.40000,0.00000,0.00000,0.00000,0.00000,0.00000,0.00000
no_tcp,0.26800,1.75941,-2.18898,4.76536,0.49927,-2.99288,-2.22443,0.50000,0.10000,0.40000,0.00000,0.00000,0.00000,0.00000,0.00000,0.00000
no_tcp,0.26900,1.77360,-2.20736,4.80682,0.50484,-3.01947,-2.24362,0.50000,0.10000,0.40000,0.00000,0.00000,0.00000,0.00000,0.00000,0.00000
no_tcp,0.27000,1.78783,-2.22580,4.84846,0.51044,-3.04618,-2.26290,0.50000,0.10000,0.40000,0.00000,0.00000,0.00000,0.00000,0.00000,0.00000
no_tcp,0.27100,1.80211,-2.24430,4.89028,0.51608,-3.07300,-2.28224,0.50000,0.10000,0.40000,0.00000,0.00000,0.00000,0.00000,0.00000,0.00000
no_tcp,0.27200,1.81644,-2.26287,4.93227,0.52176,-3.09993,-2.30167,0.50000,0.10000,0.40000,0.00000,0.00000,0.00000,0.00000,0.00000,0.00000
no_tcp,0.27300,1.83081,-2.28149,4.97445,0.52748,-3.12697,-2.32117,0.50000,0.10000,0.40000,0.00000,0.00000,0.00000,0.00000,0.00000,0.00000
no_tcp,0.27400,1.84523,-2.30017,5.01681,0.53324,-3.15412,-2.34076,0.50000,0.10000,0.40000,0.00000,0.00000,0.00000,0.00000,0.00000,0.00000
no_tcp,0.27500,1.85969,-2.31892,5.05935,0.53903,-3.18138,-2.36042,0.50000,0.10000,0.40000,0.00000,0.00000,0.00000,0.00000,0.00000,0.00000
no_tcp,0.27600,1.87420,-2.33773,5.10207,0.54487,-3.20875,-2.38015,0.50000,0.10000,0.40000,0.00000,0.00000,0.00000,0.00000,0.00000,0.00000
no_tcp,0.27700,1.88876,-2.35659,5.14496,0.55074,-3.23623,-2.39996,0.50000,0.10000,0.40000,0.00000,0.00000,0.00000,0.00000,0.00000,0.00000
no_tcp,0.27800,1.90335,-2.37552,5.18804,0.55666,-3.26382,-2.41986,0.50000,0.10000,0.40000,0.00000,0.00000,0.00000,0.00000,0.00000,0.00000
no_tcp,0.27900,1.91800,-2.39450,5.23130,0.56261,-3.29153,-2.43982,0.50000,0.10000,0.40000,0.00000,0.00000,0.00000,0.00000,0.00000,0.00000
no_tcp,0.28000,1.93269,-2.41354,5.27474,0.56860,-3.31934,-2.45987,0.50000,0.10000,0.40000,0.00000,0.00000,0.00000,0.00000,0.00000,0.00000
no_tcp,0.28100,1.94742,-2.43265,5.31836,0.57463,-3.34726,-2.47999,0.50000,0.10000,0.40000,0.00000,0.00000,0.00000,0.00000,0.00000,0.00000
no_tcp,0.28200,1.96220,-2.45181,5.36215,0.58070,-3.37528,-2.50018,0.50000,0.10000,0.40000,0.00000,0.00000,0.00000,0.00000,0.00000,0.00000
no_tcp,0.28300,1.97702,-2.47103,5.40613,0.58681,-3.40342,-2.52046,0.50000,0.10000,0.40000,0.00000,0.00000,0.00000,0.00000,0.00000,0.00000
no_tcp,0.28400,1.99189,-2.49030,5.45028,0.59297,-3.43167,-2.54081,0.50000,0.10000,0.40000,0.00000,0.00000,0.00000,0.00000,0.00000,0.00000
no_tcp,0.28500,2.00680,-2.50964,5.49461,0.59916,-3.46002,-2.56123,0.50000,0.10000,0.40000,0.00000,0.00000,0.00000,0.00000,0.00000,0.00000
no_tcp,0.28600,2.02175,-2.52903,5.53911,0.60539,-3.48849,-2.58173,0.50000,0.10000,0.40000,0.00000,0.00000,0.00000,0.00000,0.00000,0.00000
no_tcp,0.28700,2.03675,-2.54849,5.58380,0.61166,-3.51706,-2.60231,0.50000,0.10000,0.40000,0.00000,0.00000,0.00000,0.00000,0.00000,0.00000
no_tcp,0.28800,2.05179,-2.56799,5.62865,0.61797,-3.54574,-2.62296,0.50000,0.10000,0.40000,0.00000,0.00000,0.00000,0.00000,0.00000,0.00000
no_tcp,0.28900,2.06687,-2.58756,5.67369,0.62432,-3.57453,-2.64369,0.50000,0.10000,0.40000,0.00000,0.00000,0.00000,0.00000,0.00000,0.00000
no_tcp,0.29000,2.08200,-2.60718,5.71889,0.63071,-3.60343,-2.66450,0.50000,0.10000,0.40000,0.00000,0.00000,0.00000,0.00000,0.00000,0.00000
no_tcp,0.29100,2.09717,-2.62686,5.76427,0.63714,-3.63243,-2.68538,0.50000,0.10000,0.40000,0.00000,0.00000,0.00000,0.00000,0.00000,0.00000
no_tcp,0.29200,2.11238,-2.64659,5.80982,0.64361,-3.66154,-2.70633,0.50000,0.10000,0.40000,0.00000,0.00000,0.00000,0.00000,0.00000,0.00000
no_tcp,0.29300,2.12764,-2.66638,5.85555,0.65012,-3.69076,-2.72736,0.50000,0.10000,0.40000,0.00000,0.00000,0.00000,0.00000,0.00000,0.00000
no_tcp,0.29400,2.14294,-2.68623,5.90145,0.65667,-3.72009,-2.74847,0.50000,0.10000,0.40000,0.00000,0.00000,0.00000,0.00000,0.00000,0.00000
no_tcp,0.29500,2.15828,-2.70613,5.94751,0.66327,-3.74952,-2.76965,0.50000,0.10000,0.40000,0.00000,0.00000,0.00000,0.00000,0.00000,0.00000
no_tcp,0.29600,2.17367,-2.72609,5.99375,0.66990,-3.77906,-2.79090,0.50000,0.10000,0.40000,0.00000,0.00000,0.00000,0.00000,0.00000,0.00000
no_tcp,0.29700,2.18909,-2.74610,6.04016,0.67657,-3.80871,-2.81223,0.50000,0.10000,0.40000,0.00000,0.00000,0.00000,0.00000,0.00000,0.00000
no_tcp,0.29800,2.20456,-2.76616,6.08674,0.68329,-3.83846,-2.83363,0.50000,0.10000,0.40000,0.00000,0.00000,0.00000,0.00000,0.00000,0.00000
no_tcp,0.29900,2.22007,-2.78628,6.13349,0.69005,-3.86832,-2.85511,0.50000,0.10000,0.40000,0.00000,0.00000,0.00000,0.00000,0.00000,0.00000
no_tcp,0.30000,2.23563,-2.80646,6.18040,0.69684,-3.89828,-2.87667,0.50000,0.10000,0.40000,0.00000,0.00000,0.00000,0.00000,0.00000,0.00000
no_tcp,0.30100,2.25122,-2.82669,6.22749,0.70368,-3.92836,-2.89829,0.50000,0.10000,0.40000,0.00000,0.00000,0.00000,0.00000,0.00000,0.00000
no_tcp,0.30200,2.26686,-2.84697,6.27474,0.71056,-3.95853,-2.92000,0.50000,0.10000,0.40000,0.00000,0.00000,0.00000,0.00000,0.00000,0.00000
no_tcp,0.30300,2.28254,-2.86730,6.32215,0.71748,-3.98882,-2.94177,0.50000,0.10000,0.40000,0.00000,0.00000,0.00000,0.00000,0.00000,0.00000
no_tcp,0.30400,2.29826,-2.88769,6.36973,0.72444,-4.01921,-2.96362,0.50000,0.10000,0.40000,0.00000,0.00000,0.00000,0.00000,0.00000,0.00000
no_tcp,0.30500,2.31402,-2.90813,6.41748,0.73144,-4.04970,-2.98554,0.50000,0.10000,0.40000,0.00000,0.00000,0.00000,0.00000,0.00000,0.00000
no_tcp,0.30600,2.32983,-2.92863,6.46539,0.73849,-4.08030,-3.00754,0.50000,0.10000,0.40000,0.00000,0.00000,0.00000,0.00000,0.00000,0.00000
no_tcp,0.30700,2.34567,-2.94917,6.51347,0.74557,-4.11101,-3.02961,0.50000,0.10000,0.40000,0.00000,0.00000,0.00000,0.00000,0.00000,0.00000
no_tcp,0.30800,2.36156,-2.96977,6.56171,0.75270,-4.14182,-3.05176,0.50000,0.10000,0.40000,0.00000,0.00000,0.00000,0.00000,0.00000,0.00000
no_tcp,0.30900,2.37748,-2.99042,6.61011,0.75987,-4.17273,-3.07397,0.50000,0.10000,0.40000,0.00000,0.00000,0.00000,0.00000,0.00000,0.00000
no_tcp,0.31000,2.39345,-3.01113,6.65868,0.76708,-4.20375,-3.09627,0.50000,0.10000,0.40000,0.00000,0.00000,0.00000,0.00000,0.00000,0.00000
no_tcp,0.31100,2.40946,-3.03188,6.70741,0.77433,-4.23487,-3.11863,0.50000,0.10000,0.40000,0.00000,0.00000,0.00000,0.00000,0.00000,0.00000
no_tcp,0.31200,2.42551,-3.05268,6.75629,0.78162,-4.26610,-3.14107,0.50000,0.10000,0.40000,0.00000,0.00000,0.00000,0.00000,0.00000,0.00000
no_tcp,0.31300,2.44160,-3.07354,6.80534,0.78895,-4.29744,-3.16358,0.50000,0.10000,0.40000,0.00000,0.00000,0.00000,0.00000,0.00000,0.00000
no_tcp,0.31400,2.45773,-3.09444,6.85455,0.79633,-4.32887,-3.18616,0.50000,0.10000,0.40000,0.00000,0.00000,0.00000,0.00000,0.00000,0.00000
no_tcp,0.31500,2.47390,-3.11540,6.90392,0.80375,-4.36041,-3.20882,0.50000,0.10000,0.40000,0.00000,0.00000,0.00000,0.00000,0.00000,0.00000
no_tcp,0.31600,2.49011,-3.13640,6.95344,0.81121,-4.39205,-3.23155,0.50000,0.10000,0.40000,0.00000,0.00000,0.00000,0.00000,0.00000,0.00000
no_tcp,0.31700,2.50636,-3.15746,7.00313,0.81871,-4.42380,-3.25435,0.50000,0.10000,0.40000,0.00000,0.00000,0.00000,0.00000,0.00000,0.00000
no_tcp,0.31800,2.52265,-3.17856,7.05297,0.82626,-4.45565,-3.27722,0.50000,0.10000,0.40000,0.00000,0.00000,0.00000,0.00000,0.00000,0.00000
no_tcp,0.31900,2.53899,-3.19971,7.10297,0.83384,-4.48761,-3.30017,0.50000,0.10000,0.40000,0.00000,0.00000,0.00000,0.00000,0.00000,0.00000
no_tcp,0.32000,2.55536,-3.22092,7.15312,0.84147,-4.51966,-3.32318,0.50000,0.10000,0.40000,0.00000,0.00000,0.00000,0.00000,0.00000,0.00000
no_tcp,0.32100,2.57177,-3.24217,7.20343,0.84915,-4.55182,-3.34627,0.50000,0.10000,0.40000,0.00000,0.00000,0.00000,0.00000,0.00000,0.00000
no_tcp,0.32200,2.58821,-3.26347,7.25390,0.85686,-4.58408,-3.36944,0.50000,0.10000,0.40000,0.00000,0.00000,0.00000,0.00000,0.00000,0.00000
no_tcp,0.32300,2.60470,-3.28482,7.30452,0.86462,-4.61645,-3.39267,0.50000,0.10000,0.40000,0.00000,0.00000,0.00000,0.00000,0.00000,0.00000
no_tcp,0.32400,2.62123,-3.30621,7.35529,0.87241,-4.64892,-3.41597,0.50000,0.10000,0.40000,0.00000,0.00000,0.00000,0.00000,0.00000,0.00000
no_tcp,0.32500,2.63780,-3.32765,7.40622,0.88025,-4.68148,-3.43935,0.50000,0.10000,0.40000,0.00000,0.00000,0.00000,0.00000,0.00000,0.00000
no_tcp,0.32600,2.65440,-3.34915,7.45730,0.88814,-4.71416,-3.46280,0.50000,0.10000,0.40000,0.00000,0.00000,0.00000,0.00000,0.00000,0.00000
no_tcp,0.32700,2.67105,-3.37068,7.50853,0.89606,-4.74693,-3.48631,0.50000,0.10000,0.40000,0.00000,0.00000,0.00000,0.00000,0.00000,0.00000
no_tcp,0.32800,2.68773,-3.39227,7.55992,0.90403,-4.77980,-3.50990,0.50000,0.10000,0.40000,0.00000,0.00000,0.00000,0.00000,0.00000,0.00000
no_tcp,0.32900,2.70445,-3.41390,7.61145,0.91205,-4.81278,-3.53356,0.50000,0.10000,0.40000,0.00000,0.00000,0.00000,0.00000,0.00000,0.00000
no_tcp,0.33000,2.72121,-3.43558,7.66314,0.92010,-4.84586,-3.55729,0.50000,0.10000,0.40000,0.00000,0.00000,0.00000,0.00000,0.00000,0.00000
no_tcp,0.33100,2.73801,-3.45730,7.71498,0.92820,-4.87903,-3.58109,0.50000,0.10000,0.40000,0.00000,0.00000,0.00000,0.00000,0.00000,0.00000
no_tcp,0.33200,2.75485,-3.47907,7.76696,0.93634,-4.91231,-3.60497,0.50000,0.10000,0.40000,0.00000,0.00000,0.00000,0.00000,0.00000,0.00000
no_tcp,0.33300,2.77172,-3.50089,7.81909,0.94452,-4.94569,-3.62891,0.50000,0.10000,0.40000,0.00000,0.00000,0.00000,0.00000,0.00000,0.00000
no_tcp,0.33400,2.78863,-3.52275,7.87138,0.95275,-4.97918,-3.65292,0.50000,0.10000,0.40000,0.00000,0.00000,0.00000,0.00000,0.00000,0.00000
no_tcp,0.33500,2.80558,-3.54465,7.92381,0.96102,-5.01276,-3.67700,0.50000,0.10000,0.40000,0.00000,0.00000,0.00000,0.00000,0.00000,0.00000
no_tcp,0.33600,2.82257,-3.56660,7.97638,0.96933,-5.04644,-3.70115,0.50000,0.10000,0.40000,0.00000,0.00000,0.00000,0.00000,0.00000,0.00000
no_tcp,0.33700,2.83960,-3.58860,8.02911,0.97768,-5.08022,-3.72537,0.50000,0.10000,0.40000,0.00000,0.00000,0.00000,0.00000,0.00000,0.00000
no_tcp,0.33800,2.85666,-3.61064,8.08197,0.98608,-5.11410,-3.74966,0.50000,0.10000,0.40000,0.00000,0.00000,0.00000,0.00000,0.00000,0.00000
no_tcp,0.33900,2.87376,-3.63272,8.13499,0.99452,-5.14809,-3.77402,0.50000,0.10000,0.40000,0.00000,0.00000,0.00000,0.00000,0.00000,0.00000
no_tcp,0.34000,2.89089,-3.65485,8.18815,1.00301,-5.18217,-3.79845,0.50000,0.10000,0.40000,0.00000,0.00000,0.00000,0.00000,0.00000,0.00000
no_tcp,0.34100,2.90807,-3.67702,8.24145,1.01154,-5.21635,-3.82295,0.50000,0.10000,0.40000,0.00000,0.00000,0.00000,0.00000,0.00000,0.00000
no_tcp,0.34200,2.92528,-3.69924,8.29490,1.02011,-5.25063,-3.84752,0.50000,0.10000,0.40000,0.00000,0.00000,0.00000,0.00000,0.00000,0.00000
no_tcp,0.34300,2.94252,-3.72150,8.34849,1.02873,-5.28501,-3.87216,0.50000,0.10000,0.40000,0.00000,0.00000,0.00000,0.00000,0.00000,0.00000
no_tcp,0.34400,2.95981,-3.74380,8.40222,1.03739,-5.31949,-3.89686,0.50000,0.10000,0.40000,0.00000,0.00000,0.00000,0.00000,0.00000,0.00000
no_tcp,0.34500,2.97713,-3.76614,8.45609,1.04609,-5.35407,-3.92163,0.50000,0.10000,0.40000,0.00000,0.00000,0.00000,0.00000,0.00000,0.00000
no_tcp,0.34600,2.99449,-3.78853,8.51011,1.05483,-5.38875,-3.94648,0.50000,0.10000,0.40000,0.00000,0.00000,0.00000,0.00000,0.00000,0.00000
no_tcp,0.34700,3.01188,-3.81095,8.56426,1.06362,-5.42352,-3.97139,0.50000,0.10000,0.40000,0.00000,0.00000,0.00000,0.00000,0.00000,0.00000
no_tcp,0.34800,3.02931,-3.83342,8.61856,1.07246,-5.45840,-3.99636,0.50000,0.10000,0.40000,0.00000,0.00000,0.00000,0.00000,0.00000,0.00000
no_tcp,0.34900,3.04677,-3.85594,8.67299,1.08134,-5.49337,-4.02141,0.50000,0.10000,0.40000,0.00000,0.00000,0.00000,0.00000,0.00000,0.00000
no_tcp,0.35000,3.06428,-3.87849,8.72757,1.09026,-5.52844,-4.04653,0.50000,0.10000,0.40000,0.00000,0.00000,0.00000,0.00000,0.00000,0.00000
no_tcp,0.35100,3.08181,-3.90108,8.78228,1.09922,-5.56361,-4.07171,0.50000,0.10000,0.40000,0.00000,0.00000,0.00000,0.00000,0.00000,0.00000
no_tcp,0.35200,3.09939,-3.92372,8.83713,1.10823,-5.59888,-4.09696,0.50000,0.10000,0.40000,0.00000,0.00000,0.00000,0.00000,0.00000,0.00000
no_tcp,0.35300,3.11699,-3.94639,8.89212,1.11728,-5.63424,-4.12227,0.50000,0.10000,0.40000,0.00000,0.00000,0.00000,0.00000,0.00000,0.00000
no_tcp,0.35400,3.13464,-3.96911,8.94724,1.12638,-5.66971,-4.14766,0.50000,0.10000,0.40000,0.00000,0.00000,0.00000,0.00000,0.00000,0.00000
no_tcp,0.35500,3.15232,-3.99187,9.00250,1.13552,-5.70526,-4.17311,0.50000,0.10000,0.40000,0.00000,0.00000,0.00000,0.00000,0.00000,0.00000
no_tcp,0.35600,3.17003,-4.01466,9.05790,1.14471,-5.74092,-4.19863,0.50000,0.10000,0.40000,0.00000,0.00000,0.00000,0.00000,0.00000,0.00000
no_tcp,0.35700,3.18778,-4.03750,9.11343,1.15393,-5.77668,-4.22421,0.50000,0.10000,0.40000,0.00000,0.00000,0.00000,0.00000,0.00000,0.00000
no_tcp,0.35800,3.20557,-4.06037,9.16909,1.16321,-5.81253,-4.24987,0.50000,0.10000,0.40000,0.00000,0.00000,0.00000,0.00000,0.00000,0.00000
no_tcp,0.35900,3.22339,-4.08329,9.22489,1.17252,-5.84847,-4.27558,0.50000,0.10000,0.40000,0.00000,0.00000,0.00000,0.00000,0.00000,0.00000
no_tcp,0.36000,3.24124,-4.10624,9.28082,1.18189,-5.88452,-4.30137,0.50000,0.10000,0.40000,0.00000,0.00000,0.00000,0.00000,0.00000,0.00000
no_tcp,0.36100,3.25913,-4.12923,9.33689,1.19129,-5.92066,-4.32722,0.50000,0.10000,0.40000,0.00000,0.00000,0.00000,0.00000,0.00000,0.00000
no_tcp,0.36200,3.27705,-4.15226,9.39309,1.20074,-5.95690,-4.35314,0.50000,0.10000,0.40000,0.00000,0.00000,0.00000,0.00000,0.00000,0.00000
no_tcp,0.36300,3.29501,-4.17533,9.44942,1.21024,-5.99323,-4.37912,0.50000,0.10000,0.40000,0.00000,0.00000,0.00000,0.00000,0.00000,0.00000
no_tcp,0.36400,3.31301,-4.19844,9.50588,1.21977,-6.02966,-4.40517,0.50000,0.10000,0.40000,0.00000,0.00000,0.00000,0.00000,0.00000,0.00000
no_tcp,0.36500,3.33103,-4.22158,9.56247,1.22936,-6.06619,-4.43129,0.50000,0.10000,0.40000,0.00000,0.00000,0.00000,0.00000,0.00000,0.00000
no_tcp,0.36600,3.34909,-4.24476,9.61919,1.23898,-6.10281,-4.45747,0.50000,0.10000,0.40000,0.00000,0.00000,0.00000,0.00000,0.00000,0.00000
no_tcp,0.36700,3.36719,-4.26798,9.67604,1.24866,-6.13952,-4.48371,0.50000,0.10000,0.40000,0.00000,0.00000,0.00000,0.00000,0.00000,0.00000
no_tcp,0.36800,3.38532,-4.29123,9.73301,1.25837,-6.17634,-4.51003,0.50000,0.10000,0.40000,0.00000,0.00000,0.00000,0.00000,0.00000,0.00000
no_tcp,0.36900,3.40348,-4.31453,9.79012,1.26813,-6.21324,-4.53640,0.50000,0.10000,0.40000,0.00000,0.00000,0.00000,0.00000,0.00000,0.00000
no_tcp,0.37000,3.42168,-4.33786,9.84736,1.27794,-6.25025,-4.56284,0.50000,0.10000,0.40000,0.00000,0.00000,0.00000,0.00000,0.00000,0.00000
no_tcp,0.37100,3.43991,-4.36122,9.90472,1.28779,-6.28734,-4.58935,0.50000,0.10000,0.40000,0.00000,0.00000,0.00000,0.00000,0.00000,0.00000
no_tcp,0.37200,3.45817,-4.38462,9.96221,1.29768,-6.32454,-4.61592,0.50000,0.10000,0.40000,0.00000,0.00000,0.00000,0.00000,0.00000,0.00000
no_tcp,0.37300,3.47647,-4.40806,10.01982,1.30762,-6.36182,-4.64256,0.50000,0.10000,0.40000,0.00000,0.00000,0.00000,0.00000,0.00000,0.00000
no_tcp,0.37400,3.49480,-4.43153,10.07756,1.31761,-6.39921,-4.66926,0.50000,0.10000,0.40000,0.00000,0.00000,0.00000,0.00000,0.00000,0.00000
no_tcp,0.37500,3.51317,-4.45504,10.13543,1.32764,-6.43668,-4.69602,0.50000,0.10000,0.40000,0.00000,0.00000,0.00000,0.00000,0.00000,0.00000
no_tcp,0.37600,3.53156,-4.47858,10.19342,1.33771,-6.47425,-4.72285,0.50000,0.10000,0.40000,0.00000,0.00000,0.00000,0.00000,0.00000,0.00000
no_tcp,0.37700,3.54999,-4.50216,10.25153,1.34783,-6.51192,-4.74974,0.50000,0.10000,0.40000,0.00000,0.00000,0.00000,0.00000,0.00000,0.00000
no_tcp,0.37800,3.56846,-4.52577,10.30976,1.35799,-6.54968,-4.77670,0.50000,0.10000,0.40000,0.00000,0.00000,0.00000,0.00000,0.00000,0.00000
no_tcp,0.37900,3.58695,-4.54941,10.36812,1.36820,-6.58753,-4.80372,0.50000,0.10000,0.40000,0.00000,0.00000,0.00000,0.00000,0.00000,0.00000
no_tcp,0.38000,3.60548,-4.57309,10.42660,1.37845,-6.62548,-4.83080,0.50000,0.10000,0.40000,0.00000,0.00000,0.00000,0.00000,0.00000,0.00000
no_tcp,0.38100,3.62404,-4.59681,10.48521,1.38875,-6.66352,-4.85795,0.50000,0.10000,0.40000,0.00000,0.00000,0.00000,0.00000,0.00000,0.00000
no_tcp,0.38200,3.64264,-4.62056,10.54393,1.39910,-6.70165,-4.88516,0.50000,0.10000,0.40000,0.00000,0.00000,0.00000,0.00000,0.00000,0.00000
no_tcp,0.38300,3.66126,-4.64434,10.60278,1.40948,-6.73987,-4.91243,0.50000,0.10000,0.40000,0.00000,0.00000,0.00000,0.00000,0.00000,0.00000
no_tcp,0.38400,3.67992,-4.66815,10.66174,1.41992,-6.77819,-4.93977,0.50000,0.10000,0.40000,0.00000,0.00000,0.00000,0.00000,0.00000,0.00000
no_tcp,0.38500,3.69861,-4.69200,10.72082,1.43039,-6.81661,-4.96716,0.50000,0.10000,0.40000,0.00000,0.00000,0.00000,0.00000,0.00000,0.00000
no_tcp,0.38600,3.71733,-4.71587,10.78003,1.44092,-6.85511,-4.99462,0.50000,0.10000,0.40000,0.00000,0.00000,0.00000,0.00000,0.00000,0.00000
no_tcp,0.38700,3.73608,-4.73978,10.83935,1.45149,-6.89371,-5.02215,0.50000,0.10000,0.40000,0.00000,0.00000,0.00000,0.00000,0.00000,0.00000
no_tcp,0.38800,3.75487,-4.76373,10.89878,1.46210,-6.93240,-5.04973,0.50000,0.10000,0.40000,0.00000,0.00000,0.00000,0.00000,0.00000,0.00000
no_tcp,0.38900,3.77368,-4.78770,10.95834,1.47276,-6.97118,-5.07738,0.50000,0.10000,0.40000,0.00000,0.00000,0.00000,0.00000,0.00000,0.00000
no_tcp,0.39000,3.79253,-4.81171,11.01801,1.48346,-7.01006,-5.10509,0.50000,0.10000,0.40000,0.00000,0.00000,0.00000,0.00000,0.00000,0.00000
no_tcp,0.39100,3.81141,-4.83575,11.07780,1.49421,-7.04903,-5.13286,0.50000,0.10000,0.40000,0.00000,0.00000,0.00000,0.00000,0.00000,0.00000
no_tcp,0.39200,3.83032,-4.85982,11.13771,1.50500,-7.08809,-5.16069,0.50000,0.10000,0.40000,0.00000,0.00000,0.00000,0.00000,0.00000,0.00000
no_tcp,0.39300,3.84926,-4.88392,11.19773,1.51584,-7.12724,-5.18858,0.50000,0.10000,0.40000,0.00000,0.00000,0.00000,0.00000,0.00000,0.00000
no_tcp,0.39400,3.86824,-4.90805,11.25786,1.52673,-7.16648,-5.21653,0.50000,0.10000,0.40000,0.00000,0.00000,0.00000,0.00000,0.00000,0.00000
no_tcp,0.39500,3.88724,-4.93221,11.31811,1.53766,-7.20581,-5.24455,0.50000,0.10000,0.40000,0.00000,0.00000,0.00000,0.00000,0.00000,0.00000
no_tcp,0.39600,3.90628,-4.95640,11.37847,1.54863,-7.24524,-5.27263,0.50000,0.10000,0.40000,0.00000,0.00000,0.00000,0.00000,0.00000,0.00000
no_tcp,0.39700,3.92534,-4.98062,11.43894,1.55965,-7.28476,-5.30076,0.50000,0.10000,0.40000,0.00000,0.00000,0.00000,0.00000,0.00000,0.00000
no_tcp,0.39800,3.94444,-5.00487,11.49953,1.57072,-7.32437,-5.32896,0.50000,0.10000,0.40000,0.00000,0.00000,0.00000,0.00000,0.00000,0.00000
no_tcp,0.39900,3.96356,-5.02915,11.56023,1.58183,-7.36407,-5.35722,0.50000,0.10000,0.40000,0.00000,0.00000,0.00000,0.00000,0.00000,0.00000
no_tcp,0.40000,3.98272,-5.05346,11.62104,1.59299,-7.40386,-5.38553,0.50000,0.10000,0.40000,0.00000,0.00000,0.00000,0.00000,0.00000,0.00000
no_tcp,0.40100,4.00191,-5.07780,11.68196,1.60419,-7.44374,-5.41391,0.50000,0.10000,0.40000,0.00000,0.00000,0.00000,0.00000,0.00000,0.00000
no_tcp,0.40200,4.02113,-5.10217,11.74299,1.61543,-7.48371,-5.44235,0.50000,0.10000,0.40000,0.00000,0.00000,0.00000,0.00000,0.00000,0.00000
no_tcp,0.40300,4.04037,-5.12657,11.80413,1.62673,-7.52377,-5.47085,0.50000,0.10000,0.40000,0.00000,0.00000,0.00000,0.00000,0.00000,0.00000
no_tcp,0.40400,4.05965,-5.15099,11.86538,1.63807,-7.56392,-5.49940,0.50000,0.10000,0.40000,0.00000,0.00000,0.00000,0.00000,0.00000,0.00000
no_tcp,0.40500,4.07896,-5.17544,11.92674,1.64945,-7.60417,-5.52802,0.50000,0.10000,0.40000,0.00000,0.00000,0.00000,0.00000,0.00000,0.00000
no_tcp,0.40600,4.09830,-5.19992,11.98821,1.66088,-7.64450,-5.55669,0.50000,0.10000,0.40000,0.00000,0.00000,0.00000,0.00000,0.00000,0.00000
no_tcp,0.40700,4.11766,-5.22443,12.04979,1.67235,-7.68492,-5.58543,0.50000,0.10000,0.40000,0.00000,0.00000,0.00000,0.00000,0.00000,0.00000
no_tcp,0.40800,4.13706,-5.24897,12.11147,1.68388,-7.72543,-5.61422,0.50000,0.10000,0.40000,0.00000,0.00000,0.00000,0.00000,0.00000,0.00000
no_tcp,0.40900,4.15648,-5.27353,12.17326,1.69544,-7.76604,-5.64307,0.50000,0.10000,0.40000,0.00000,0.00000,0.00000,0.00000,0.00000,0.00000
no_tcp,0.41000,4.17594,-5.29812,12.23515,1.70705,-7.80673,-5.67198,0.50000,0.10000,0.40000,0.00000,0.00000,0.00000,0.00000,0.00000,0.00000
no_tcp,0.41100,4.19542,-5.32273,12.29715,1.71871,-7.84751,-5.70095,0.50000,0.10000,0.40000,0.00000,0.00000,0.00000,0.00000,0.00000,0.00000
no_tcp,0.41200,4.21494,-5.34738,12.35926,1.73041,-7.88838,-5.72998,0.50000,0.10000,0.40000,0.00000,0.00000,0.00000,0.00000,0.00000,0.00000
no_tcp,0.41300,4.23448,-5.37205,12.42147,1.74216,-7.92934,-5.75906,0.50000,0.10000,0.40000,0.00000,0.00000,0.00000,0.00000,0.00000,0.00000
no_tcp,0.41400,4.25405,-5.39674,12.48378,1.75396,-7.97039,-5.78820,0.50000,0.10000,0.40000,0.00000,0.00000,0.00000,0.00000,0.00000,0.00000
no_tcp,0.41500,4.27365,-5.42146,12.54620,1.76580,-8.01152,-5.81740,0.50000,0.10000,0.40000,0.00000,0.00000,0.00000,0.00000,0.00000,0.00000
no_tcp,0.41600,4.29328,-5.44621,12.60872,1.77768,-8.05275,-5.84666,0.50000,0.10000,0.40000,0.00000,0.00000,0.00000,0.00000,0.00000,0.00000
no_tcp,0.41700,4.31294,-5.47098,12.67134,1.78961,-8.09406,-5.87598,0.50000,0.10000,0.40000,0.00000,0.00000,0.00000,0.00000,0.00000,0.00000
no_tcp,0.41800,4.33262,-5.49578,12.73407,1.80159,-8.13547,-5.90535,0.50000,0.10000,0.40000,0.00000,0.00000,0.00000,0.00000,0.00000,0.00000
no_tcp,0.41900,4.35234,-5.52060,12.79690,1.81361,-8.17696,-5.93478,0.50000,0.10000,0.40000,0.00000,0.00000,0.00000,0.00000,0.00000,0.00000
no_tcp,0.42000,4.37208,-5.54545,12.85982,1.82568,-8.21854,-5.96426,0.50000,0.10000,0.40000,0.00000,0.00000,0.00000,0.00000,0.00000,0.00000
no_tcp,0.42100,4.39185,-5.57032,12.92285,1.83780,-8.26021,-5.99381,0.50000,0.10000,0.40000,0.00000,0.00000,0.00000,0.00000,0.00000,0.00000
no_tcp,0.42200,4.41165,-5.59521,12.98598,1.84996,-8.30196,-6.02340,0.50000,0.10000,0.40000,0.00000,0.00000,0.00000,0.00000,0.00000,0.00000
no_tcp,0.42300,4.43148,-5.62013,13.04921,1.86216,-8.34381,-6.05306,0.50000,0.10000,0.40000,0.00000,0.00000,0.00000,0.00000,0.00000,0.00000
no_tcp,0.42400,4.45133,-5.64507,13.11253,1.87441,-8.38574,-6.08277,0.50000,0.10000,0.40000,0.00000,0.00000,0.00000,0.00000,0.00000,0.00000
no_tcp,0.42500,4.47122,-5.67004,13.17596,1.88671,-8.42776,-6.11254,0.50000,0.10000,0.40000,0.00000,0.00000,0.00000,0.00000,0.00000,0.00000
no_tcp,0.42600,4.49113,-5.69503,13.23948,1.89906,-8.46986,-6.14236,0.50000,0.10000,0.40000,0.00000,0.00000,0.00000,0.00000,0.00000,0.00000
no_tcp,0.42700,4.51106,-5.72004,13.30310,1.91144,-8.51206,-6.17224,0.50000,0.10000,0.40000,0.00000,0.00000,0.00000,0.00000,0.00000,0.00000
no_tcp,0.42800,4.53103,-5.74508,13.36682,1.92388,-8.55434,-6.20217,0.50000,0.10000,0.40000,0.00000,0.00000,0.00000,0.00000,0.00000,0.00000
no_tcp,0.42900,4.55102,-5.77014,13.43063,1.93636,-8.59671,-6.23216,0.50000,0.10000,0.40000,0.00000,0.00000,0.00000,0.00000,0.00000,0.00000
no_tcp,0.43000,4.57104,-5.79522,13.49454,1.94889,-8.63916,-6.26221,0.50000,0.10000,0.40000,0.00000,0.00000,0.00000,0.00000,0.00000,0.00000
no_tcp,0.43100,4.59109,-5.82032,13.55855,1.96146,-8.68170,-6.29231,0.50000,0.10000,0.40000,0.00000,0.00000,0.00000,0.00000,0.00000,0.00000
no_tcp,0.43200,4.61116,-5.84545,13.62265,1.97408,-8.72433,-6.32246,0.50000,0.10000,0.40000,0.00000,0.00000,0.00000,0.00000,0.00000,0.00000
no_tcp,0.43300,4.63127,-5.87059,13.68684,1.98674,-8.76705,-6.35267,0.50000,0.10000,0.40000,0.00000,0.00000,0.00000,0.00000,0.00000,0.00000
no_tcp,0.43400,4.65139,-5.89576,13.75113,1.99945,-8.80985,-6.38293,0.50000,0.10000,0.40000,0.00000,0.00000,0.00000,0.00000,0.00000,0.00000
no_tcp,0.43500,4.67155,-5.92095,13.81551,2.01221,-8.85274,-6.41325,0.50000,0.10000,0.40000,0.00000,0.00000,0.00000,0.00000,0.00000,0.00000
no_tcp,0.43600,4.69173,-5.94616,13.87999,2.02501,-8.89571,-6.44362,0.50000,0.10000,0.40000,0.00000,0.00000,0.00000,0.00000,0.00000,0.00000
no_tcp,0.43700,4.71194,-5.97140,13.94455,2.03786,-8.93877,-6.47404,0.50000,0.10000,0.40000,0.00000,0.00000,0.00000,0.00000,0.00000,0.00000
no_tcp,0.43800,4.73217,-5.99665,14.00921,2.05076,-8.98192,-6.50452,0.50000,0.10000,0.40000,0.00000,0.00000,0.00000,0.00000,0.00000,0.00000
no_tcp,0.43900,4.75243,-6.02192,14.07396,2.06370,-9.02515,-6.53505,0.50000,0.10000,0.40000,0.00000,0.00000,0.00000,0.00000,0.00000,0.00000
no_tcp,0.44000,4.77272,-6.04721,14.13880,2.07668,-9.06847,-6.56564,0.50000,0.10000,0.40000,0.00000,0.00000,0.00000,0.00000,0.00000,0.00000
no_tcp,0.44100,4.79303,-6.07253,14.20373,2.08971,-9.11187,-6.59627,0.50000,0.10000,0.40000,0.00000,0.00000,0.00000,0.00000,0.00000,0.00000
no_tcp,0.44200,4.81337,-6.09786,14.26876,2.10279,-9.15536,-6.62696,0.50000,0.10000,0.40000,0.00000,0.00000,0.00000,0.00000,0.00000,0.00000
no_tcp,0.44300,4.83374,-6.12321,14.33387,2.11592,-9.19894,-6.65771,0.50000,0.10000,0.40000,0.00000,0.00000,0.00000,0.00000,0.00000,0.00000
no_tcp,0.44400,4.85413,-6.14859,14.39907,2.12909,-9.24259,-6.68850,0.50000,0.10000,0.40000,0.00000,0.00000,0.00000,0.00000,0.00000,0.00000
no_tcp,0.44500,4.87455,-6.17398,14.46436,2.14230,-9.28634,-6.71935,0.50000,0.10000,0.40000,0.00000,0.00000,0.00000,0.00000,0.00000,0.00000
no_tcp,0.44600,4.89499,-6.19939,14.52973,2.15556,-9.33017,-6.75025,0.50000,0.10000,0.40000,0.00000,0.00000,0.00000,0.00000,0.00000,0.00000
no_tcp,0.44700,4.91546,-6.22482,14.59520,2.16887,-9.37409,-6.78121,0.50000,0.10000,0.40000,0.00000,0.00000,0.00000,0.00000,0.00000,0.00000
no_tcp,0.44800,4.93595,-6.25026,14.66075,2.18223,-9.41808,-6.81221,0.50000,0.10000,0.40000,0.00000,0.00000,0.00000,0.00000,0.00000,0.00000
no_tcp,0.44900,4.95647,-6.27573,14.72639,2.19563,-9.46217,-6.84327,0.50000,0.10000,0.40000,0.00000,0.00000,0.00000,0.00000,0.00000,0.00000
no_tcp,0.45000,4.97701,-6.30121,14.79211,2.20907,-9.50634,-6.87437,0.50000,0.10000,0.40000,0.00000,0.00000,0.00000,0.00000,0.00000,0.00000
no_tcp,0.45100,4.99758,-6.32671,14.85792,2.22256,-9.55059,-6.90553,0.50000,0.10000,0.40000,0.00000,0.00000,0.00000,0.00000,0.00000,0.00000
no_tcp,0.45200,5.01818,-6.35223,14.92381,2.23610,-9.59493,-6.93674,0.50000,0.10000,0.40000,0.00000,0.00000,0.00000,0.00000,0.00000,0.00000
no_tcp,0.45300,5.03880,-6.37777,14.98979,2.24969,-9.63935,-6.96800,0.50000,0.10000,0.40000,0.00000,0.00000,0.00000,0.00000,0.00000,0.00000
no_tcp,0.45400,5.05944,-6.40332,15.05586,2.26332,-9.68386,-6.99931,0.50000,0.10000,0.40000,0.00000,0.00000,0.00000,0.00000,0.00000,0.00000
no_tcp,0.45500,5.08011,-6.42889,15.12201,2.27699,-9.72845,-7.03068,0.50000,0.10000,0.40000,0.00000,0.00000,0.00000,0.00000,0.00000,0.00000
no_tcp,0.45600,5.10080,-6.45448,15.18824,2.29072,-9.77312,-7.06209,0.50000,0.10000,0.40000,0.00000,0.00000,0.00000,0.00000,0.00000,0.00000
no_tcp,0.45700,5.12152,-6.48009,15.25455,2.30448,-9.81788,-7.09355,0.50000,0.10000,0.40000,0.00000,0.00000,0.00000,0.00000,0.00000,0.00000
no_tcp,0.45800,5.14226,-6.50571,15.32094,2.31830,-9.86272,-7.12506,0.50000,0.10000,0.40000,0.00000,0.00000,0.00000,0.00000,0.00000,0.00000
no_tcp,0.45900,5.16303,-6.53134,15.38742,2.33216,-9.90765,-7.15662,0.50000,0.10000,0.40000,0.00000,0.00000,0.00000,0.00000,0.00000,0.00000
no_tcp,0.46000,5.18382,-6.55700,15.45398,2.34607,-9.95266,-7.18824,0.50000,0.10000,0.40000,0.00000,0.00000,0.00000,0.00000,0.00000,0.00000
no_tcp,0.46100,5.20464,-6.58267,15.52062,2.36002,-9.99775,-7.21990,0.50000,0.10000,0.40000,0.00000,0.00000,0.00000,0.00000,0.00000,0.00000
no_tcp,0.46200,5.22548,-6.60835,15.58734,2.37402,-10.04292,-7.25161,0.50000,0.10000,0.40000,0.00000,0.00000,0.00000,0.00000,0.00000,0.00000
no_tcp,0.46300,5.24634,-6.63405,15.65414,2.38806,-10.08818,-7.28337,0.50000,0.10000,0.40000,0.00000,0.00000,0.00000,0.00000,0.00000,0.00000
no_tcp,0.46400,5.26723,-6.65977,15.72102,2.40215,-10.13352,-7.31517,0.50000,0.10000,0.40000,0.00000,0.00000,0.00000,0.00000,0.00000,0.00000
no_tcp,0.46500,5.28814,-6.68550,15.78798,2.41629,-10.17895,-7.34703,0.50000,0.10000,0.40000,0.00000,0.00000,0.00000,0.00000,0.00000,0.00000
no_tcp,0.46600,5.30907,-6.71124,15.85501,2.43047,-10.22446,-7.37894,0.50000,0.10000,0.40000,0.00000,0.00000,0.00000,0.00000,0.00000,0.00000
no_tcp,0.46700,5.33003,-6.73700,15.92213,2.44470,-10.27005,-7.41089,0.50000,0.10000,0.40000,0.00000,0.00000,0.00000,0.00000,0.00000,0.00000
no_tcp,0.46800,5.35101,-6.76277,15.98932,2.45897,-10.31572,-7.44289,0.50000,0.10000,0.40000,0.00000,0.00000,0.00000,0.00000,0.00000,0.00000
no_tcp,0.46900,5.37202,-6.78856,16.05659,2.47330,-10.36147,-7.47494,0.50000,0.10000,0.40000,0.00000,0.00000,0.00000,0.00000,0.00000,0.00000
no_tcp,0.47000,5.39305,-6.81436,16.12394,2.48766,-10.40731,-7.50704,0.50000,0.10000,0.40000,0.00000,0.00000,0.00000,0.00000,0.00000,0.00000
no_tcp,0.47100,5.41410,-6.84018,16.19136,2.50208,-10.45323,-7.53918,0.50000,0.10000,0.40000,0.00000,0.00000,0.00000,0.00000,0.00000,0.00000
no_tcp,0.47200,5.43517,-6.86601,16.25886,2.51653,-10.49923,-7.57137,0.50000,0.10000,0.40000,0.00000,0.00000,0.00000,0.00000,0.00000,0.00000
no_tcp,0.47300,5.45627,-6.89185,16.32643,2.53104,-10.54532,-7.60361,0.50000,0.10000,0.40000,0.00000,0.00000,0.00000,0.00000,0.00000,0.00000
no_tcp,0.47400,5.47739,-6.91770,16.39408,2.54559,-10.59148,-7.63590,0.50000,0.10000,0.40000,0.00000,0.00000,0.00000,0.00000,0.00000,0.00000
no_tcp,0.47500,5.49854,-6.94357,16.46180,2.56019,-10.63773,-7.66823,0.50000,0.10000,0.40000,0.00000,0.00000,0.00000,0.00000,0.00000,0.00000
no_tcp,0.47600,5.51970,-6.96945,16.52960,2.57483,-10.68406,-7.70061,0.50000,0.10000,0.40000,0.00000,0.00000,0.00000,0.00000,0.00000,0.00000
no_tcp,0.47700,5.54089,-6.99534,16.59747,2.58952,-10.73047,-7.73304,0.50000,0.10000,0.40000,0.00000,0.00000,0.00000,0.00000,0.00000,0.00000
no_tcp,0.47800,5.56211,-7.02125,16.66541,2.60425,-10.77696,-7.76551,0.50000,0.10000,0.40000,0.00000,0.00000,0.00000,0.00000,0.00000,0.00000
no_tcp,0.47900,5.58334,-7.04717,16.73343,2.61903,-10.82354,-7.79803,0.50000,0.10000,0.40000,0.00000,0.00000,0.00000,0.00000,0.00000,0.00000
no_tcp,0.48000,5.60460,-7.07310,16.80152,2.63386,-10.87019,-7.83059,0.50000,0.10000,0.40000,0.00000,0.00000,0.00000,0.00000,0.00000,0.00000
no_tcp,0.48100,5.62588,-7.09904,16.86968,2.64873,-10.91693,-7.86320,0.50000,0.10000,0.40000,0.00000,0.00000,0.00000,0.00000,0.00000,0.00000
no_tcp,0.48200,5.64718,-7.12499,16.93791,2.66365,-10.96375,-7.89586,0.50000,0.10000,0.40000,0.00000,0.00000,0.00000,0.00000,0.00000,0.00000
no_tcp,0.48300,5.66850,-7.15095,17.00621,2.67862,-11.01065,-7.92856,0.50000,0.10000,0.40000,0.00000,0.00000,0.00000,0.00000,0.00000,0.00000
no_tcp,0.48400,5.68985,-7.17693,17.07458,2.69363,-11.05763,-7.96130,0.50000,0.10000,0.40000,0.00000,0.00000,0.00000,0.00000,0.00000,0.00000
no_tcp,0.48500,5.71121,-7.20291,17.14303,2.70869,-11.10469,-7.99409,0.50000,0.10000,0.40000,0.00000,0.00000,0.00000,0.00000,0.00000,0.00000
no_tcp,0.48600,5.73260,-7.22891,17.21154,2.72379,-11.15183,-8.02693,0.50000,0.10000,0.40000,0.00000,0.00000,0.00000,0.00000,0.00000,0.00000
no_tcp,0.48700,5.75401,-7.25492,17.28012,2.73894,-11.19905,-8.05981,0.50000,0.10000,0.40000,0.00000,0.00000,0.00000,0.00000,0.00000,0.00000
no_tcp,0.48800,5.77545,-7.28094,17.34877,2.75413,-11.24635,-8.09273,0.50000,0.10000,0.40000,0.00000,0.00000,0.00000,0.00000,0.00000,0.00000
no_tcp,0.48900,5.79690,-7.30696,17.41748,2.76937,-11.29374,-8.12570,0.50000,0.10000,0.40000,0.00000,0.00000,0.00000,0.00000,0.00000,0.00000
no_tcp,0.49000,5.81838,-7.33300,17.48627,2.78466,-11.34120,-8.15871,0.50000,0.10000,0.40000,0.00000,0.00000,0.00000,0.00000,0.00000,0.00000
no_tcp,0.49100,5.83987,-7.35905,17.55512,2.79999,-11.38874,-8.19177,0.50000,0.10000,0.40000,0.00000,0.00000,0.00000,0.00000,0.00000,0.00000
no_tcp,0.49200,5.86139,-7.38510,17.62404,2.81537,-11.43637,-8.22487,0.50000,0.10000,0.40000,0.00000,0.00000,0.00000,0.00000,0.00000,0.00000
no_tcp,0.49300,5.88293,-7.41117,17.69303,2.83080,-11.48407,-8.25801,0.50000,0.10000,0.40000,0.00000,0.00000,0.00000,0.00000,0.00000,0.00000
no_tcp,0.49400,5.90449,-7.43724,17.76208,2.84627,-11.53186,-8.29119,0.50000,0.10000,0.40000,0.00000,0.00000,0.00000,0.00000,0.00000,0.00000
no_tcp,0.49500,5.92607,-7.46333,17.83119,2.86178,-11.57972,-8.32442,0.50000,0.10000,0.40000,0.00000,0.00000,0.00000,0.00000,0.00000,0.00000
no_tcp,0.49600,5.94768,-7.48942,17.90038,2.87734,-11.62766,-8.35769,0.50000,0.10000,0.40000,0.00000,0.00000,0.00000,0.00000,0.00000,0.00000
no_tcp,0.49700,5.96930,-7.51552,17.96962,2.89295,-11.67569,-8.39101,0.50000,0.10000,0.40000,0.00000,0.00000,0.00000,0.00000,0.00000,0.00000
no_tcp,0.49800,5.99094,-7.54163,18.03893,2.90861,-11.72379,-8.42436,0.50000,0.10000,0.40000,0.00000,0.00000,0.00000,0.00000,0.00000,0.00000
no_tcp,0.49900,6.01261,-7.56775,18.10831,2.92431,-11.77197,-8.45776,0.50000,0.10000,0.40000,0.00000,0.00000,0.00000,0.00000,0.00000,0.00000
no_tcp,0.50000,6.03429,-7.59388,18.17775,2.94005,-11.82024,-8.49120,0.50000,0.10000,0.40000,0.00000,0.00000,0.00000,0.00000,0.00000,0.00000
no_tcp,0.50100,6.05600,-7.62001,18.24725,2.95584,-11.86858,-8.52469,0.50000,0.10000,0.40000,0.00000,0.00000,0.00000,0.00000,0.00000,0.00000
no_tcp,0.50200,6.07773,-7.64615,18.31681,2.97168,-11.91700,-8.55821,0.50000,0.10000,0.40000,0.00000,0.00000,0.00000,0.00000,0.00000,0.00000
no_tcp,0.50300,6.09947,-7.67230,18.38643,2.98756,-11.96550,-8.59177,0.50000,0.10000,0.40000,0.00000,0.00000,0.00000,0.00000,0.00000,0.00000
no_tcp,0.50400,6.12124,-7.69845,18.45612,3.00349,-12.01408,-8.62538,0.50000,0.10000,0.40000,0.00000,0.00000,0.00000,0.00000,0.00000,0.00000
no_tcp,0.50500,6.14303,-7.72462,18.52587,3.01947,-12.06273,-8.65903,0.50000,0.10000,0.40000,0.00000,0.00000,0.00000,0.00000,0.00000,0.00000
no_tcp,0.50600,6.16484,-7.75079,18.59568,3.03549,-12.11147,-8.69272,0.50000,0.10000,0.40000,0.00000,0.00000,0.00000,0.00000,0.00000,0.00000
no_tcp,0.50700,6.18666,-7.77696,18.66555,3.05155,-12.16029,-8.72644,0.50000,0.10000,0.40000,0.00000,0.00000,0.00000,0.00000,0.00000,0.00000
no_tcp,0.50800,6.20851,-7.80315,18.73548,3.06766,-12.20918,-8.76021,0.50000,0.10000,0.40000,0.00000,0.00000,0.00000,0.00000,0.00000,0.00000
no_tcp,0.50900,6.23038,-7.82933,18.80546,3.08382,-12.25815,-8.79402,0.50000,0.10000,0.40000,0.00000,0.00000,0.00000,0.00000,0.00000,0.00000
no_tcp,0.51000,6.25226,-7.85553,18.87551,3.10002,-12.30720,-8.82787,0.50000,0.10000,0.40000,0.00000,0.00000,0.00000,0.00000,0.00000,0.00000
no_tcp,0.51100,6.27417,-7.88173,18.94562,3.11627,-12.35633,-8.86176,0.50000,0.10000,0.40000,0.00000,0.00000,0.00000,0.00000,0.00000,0.00000
no_tcp,0.51200,6.29609,-7.90794,19.01578,3.13257,-12.40554,-8.89569,0.50000,0.10000,0.40000,0.00000,0.00000,0.00000,0.00000,0.00000,0.00000
no_tcp,0.51300,6.31804,-7.93415,19.08601,3.14891,-12.45483,-8.92965,0.50000,0.10000,0.40000,0.00000,0.00000,0.00000,0.00000,0.00000,0.00000
no_tcp,0.51400,6.34000,-7.96037,19.15629,3.16529,-12.50419,-8.96366,0.50000,0.10000,0.40000,0.00000,0.00000,0.00000,0.00000,0.00000,0.00000
no_tcp,0.51500,6.36199,-7.98659,19.22662,3.18173,-12.55363,-8.99771,0.50000,0.10000,0.40000,0.00000,0.00000,0.00000,0.00000,0.00000,0.00000
no_tcp,0.51600,6.38399,-8.01282,19.29702,3.19820,-12.60315,-9.03179,0.50000,0.10000,0.40000,0.00000,0.00000,0.00000,0.00000,0.00000,0.00000
no_tcp,0.51700,6.40601,-8.03905,19.36747,3.21473,-12.65275,-9.06591,0.50000,0.10000,0.40000,0.00000,0.00000,0.00000,0.00000,0.00000,0.00000
no_tcp,0.51800,6.42805,-8.06529,19.43797,3.23129,-12.70243,-9.10007,0.50000,0.10000,0.40000,0.00000,0.00000,0.00000,0.00000,0.00000,0.00000
no_tcp,0.51900,6.45011,-8.09153,19.50853,3.24791,-12.75218,-9.13427,0.50000,0.10000,0.40000,0.00000,0.00000,0.00000,0.00000,0.00000,0.00000
no_tcp,0.52000,6.47218,-8.11777,19.57915,3.26457,-12.80201,-9.16851,0.50000,0.10000,0.40000,0.00000,0.00000,0.00000,0.00000,0.00000,0.00000
no_tcp,0.52100,6.49428,-8.14402,19.64982,3.28127,-12.85192,-9.20278,0.50000,0.10000,0.40000,0.00000,0.00000,0.00000,0.00000,0.00000,0.00000
no_tcp,0.52200,6.51639,-8.17028,19.72054,3.29802,-12.90190,-9.23709,0.50000,0.10000,0.40000,0.00000,0.00000,0.00000,0.00000,0.00000,0.00000
no_tcp,0.52300,6.53853,-8.19653,19.79132,3.31481,-12.95197,-9.27144,0.50000,0.10000,0.40000,0.00000,0.00000,0.00000,0.00000,0.00000,0.00000
no_tcp,0.52400,6.56068,-8.22279,19.86215,3.33165,-13.00211,-9.30582,0.50000,0.10000,0.40000,0.00000,0.00000,0.00000,0.00000,0.00000,0.00000
no_tcp,0.52500,6.58285,-8.24906,19.93304,3.34854,-13.05232,-9.34025,0.50000,0.10000,0.40000,0.00000,0.00000,0.00000,0.00000,0.00000,0.00000
no_tcp,0.52600,6.60503,-8.27532,20.00397,3.36547,-13.10262,-9.37470,0.50000,0.10000,0.40000,0.00000,0.00000,0.00000,0.00000,0.00000,0.00000
no_tcp,0.52700,6.62724,-8.30160,20.07496,3.38245,-13.15299,-9.40920,0.50000,0.10000,0.40000,0.00000,0.00000,0.00000,0.00000,0.00000,0.00000
no_tcp,0.52800,6.64946,-8.32787,20.14600,3.39947,-13.20343,-9.44373,0.50000,0.10000,0.40000,0.00000,0.00000,0.00000,0.00000,0.00000,0.00000
no_tcp,0.52900,6.67170,-8.35414,20.21710,3.41653,-13.25396,-9.47829,0.50000,0.10000,0.40000,0.00000,0.00000,0.00000,0.00000,0.00000,0.00000
no_tcp,0.53000,6.69396,-8.38042,20.28824,3.43364,-13.30456,-9.51289,0.50000,0.10000,0.40000,0.00000,0.00000,0.00000,0.00000,0.00000,0.00000
no_tcp,0.53100,6.71623,-8.40670,20.35943,3.45080,-13.35523,-9.54753,0.50000,0.10000,0.40000,0.00000,0.00000,0.00000,0.00000,0.00000,0.00000
no_tcp,0.53200,6.73853,-8.43299,20.43068,3.46800,-13.40598,-9.58220,0.50000,0.10000,0.40000,0.00000,0.00000,0.00000,0.00000,0.00000,0.00000
no_tcp,0.53300,6.76084,-8.45927,20.50197,3.48525,-13.45681,-9.61690,0.50000,0.10000,0.40000,0.00000,0.00000,0.00000,0.00000,0.00000,0.00000
no_tcp,0.53400,6.78316,-8.48556,20.57332,3.50254,-13.50772,-9.65164,0.50000,0.10000,0.40000,0.00000,0.00000,0.00000,0.00000,0.00000,0.00000
no_tcp,0.53500,6.80551,-8.51184,20.64471,3.51987,-13.55870,-9.68641,0.50000,0.10000,0.40000,0.00000,0.00000,0.00000,0.00000,0.00000,0.00000
no_tcp,0.53600,6.82787,-8.53813,20.71615,3.53726,-13.60975,-9.72122,0.50000,0.10000,0.40000,0.00000,0.00000,0.00000,0.00000,0.00000,0.00000
no_tcp,0.53700,6.85025,-8.56442,20.78764,3.55468,-13.66089,-9.75606,0.50000,0.10000,0.40000,0.00000,0.00000,0.00000,0.00000,0.00000,0.00000
no_tcp,0.53800,6.87264,-8.59072,20.85917,3.57215,-13.71209,-9.79094,0.50000,0.10000,0.40000,0.00000,0.00000,0.00000,0.00000,0.00000,0.00000
no_tcp,0.53900,6.89505,-8.61701,20.93076,3.58967,-13.76338,-9.82584,0.50000,0.10000,0.40000,0.00000,0.00000,0.00000,0.00000,0.00000,0.00000
no_tcp,0.54000,6.91748,-8.64330,21.00239,3.60723,-13.81474,-9.86079,0.50000,0.10000,0.40000,0.00000,0.00000,0.00000,0.00000,0.00000,0.00000
no_tcp,0.54100,6.93992,-8.66960,21.07407,3.62483,-13.86617,-9.89576,0.50000,0.10000,0.40000,0.00000,0.00000,0.00000,0.00000,0.00000,0.00000
no_tcp,0.54200,6.96238,-8.69589,21.14579,3.64248,-13.91768,-9.93076,0.50000,0.10000,0.40000,0.00000,0.00000,0.00000,0.00000,0.00000,0.00000
no_tcp,0.54300,6.98486,-8.72219,21.21756,3.66017,-13.96926,-9.96580,0.50000,0.10000,0.40000,0.00000,0.00000,0.00000,0.00000,0.00000,0.00000
no_tcp,0.54400,7.00735,-8.74848,21.28938,3.67791,-14.02092,-10.00087,0.50000,0.10000,0.40000,0.00000,0.00000,0.00000,0.00000,0.00000,0.00000
no_tcp,0.54500,7.02986,-8.77478,21.36124,3.69569,-14.07266,-10.03597,0.50000,0.10000,0.40000,0.00000,0.00000,0.00000,0.00000,0.00000,0.00000
no_tcp,0.54600,7.05238,-8.80107,21.43314,3.71352,-14.12447,-10.07110,0.50000,0.10000,0.40000,0.00000,0.00000,0.00000,0.00000,0.00000,0.00000
no_tcp,0.54700,7.07492,-8.82736,21.50509,3.73139,-14.17635,-10.10627,0.50000,0.10000,0.40000,0.00000,0.00000,0.00000,0.00000,0.00000,0.00000
no_tcp,0.54800,7.09747,-8.85366,21.57709,3.74930,-14.22831,-10.14146,0.50000,0.10000,0.40000,0.00000,0.00000,0.00000,0.00000,0.00000,0.00000
no_tcp,0.54900,7.12004,-8.87995,21.64913,3.76726,-14.28034,-10.17669,0.50000,0.10000,0.40000,0.00000,0.00000,0.00000,0.00000,0.00000,0.00000
no_tcp,0.55000,7.14263,-8.90624,21.72121,3.78526,-14.33245,-10.21194,0.50000,0.10000,0.40000,0.00000,0.00000,0.00000,0.00000,0.00000,0.00000
no_tcp,0.55100,7.16523,-8.93253,21.79333,3.80331,-14.38463,-10.24723,0.50000,0.10000,0.40000,0.00000,0.00000,0.00000,0.00000,0.00000,0.00000
no_tcp,0.55200,7.18785,-8.95882,21.86550,3.82140,-14.43688,-10.28254,0.50000,0.10000,0.40000,0.00000,0.00000,0.00000,0.00000,0.00000,0.00000
no_tcp,0.55300,7.21048,-8.98511,21.93771,3.83953,-14.48921,-10.31789,0.50000,0.10000,0.40000,0.00000,0.00000,0.00000,0.00000,0.00000,0.00000
no_tcp,0.55400,7.23312,-9.01140,22.00996,3.85771,-14.54161,-10.35326,0.50000,0.10000,0.40000,0.00000,0.00000,0.00000,0.00000,0.00000,0.00000
no_tcp,0.55500,7.25578,-9.03768,22.08225,3.87593,-14.59409,-10.38867,0.50000,0.10000,0.40000,0.00000,0.00000,0.00000,0.00000,0.00000,0.00000
no_tcp,0.55600,7.27846,-9.06396,22.15458,3.89420,-14.64664,-10.42410,0.50000,0.10000,0.40000,0.00000,0.00000,0.00000,0.00000,0.00000,0.00000
no_tcp,0.55700,7.30115,-9.09024,22.22695,3.91251,-14.69926,-10.45956,0.50000,0.10000,0.40000,0.00000,0.00000,0.00000,0.00000,0.00000,0.00000
no_tcp,0.55800,7.32385,-9.11652,22.29937,3.93086,-14.75196,-10.49505,0.50000,0.10000,0.40000,0.00000,0.00000,0.00000,0.00000,0.00000,0.00000
no_tcp,0.55900,7.34657,-9.14280,22.37182,3.94926,-14.80473,-10.53056,0.50000,0.10000,0.40000,0.00000,0.00000,0.00000,0.00000,0.00000,0.00000
no_tcp,0.56000,7.36930,-9.16907,22.44431,3.96770,-14.85758,-10.56611,0.50000,0.10000,0.40000,0.00000,0.00000,0.00000,0.00000,0.00000,0.00000
no_tcp,0.56100,7.39204,-9.19534,22.51685,3.98619,-14.91049,-10.60168,0.50000,0.10000,0.40000,0.00000,0.00000,0.00000,0.00000,0.00000,0.00000
no_tcp,0.56200,7.41480,-9.22161,22.58942,4.00471,-14.96348,-10.63728,0.50000,0.10000,0.40000,0.00000,0.00000,0.00000,0.00000,0.00000,0.00000
no_tcp,0.56300,7.43758,-9.24788,22.66203,4.02328,-15.01654,-10.67290,0.50000,0.10000,0.40000,0.00000,0.00000,0.00000,0.00000,0.00000,0.00000
no_tcp,0.56400,7.46036,-9.27414,22.73468,4.04190,-15.06968,-10.70856,0.50000,0.10000,0.40000,0.00000,0.00000,0.00000,0.00000,0.00000,0.00000
no_tcp,0.56500,7.48316,-9.30040,22.80736,4.06055,-15.12289,-10.74423,0.50000,0.10000,0.40000,0.00000,0.00000,0.00000,0.00000,0.00000,0.00000
no_tcp,0.56600,7.50598,-9.32665,22.88009,4.07925,-15.17617,-10.77994,0.50000,0.10000,0.40000,0.00000,0.00000,0.00000,0.00000,0.00000,0.00000
no_tcp,0.56700,7.52880,-9.35290,22.95285,4.09800,-15.22952,-10.81567,0.50000,0.10000,0.40000,0.00000,0.00000,0.00000,0.00000,0.00000,0.00000
no_tcp,0.56800,7.55164,-9.37915,23.02564,4.11678,-15.28295,-10.85143,0.50000,0.10000,0.40000,0.00000,0.00000,0.00000,0.00000,0.00000,0.00000
no_tcp,0.56900,7.57449,-9.40540,23.09848,4.13561,-15.33644,-10.88721,0.50000,0.10000,0.40000,0.00000,0.00000,0.00000,0.00000,0.00000,0.00000
no_tcp,0.57000,7.59736,-9.43164,23.17135,4.15449,-15.39001,-10.92301,0.50000,0.10000,0.40000,0.00000,0.00000,0.00000,0.00000,0.00000,0.00000
no_tcp,0.57100,7.62024,-9.45787,23.24425,4.17340,-15.44365,-10.95884,0.50000,0.10000,0.40000,0.00000,0.00000,0.00000,0.00000,0.00000,0.00000
no_tcp,0.57200,7.64313,-9.48410,23.31719,4.19236,-15.49736,-10.99470,0.50000,0.10000,0.40000,0.00000,0.00000,0.00000,0.00000,0.00000,0.00000
no_tcp,0.57300,7.66603,-9.51033,23.39017,4.21136,-15.55115,-11.03058,0.50000,0.10000,0.40000,0.00000,0.00000,0.00000,0.00000,0.00000,0.00000
no_tcp,0.57400,7.68895,-9.53655,23.46318,4.23040,-15.60501,-11.06648,0.50000,0.10000,0.40000,0.00000,0.00000,0.00000,0.00000,0.00000,0.00000
no_tcp,0.57500,7.71188,-9.56277,23.53622,4.24949,-15.65893,-11.10241,0.50000,0.10000,0.40000,0.00000,0.00000,0.00000,0.00000,0.00000,0.00000
no_tcp,0.57600,7.73482,-9.58898,23.60930,4.26861,-15.71293,-11.13836,0.50000,0.10000,0.40000,0.00000,0.00000,0.00000,0.00000,0.00000,0.00000
no_tcp,0.57700,7.75777,-9.61519,23.68241,4.28779,-15.76700,-11.17434,0.50000,0.10000,0.40000,0.00000,0.00000,0.00000,0.00000,0.00000,0.00000
no_tcp,0.57800,7.78073,-9.64139,23.75556,4.30700,-15.82114,-11.21033,0.50000,0.10000,0.40000,0.00000,0.00000,0.00000,0.00000,0.00000,0.00000
no_tcp,0.57900,7.80371,-9.66759,23.82873,4.32625,-15.87535,-11.24635,0.50000,0.10000,0.40000,0.00000,0.00000,0.00000,0.00000,0.00000,0.00000
no_tcp,0.58000,7.82670,-9.69378,23.90194,4.34555,-15.92964,-11.28239,0.50000,0.10000,0.40000,0.00000,0.00000,0.00000,0.00000,0.00000,0.00000
no_tcp,0.58100,7.84970,-9.71996,23.97519,4.36489,-15.98399,-11.31846,0.50000,0.10000,0.40000,0.00000,0.00000,0.00000,0.00000,0.00000,0.00000
no_tcp,0.58200,7.87271,-9.74614,24.04846,4.38427,-16.03842,-11.35454,0.50000,0.10000,0.40000,0.00000,0.00000,0.00000,0.00000,0.00000,0.00000
no_tcp,0.58300,7.89573,-9.77231,24.12177,4.40369,-16.09291,-11.39065,0.50000,0.10000,0.40000,0.00000,0.00000,0.00000,0.00000,0.00000,0.00000
no_tcp,0.58400,7.91876,-9.79848,24.19511,4.42316,-16.14748,-11.42678,0.50000,0.10000,0.40000,0.00000,0.00000,0.00000,0.00000,0.00000,0.00000
no_tcp,0.58500,7.94180,-9.82464,24.26847,4.44267,-16.20211,-11.46293,0.50000,0.10000,0.40000,0.00000,0.00000,0.00000,0.00000,0.00000,0.00000
no_tcp,0.58600,7.96486,-9.85079,24.34187,4.46222,-16.25682,-11.49909,0.50000,0.10000,0.40000,0.00000,0.00000,0.00000,0.00000,0.00000,0.00000
no_tcp,0.58700,7.98792,-9.87694,24.41530,4.48181,-16.31159,-11.53528,0.50000,0.10000,0.40000,0.00000,0.00000,0.00000,0.00000,0.00000,0.00000
no_tcp,0.58800,8.01100,-9.90308,24.48876,4.50144,-16.36644,-11.57149,0.50000,0.10000,0.40000,0.00000,0.00000,0.00000,0.00000,0.00000,0.00000
no_tcp,0.58900,8.03409,-9.92922,24.56225,4.52111,-16.42135,-11.60772,0.50000,0.10000,0.40000,0.00000,0.00000,0.00000,0.00000,0.00000,0.00000
no_tcp,0.59000,8.05718,-9.95534,24.63577,4.54083,-16.47634,-11.64397,0.50000,0.10000,0.40000,0.00000,0.00000,0.00000,0.00000,0.00000,0.00000
no_tcp,0.59100,8.08029,-9.98146,24.70931,4.56058,-16.53139,-11.68024,0.50000,0.10000,0.40000,0.00000,0.00000,0.00000,0.00000,0.00000,0.00000
no_tcp,0.59200,8.10341,-10.00757,24.78289,4.58038,-16.58651,-11.71653,0.50000,0.10000,0.40000,0.00000,0.00000,0.00000,0.00000,0.00000,0.00000
no_tcp,0.59300,8.12654,-10.03368,24.85649,4.60022,-16.64171,-11.75283,0.50000,0.10000,0.40000,0.00000,0.00000,0.00000,0.00000,0.00000,0.00000
no_tcp,0.59400,8.14967,-10.05978,24.93012,4.62010,-16.69697,-11.78916,0.50000,0.10000,0.40000,0.00000,0.00000,0.00000,0.00000,0.00000,0.00000
no_tcp,0.59500,8.17282,-10.08586,25.00378,4.64002,-16.75230,-11.82550,0.50000,0.10000,0.40000,0.00000,0.00000,0.00000,0.00000,0.00000,0.00000
no_tcp,0.59600,8.19598,-10.11195,25.07747,4.65999,-16.80770,-11.86186,0.50000,0.10000,0.40000,0.00000,0.00000,0.00000,0.00000,0.00000,0.00000
no_tcp,0.59700,8.21914,-10.13802,25.15118,4.67999,-16.86317,-11.89824,0.50000,0.10000,0.40000,0.00000,0.00000,0.00000,0.00000,0.00000,0.00000
no_tcp,0.59800,8.24232,-10.16408,25.22492,4.70004,-16.91871,-11.93463,0.50000,0.10000,0.40000,0.00000,0.00000,0.00000,0.00000,0.00000,0.00000
no_tcp,0.59900,8.26550,-10.19014,25.29868,4.72012,-16.97431,-11.97105,0.50000,0.10000,0.40000,0.00000,0.00000,0.00000,0.00000,0.00000,0.00000
no_tcp,0.60000,8.28870,-10.21619,25.37248,4.74025,-17.02999,-12.00747,0.50000,0.10000,0.40000,0.00000,0.00000,0.00000,0.00000,0.00000,0.00000
no_tcp,0.60100,8.31190,-10.24223,25.44629,4.76041,-17.08573,-12.04392,0.50000,0.10000,0.40000,0.00000,0.00000,0.00000,0.00000,0.00000,0.00000
no_tcp,0.60200,8.33511,-10.26826,25.52014,4.78062,-17.14154,-12.08038,0.50000,0.10000,0.40000,0.00000,0.00000,0.00000,0.00000,0.00000,0.00000
no_tcp,0.60300,8.35833,-10.29428,25.59400,4.80087,-17.19742,-12.11686,0.50000,0.10000,0.40000,0.00000,0.00000,0.00000,0.00000,0.00000,0.00000
no_tcp,0.60400,8.38156,-10.32030,25.66790,4.82116,-17.25337,-12.15335,0.50000,0.10000,0.40000,0.00000,0.00000,0.00000,0.00000,0.00000,0.00000
no_tcp,0.60500,8.40480,-10.34630,25.74181,4.84149,-17.30938,-12.18986,0.50000,0.10000,0.40000,0.00000,0.00000,0.00000,0.00000,0.00000,0.00000
no_tcp,0.60600,8.42805,-10.37229,25.81575,4.86185,-17.36546,-12.22638,0.50000,0.10000,0.40000,0.00000,0.00000,0.00000,0.00000,0.00000,0.00000
no_tcp,0.60700,8.45130,-10.39828,25.88972,4.88226,-17.42161,-12.26292,0.50000,0.10000,0.40000,0.00000,0.00000,0.00000,0.00000,0.00000,0.00000
no_tcp,0.60800,8.47456,-10.42425,25.96370,4.90271,-17.47783,-12.29947,0.50000,0.10000,0.40000,0.00000,0.00000,0.00000,0.00000,0.00000,0.00000
no_tcp,0.60900,8.49783,-10.45022,26.03772,4.92320,-17.53412,-12.33604,0.50000,0.10000,0.40000,0.00000,0.00000,0.00000,0.00000,0.00000,0.00000
no_tcp,0.61000,8.52111,-10.47618,26.11175,4.94373,-17.59047,-12.37262,0.50000,0.10000,0.40000,0.00000,0.00000,0.00000,0.00000,0.00000,0.00000
no_tcp,0.61100,8.54440,-10.50212,26.18581,4.96430,-17.64689,-12.40921,0.50000,0.10000,0.40000,0.00000,0.00000,0.00000,0.00000,0.00000,0.00000
no_tcp,0.61200,8.56769,-10.52806,26.25988,4.98491,-17.70337,-12.44582,0.50000,0.10000,0.40000,0.00000,0.00000,0.00000,0.00000,0.00000,0.00000
no_tcp,0.61300,8.59099,-10.55399,26.33398,5.00556,-17.75992,-12.48244,0.50000,0.10000,0.40000,0.00000,0.00000,0.00000,0.00000,0.00000,0.00000
no_tcp,0.61400,8.61430,-10.57990,26.40811,5.02625,-17.81654,-12.51907,0.50000,0.10000,0.40000,0.00000,0.00000,0.00000,0.00000,0.00000,0.00000
no_tcp,0.61500,8.63762,-10.60581,26.48225,5.04698,-17.87323,-12.55572,0.50000,0.10000,0.40000,0.00000,0.00000,0.00000,0.00000,0.00000,0.00000
no_tcp,0.61600,8.66094,-10.63170,26.55641,5.06774,-17.92998,-12.59238,0.50000,0.10000,0.40000,0.00000,0.00000,0.00000,0.00000,0.00000,0.00000
no_tcp,0.61700,8.68427,-10.65759,26.63060,5.08855,-17.98680,-12.62905,0.50000,0.10000,0.40000,0.00000,0.00000,0.00000,0.00000,0.00000,0.00000
no_tcp,0.61800,8.70761,-10.68346,26.70480,5.10940,-18.04368,-12.66573,0.50000,0.10000,0.40000,0.00000,0.00000,0.00000,0.00000,0.00000,0.00000
no_tcp,0.61900,8.73095,-10.70932,26.77903,5.13028,-18.10063,-12.70242,0.50000,0.10000,0.40000,0.00000,0.00000,0.00000,0.00000,0.00000,0.00000
no_tcp,0.62000,8.75430,-10.73517,26.85327,5.15121,-18.15765,-12.73913,0.50000,0.10000,0.40000,0.00000,0.00000,0.00000,0.00000,0.00000,0.00000
no_tcp,0.62100,8.77766,-10.76101,26.92754,5.17217,-18.21473,-12.77584,0.50000,0.10000,0.40000,0.00000,0.00000,0.00000,0.00000,0.00000,0.00000
no_tcp,0.62200,8.80102,-10.78684,27.00182,5.19317,-18.27188,-12.81257,0.50000,0.10000,0.40000,0.00000,0.00000,0.00000,0.00000,0.00000,0.00000
no_tcp,0.62300,8.82439,-10.81266,27.07612,5.21422,-18.32909,-12.84930,0.50000,0.10000,0.40000,0.00000,0.00000,0.00000,0.00000,0.00000,0.00000
no_tcp,0.62400,8.84776,-10.83846,27.15045,5.23530,-18.38637,-12.88605,0.50000,0.10000,0.40000,0.00000,0.00000,0.00000,0.00000,0.00000,0.00000
no_tcp,0.62500,8.87115,-10.86425,27.22478,5.25642,-18.44371,-12.92280,0.50000,0.10000,0.40000,0.00000,0.00000,0.00000,0.00000,0.00000,0.00000
no_tcp,0.62600,8.89453,-10.89004,27.29914,5.27758,-18.50112,-12.95957,0.50000,0.10000,0.40000,0.00000,0.00000,0.00000,0.00000,0.00000,0.00000
no_tcp,0.62700,8.91793,-10.91581,27.37352,5.29877,-18.55860,-12.99634,0.50000,0.10000,0.40000,0.00000,0.00000,0.00000,0.00000,0.00000,0.00000
no_tcp,0.62800,8.94132,-10.94156,27.44791,5.32001,-18.61614,-13.03312,0.50000,0.10000,0.40000,0.00000,0.00000,0.00000,0.00000,0.00000,0.00000
no_tcp,0.62900,8.96473,-10.96731,27.52232,5.34128,-18.67374,-13.06991,0.50000,0.10000,0.40000,0.00000,0.00000,0.00000,0.00000,0.00000,0.00000
no_tcp,0.63000,8.98814,-10.99304,27.59674,5.36260,-18.73141,-13.10671,0.50000,0.10000,0.40000,0.00000,0.00000,0.00000,0.00000,0.00000,0.00000
no_tcp,0.63100,9.01155,-11.01876,27.67119,5.38395,-18.78914,-13.14352,0.50000,0.10000,0.40000,0.00000,0.00000,0.00000,0.00000,0.00000,0.00000
no_tcp,0.63200,9.03497,-11.04447,27.74565,5.40534,-18.84694,-13.18034,0.50000,0.10000,0.40000,0.00000,0.00000,0.00000,0.00000,0.00000,0.00000
no_tcp,0.63300,9.05840,-11.07016,27.82012,5.42676,-18.90480,-13.21716,0.50000,0.10000,0.40000,0.00000,0.00000,0.00000,0.00000,0.00000,0.00000
no_tcp,0.63400,9.08183,-11.09584,27.89461,5.44823,-18.96272,-13.25399,0.50000,0.10000,0.40000,0.00000,0.00000,0.00000,0.00000,0.00000,0.00000
no_tcp,0.63500,9.10526,-11.12151,27.96912,5.46973,-19.02071,-13.29083,0.50000,0.10000,0.40000,0.00000,0.00000,0.00000,0.00000,0.00000,0.00000
no_tcp,0.63600,9.12870,-11.14717,28.04364,5.49127,-19.07877,-13.32767,0.50000,0.10000,0.40000,0.00000,0.00000,0.00000,0.00000,0.00000,0.00000
no_tcp,0.63700,9.15214,-11.17281,28.11818,5.51285,-19.13688,-13.36452,0.50000,0.10000,0.40000,0.00000,0.00000,0.00000,0.00000,0.00000,0.00000
no_tcp,0.63800,9.17559,-11.19844,28.19273,5.53447,-19.19506,-13.40138,0.50000,0.10000,0.40000,0.00000,0.00000,0.00000,0.00000,0.00000,0.00000
no_tcp,0.63900,9.19904,-11.22406,28.26729,5.55612,-19.25331,-13.43824,0.50000,0.10000,0.40000,0.00000,0.00000,0.00000,0.00000,0.00000,0.00000
no_tcp,0.64000,9.22250,-11.24966,28.34187,5.57782,-19.31161,-13.47510,0.50000,0.10000,0.40000,0.00000,0.00000,0.00000,0.00000,0.00000,0.00000
no_tcp,0.64100,9.24596,-11.27525,28.41646,5.59955,-19.36998,-13.51198,0.50000,0.10000,0.40000,0.00000,0.00000,0.00000,0.00000,0.00000,0.00000
no_tcp,0.64200,9.26943,-11.30082,28.49107,5.62131,-19.42842,-13.54885,0.50000,0.10000,0.40000,0.00000,0.00000,0.00000,0.00000,0.00000,0.00000
no_tcp,0.64300,9.29289,-11.32638,28.56569,5.64312,-19.48691,-13.58574,0.50000,0.10000,0.40000,0.00000,0.00000,0.00000,0.00000,0.00000,0.00000
no_tcp,0.64400,9.31636,-11.35193,28.64032,5.66496,-19.54547,-13.62262,0.50000,0.10000,0.40000,0.00000,0.00000,0.00000,0.00000,0.00000,0.00000
no_tcp,0.64500,9.33984,-11.37746,28.71496,5.68684,-19.60409,-13.65951,0.50000,0.10000,0.40000,0.00000,0.00000,0.00000,0.00000,0.00000,0.00000
no_tcp,0.64600,9.36332,-11.40298,28.78962,5.70876,-19.66278,-13.69641,0.50000,0.10000,0.40000,0.00000,0.00000,0.00000,0.00000,0.00000,0.00000
no_tcp,0.64700,9.38680,-11.42848,28.86429,5.73071,-19.72153,-13.73331,0.50000,0.10000,0.40000,0.00000,0.00000,0.00000,0.00000,0.00000,0.00000
no_tcp,0.64800,9.41029,-11.45397,28.93897,5.75270,-19.78033,-13.77021,0.50000,0.10000,0.40000,0.00000,0.00000,0.00000,0.00000,0.00000,0.00000
no_tcp,0.64900,9.43377,-11.47945,29.01366,5.77473,-19.83920,-13.80711,0.50000,0.10000,0.40000,0.00000,0.00000,0.00000,0.00000,0.00000,0.00000
no_tcp,0.65000,9.45726,-11.50491,29.08836,5.79679,-19.89814,-13.84402,0.50000,0.10000,0.40000,0.00000,0.00000,0.00000,0.00000,0.00000,0.00000
no_tcp,0.65100,9.48076,-11.53035,29.16308,5.81889,-19.95713,-13.88093,0.50000,0.10000,0.40000,0.00000,0.00000,0.00000,0.00000,0.00000,0.00000
no_tcp,0.65200,9.50426,-11.55578,29.23780,5.84103,-20.01619,-13.91784,0.50000,0.10000,0.40000,0.00000,0.00000,0.00000,0.00000,0.00000,0.00000
no_tcp,0.65300,9.52775,-11.58120,29.31254,5.86321,-20.07531,-13.95476,0.50000,0.10000,0.40000,0.00000,0.00000,0.00000,0.00000,0.00000,0.00000
no_tcp,0.65400,9.55126,-11.60659,29.38728,5.88542,-20.13449,-13.99167,0.50000,0.10000,0.40000,0.00000,0.00000,0.00000,0.00000,0.00000,0.00000
no_tcp,0.65500,9.57476,-11.63198,29.46204,5.90766,-20.19373,-14.02859,0.50000,0.10000,0.40000,0.00000,0.00000,0.00000,0.00000,0.00000,0.00000
no_tcp,0.65600,9.59827,-11.65735,29.53680,5.92995,-20.25303,-14.06551,0.50000,0.10000,0.40000,0.00000,0.00000,0.00000,0.00000,0.00000,0.00000
no_tcp,0.65700,9.62177,-11.68270,29.61157,5.95227,-20.31239,-14.10242,0.50000,0.10000,0.40000,0.00000,0.00000,0.00000,0.00000,0.00000,0.00000
no_tcp,0.65800,9.64528,-11.70804,29.68636,5.97462,-20.37182,-14.13934,0.50000,0.10000,0.40000,0.00000,0.00000,0.00000,0.00000,0.00000,0.00000
no_tcp,0.65900,9.66880,-11.73336,29.76115,5.99701,-20.43130,-14.17626,0.50000,0.10000,0.40000,0.00000,0.00000,0.00000,0.00000,0.00000,0.00000
no_tcp,0.66000,9.69231,-11.75866,29.83595,6.01944,-20.49085,-14.21318,0.50000,0.10000,0.40000,0.00000,0.00000,0.00000,0.00000,0.00000,0.00000
no_tcp,0.66100,9.71582,-11.78395,29.91076,6.04191,-20.55045,-14.25010,0.50000,0.10000,0.40000,0.00000,0.00000,0.00000,0.00000,0.00000,0.00000
no_tcp,0.66200,9.73934,-11.80923,29.98558,6.06441,-20.61012,-14.28702,0.50000,0.10000,0.40000,0.00000,0.00000,0.00000,0.00000,0.00000,0.00000
no_tcp,0.66300,9.76286,-11.83449,30.06040,6.08694,-20.66985,-14.32394,0.50000,0.10000,0.40000,0.00000,0.00000,0.00000,0.00000,0.00000,0.00000
no_tcp,0.66400,9.78638,-11.85973,30.13523,6.10951,-20.72963,-14.36086,0.50000,0.10000,0.40000,0.00000,0.00000,0.00000,0.00000,0.00000,0.00000
no_tcp,0.66500,9.80990,-11.88495,30.21007,6.13212,-20.78948,-14.39777,0.50000,0.10000,0.40000,0.00000,0.00000,0.00000,0.00000,0.00000,0.00000
no_tcp,0.66600,9.83342,-11.91016,30.28492,6.15476,-20.84939,-14.43469,0.50000,0.10000,0.40000,0.00000,0.00000,0.00000,0.00000,0.00000,0.00000
no_tcp,0.66700,9.85694,-11.93535,30.35977,6.17744,-20.90935,-14.47160,0.50000,0.10000,0.40000,0.00000,0.00000,0.00000,0.00000,0.00000,0.00000
no_tcp,0.66800,9.88046,-11.96052,30.43463,6.20015,-20.96938,-14.50851,0.50000,0.10000,0.40000,0.00000,0.00000,0.00000,0.00000,0.00000,0.00000
no_tcp,0.66900,9.90399,-11.98568,30.50950,6.22290,-21.02946,-14.54542,0.50000,0.10000,0.40000,0.00000,0.00000,0.00000,0.00000,0.00000,0.00000
no_tcp,0.67000,9.92751,-12.01082,30.58437,6.24569,-21.08961,-14.58232,0.50000,0.10000,0.40000,0.00000,0.00000,0.00000,0.00000,0.00000,0.00000
no_tcp,0.67100,9.95104,-12.03595,30.65924,6.26851,-21.14981,-14.61922,0.50000,0.10000,0.40000,0.00000,0.00000,0.00000,0.00000,0.00000,0.00000
no_tcp,0.67200,9.97456,-12.06105,30.73413,6.29136,-21.21008,-14.65612,0.50000,0.10000,0.40000,0.00000,0.00000,0.00000,0.00000,0.00000,0.00000
no_tcp,0.67300,9.99809,-12.08614,30.80902,6.31425,-21.27040,-14.69302,0.50000,0.10000,0.40000,0.00000,0.00000,0.00000,0.00000,0.00000,0.00000
no_tcp,0.67400,10.02161,-12.11121,30.88391,6.33717,-21.33078,-14.72991,0.50000,0.10000,0.40000,0.00000,0.00000,0.00000,0.00000,0.00000,0.00000
no_tcp,0.67500,10.04514,-12.13627,30.95881,6.36013,-21.39122,-14.76680,0.50000,0.10000,0.40000,0.00000,0.00000,0.00000,0.00000,0.00000,0.00000
no_tcp,0.67600,10.06866,-12.16130,31.03371,6.38313,-21.45172,-14.80368,0.50000,0.10000,0.40000,0.00000,0.00000,0.00000,0.00000,0.00000,0.00000
no_tcp,0.67700,10.09219,-12.18632,31.10861,6.40616,-21.51227,-14.84056,0.50000,0.10000,0.40000,0.00000,0.00000,0.00000,0.00000,0.00000,0.00000
no_tcp,0.67800,10.11571,-12.21132,31.18353,6.42922,-21.57289,-14.87743,0.50000,0.10000,0.40000,0.00000,0.00000,0.00000,0.00000,0.00000,0.00000
no_tcp,0.67900,10.13923,-12.23631,31.25844,6.45232,-21.63356,-14.91430,0.50000,0.10000,0.40000,0.00000,0.00000,0.00000,0.00000,0.00000,0.00000
no_tcp,0.68000,10.16276,-12.26127,31.33336,6.47545,-21.69429,-14.95117,0.50000,0.10000,0.40000,0.00000,0.00000,0.00000,0.00000,0.00000,0.00000
no_tcp,0.68100,10.18628,-12.28622,31.40828,6.49862,-21.75508,-14.98802,0.50000,0.10000,0.40000,0.00000,0.00000,0.00000,0.00000,0.00000,0.00000
no_tcp,0.68200,10.20980,-12.31115,31.48320,6.52182,-21.81592,-15.02488,0.50000,0.10000,0.40000,0.00000,0.00000,0.00000,0.00000,0.00000,0.00000
no_tcp,0.68300,10.23332,-12.33606,31.55813,6.54505,-21.87683,-15.06172,0.50000,0.10000,0.40000,0.00000,0.00000,0.00000,0.00000,0.00000,0.00000
no_tcp,0.68400,10.25684,-12.36095,31.63306,6.56832,-21.93779,-15.09856,0.50000,0.10000,0.40000,0.00000,0.00000,0.00000,0.00000,0.00000,0.00000
no_tcp,0.68500,10.28036,-12.38582,31.70799,6.59163,-21.99881,-15.13539,0.50000,0.10000,0.40000,0.00000,0.00000,0.00000,0.00000,0.00000,0.00000
no_tcp,0.68600,10.30388,-12.41068,31.78292,6.61496,-22.05988,-15.17222,0.50000,0.10000,0.40000,0.00000,0.00000,0.00000,0.00000,0.00000,0.00000
no_tcp,0.68700,10.32739,-12.43551,31.85786,6.63833,-22.12102,-15.20904,0.50000,0.10000,0.40000,0.00000,0.00000,0.00000,0.00000,0.00000,0.00000
no_tcp,0.68800,10.35091,-12.46033,31.93280,6.66174,-22.18221,-15.24585,0.50000,0.10000,0.40000,0.00000,0.00000,0.00000,0.00000,0.00000,0.00000
no_tcp,0.68900,10.37442,-12.48513,32.00773,6.68518,-22.24345,-15.28265,0.50000,0.10000,0.40000,0.00000,0.00000,0.00000,0.00000,0.00000,0.00000
no_tcp,0.69000,10.39793,-12.50991,32.08267,6.70865,-22.30475,-15.31945,0.50000,0.10000,0.40000,0.00000,0.00000,0.00000,0.00000,0.00000,0.00000
no_tcp,0.69100,10.42144,-12.53467,32.15761,6.73216,-22.36611,-15.35624,0.50000,0.10000,0.40000,0.00000,0.00000,0.00000,0.00000,0.00000,0.00000
no_tcp,0.69200,10.44494,-12.55941,32.23255,6.75570,-22.42753,-15.39302,0.50000,0.10000,0.40000,0.00000,0.00000,0.00000,0.00000,0.00000,0.00000
no_tcp,0.69300,10.46845,-12.58413,32.30750,6.77927,-22.48900,-15.42979,0.50000,0.10000,0.40000,0.00000,0.00000,0.00000,0.00000,0.00000,0.00000
no_tcp,0.69400,10.49195,-12.60883,32.38244,6.80288,-22.55053,-15.46655,0.50000,0.10000,0.40000,0.00000,0.00000,0.00000,0.00000,0.00000,0.00000
no_tcp,0.69500,10.51545,-12.63351,32.45738,6.82652,-22.61211,-15.50330,0.50000,0.10000,0.40000,0.00000,0.00000,0.00000,0.00000,0.00000,0.00000
no_tcp,0.69600,10.53895,-12.65818,32.53232,6.85019,-22.67375,-15.54004,0.50000,0.10000,0.40000,0.00000,0.00000,0.00000,0.00000,0.00000,0.00000
no_tcp,0.69700,10.56244,-12.68282,32.60726,6.87390,-22.73545,-15.57678,0.50000,0.10000,0.40000,0.00000,0.00000,0.00000,0.00000,0.00000,0.00000
no_tcp,0.69800,10.58594,-12.70744,32.68220,6.89764,-22.79720,-15.61350,0.50000,0.10000,0.40000,0.00000,0.00000,0.00000,0.00000,0.00000,0.00000
no_tcp,0.69900,10.60943,-12.73205,32.75714,6.92141,-22.85901,-15.65021,0.50000,0.10000,0.40000,0.00000,0.00000,0.00000,0.00000,0.00000,0.00000
no_tcp,0.70000,10.63291,-12.75663,32.83208,6.94521,-22.92087,-15.68691,0.50000,0.10000,0.40000,0.00000,0.00000,0.00000,0.00000,0.00000,0.00000
no_tcp,0.70100,10.65640,-12.78120,32.90702,6.96905,-22.98279,-15.72361,0.50000,0.10000,0.40000,0.00000,0.00000,0.00000,0.00000,0.00000,0.00000
no_tcp,0.70200,10.67988,-12.80574,32.98195,6.99292,-23.04476,-15.76029,0.50000,0.10000,0.40000,0.00000,0.00000,0.00000,0.00000,0.00000,0.00000
no_tcp,0.70300,10.70336,-12.83026,33.05688,7.01683,-23.10678,-15.79696,0.50000,0.10000,0.40000,0.00000,0.00000,0.00000,0.00000,0.00000,0.00000
no_tcp,0.70400,10.72683,-12.85477,33.13181,7.04076,-23.16887,-15.83362,0.50000,0.10000,0.40000,0.00000,0.00000,0.00000,0.00000,0.00000,0.00000
no_tcp,0.70500,10.75030,-12.87925,33.20674,7.06473,-23.23100,-15.87026,0.50000,0.10000,0.40000,0.00000,0.00000,0.00000,0.00000,0.00000,0.00000
no_tcp,0.70600,10.77377,-12.90371,33.28167,7.08873,-23.29319,-15.90690,0.50000,0.10000,0.40000,0.00000,0.00000,0.00000,0.00000,0.00000,0.00000
no_tcp,0.70700,10.79724,-12.92815,33.35659,7.11277,-23.35544,-15.94352,0.50000,0.10000,0.40000,0.00000,0.00000,0.00000,0.00000,0.00000,0.00000
no_tcp,0.70800,10.82070,-12.95257,33.43151,7.13684,-23.41774,-15.98013,0.50000,0.10000,0.40000,0.00000,0.00000,0.00000,0.00000,0.00000,0.00000
no_tcp,0.70900,10.84416,-12.97697,33.50643,7.16093,-23.48009,-16.01672,0.50000,0.10000,0.40000,0.00000,0.00000,0.00000,0.00000,0.00000,0.00000
no_tcp,0.71000,10.86761,-13.00135,33.58135,7.18506,-23.54250,-16.05331,0.50000,0.10000,0.40000,0.00000,0.00000,0.00000,0.00000,0.00000,0.00000
no_tcp,0.71100,10.89106,-13.02571,33.65626,7.20923,-23.60496,-16.08988,0.50000,0.10000,0.40000,0.00000,0.00000,0.00000,0.00000,0.00000,0.00000
no_tcp,0.71200,10.91450,-13.05005,33.73116,7.23342,-23.66747,-16.12644,0.50000,0.10000,0.40000,0.00000,0.00000,0.00000,0.00000,0.00000,0.00000
no_tcp,0.71300,10.93794,-13.07436,33.80606,7.25765,-23.73004,-16.16298,0.50000,0.10000,0.40000,0.00000,0.00000,0.00000,0.00000,0.00000,0.00000
no_tcp,0.71400,10.96138,-13.09866,33.88096,7.28191,-23.79266,-16.19951,0.50000,0.10000,0.40000,0.00000,0.00000,0.00000,0.00000,0.00000,0.00000
no_tcp,0.71500,10.98481,-13.12293,33.95586,7.30620,-23.85533,-16.23602,0.50000,0.10000,0.40000,0.00000,0.00000,0.00000,0.00000,0.00000,0.00000
no_tcp,0.71600,11.00824,-13.14718,34.03075,7.33052,-23.91806,-16.27252,0.50000,0.10000,0.40000,0.00000,0.00000,0.00000,0.00000,0.00000,0.00000
