GriTRini/uon_rt/demo/sim/tcp_test/tcp_axis_alignment.csv
Scenario,Step,Time,J1,J2,J3,J4,J5,J6,Target_X,Target_Y,Target_Z
with_tcp,START,0.00000,0.00000,-0.00006,-0.00009,0.00000,-0.00011,0.00000,-0.01218,0.02232,1.47911
with_tcp,START,0.00100,0.00000,-0.00024,-0.00036,0.00000,-0.00045,0.00000,-0.01219,0.02232,1.47911
with_tcp,START,0.00200,0.00000,-0.00054,-0.00081,0.00000,-0.00101,0.00000,-0.01221,0.02232,1.47911
with_tcp,START,0.00300,0.00000,-0.00096,-0.00144,0.00000,-0.00180,0.00000,-0.01222,0.02232,1.47911
with_tcp,START,0.00400,0.00000,-0.00150,-0.00225,0.00000,-0.00281,0.00000,-0.01225,0.02232,1.47911
with_tcp,START,0.00500,0.00000,-0.00216,-0.00324,0.00000,-0.00405,0.00000,-0.01228,0.02232,1.47911
with_tcp,START,0.00600,0.00000,-0.00294,-0.00441,0.00000,-0.00551,0.00000,-0.01232,0.02232,1.47911
with_tcp,START,0.00700,0.00000,-0.00384,-0.00576,0.00000,-0.00720,0.00000,-0.01236,0.02232,1.47911
with_tcp,START,0.00800,0.00000,-0.00486,-0.00729,0.00000,-0.00911,0.00000,-0.01241,0.02232,1.47911
with_tcp,START,0.00900,0.00000,-0.00600,-0.00900,0.00000,-0.01125,0.00000,-0.01246,0.02232,1.47910
with_tcp,START,0.01000,0.00000,-0.00726,-0.01089,0.00000,-0.01361,0.00000,-0.01252,0.02232,1.47910
with_tcp,START,0.01100,0.00000,-0.00864,-0.01296,0.00000,-0.01620,0.00000,-0.01258,0.02232,1.47910
with_tcp,START,0.01200,0.00000,-0.01014,-0.01521,0.00000,-0.01901,0.00000,-0.01265,0.02232,1.47910
with_tcp,START,0.01300,0.00000,-0.01176,-0.01764,0.00000,-0.02205,0.00000,-0.01273,0.02232,1.47910
with_tcp,START,0.01400,0.00000,-0.01350,-0.02025,0.00000,-0.02531,0.00000,-0.01281,0.02232,1.47910
with_tcp,START,0.01500,0.00000,-0.01536,-0.02304,0.00000,-0.02880,0.00000,-0.01289,0.02232,1.47910
with_tcp,START,0.01600,0.00000,-0.01734,-0.02601,0.00000,-0.03251,0.00000,-0.01299,0.02232,1.47909
with_tcp,START,0.01700,0.00000,-0.01944,-0.02916,0.00000,-0.03645,0.00000,-0.01308,0.02232,1.47909
with_tcp,START,0.01800,0.00000,-0.02166,-0.03249,0.00000,-0.04061,0.00000,-0.01319,0.02232,1.47909
with_tcp,START,0.01900,0.00000,-0.02400,-0.03600,0.00000,-0.04500,0.00000,-0.01330,0.02232,1.47909
with_tcp,START,0.02000,0.00000,-0.02646,-0.03969,0.00000,-0.04961,0.00000,-0.01341,0.02232,1.47908
with_tcp,START,0.02100,0.00000,-0.02904,-0.04356,0.00000,-0.05445,0.00000,-0.01353,0.02232,1.47908
with_tcp,START,0.02200,0.00000,-0.03174,-0.04761,0.00000,-0.05951,0.00000,-0.01366,0.02232,1.47908
with_tcp,START,0.02300,0.00000,-0.03456,-0.05184,0.00000,-0.06480,0.00000,-0.01379,0.02232,1.47908
with_tcp,START,0.02400,0.00000,-0.03750,-0.05625,0.00000,-0.07031,0.00000,-0.01392,0.02232,1.47907
with_tcp,START,0.02500,0.00000,-0.04056,-0.06084,0.00000,-0.07605,0.00000,-0.01407,0.02232,1.47907
with_tcp,START,0.02600,0.00000,-0.04374,-0.06561,0.00000,-0.08201,0.00000,-0.01421,0.02232,1.47907
with_tcp,START,0.02700,0.00000,-0.04704,-0.07056,0.00000,-0.08820,0.00000,-0.01437,0.02232,1.47906
with_tcp,START,0.02800,0.00000,-0.05046,-0.07569,0.00000,-0.09461,0.00000,-0.01453,0.02232,1.47906
with_tcp,START,0.02900,0.00000,-0.05400,-0.08100,0.00000,-0.10125,0.00000,-0.01469,0.02232,1.47906
with_tcp,START,0.03000,0.00000,-0.05766,-0.08649,0.00000,-0.10811,0.00000,-0.01486,0.02232,1.47905
with_tcp,START,0.03100,0.00000,-0.06144,-0.09216,0.00000,-0.11520,0.00000,-0.01504,0.02232,1.47905
with_tcp,START,0.03200,0.00000,-0.06534,-0.09801,0.00000,-0.12251,0.00000,-0.01522,0.02232,1.47904
with_tcp,START,0.03300,0.00000,-0.06936,-0.10404,0.00000,-0.13005,0.00000,-0.01540,0.02232,1.47904
with_tcp,START,0.03400,0.00000,-0.07350,-0.11025,0.00000,-0.13781,0.00000,-0.01560,0.02232,1.47904
with_tcp,START,0.03500,0.00000,-0.07776,-0.11664,0.00000,-0.14580,0.00000,-0.01579,0.02232,1.47903
with_tcp,START,0.03600,0.00000,-0.08214,-0.12321,0.00000,-0.15401,0.00000,-0.01600,0.02232,1.47903
with_tcp,START,0.03700,0.00000,-0.08664,-0.12996,0.00000,-0.16245,0.00000,-0.01621,0.02232,1.47902
with_tcp,START,0.03800,0.00000,-0.09126,-0.13689,0.00000,-0.17111,0.00000,-0.01642,0.02232,1.47902
with_tcp,START,0.03900,0.00000,-0.09600,-0.14400,0.00000,-0.18000,0.00000,-0.01664,0.02232,1.47901
with_tcp,START,0.04000,0.00000,-0.10086,-0.15129,0.00000,-0.18911,0.00000,-0.01687,0.02232,1.47901
with_tcp,START,0.04100,0.00000,-0.10584,-0.15876,0.00000,-0.19845,0.00000,-0.01710,0.02232,1.47900
with_tcp,START,0.04200,0.00000,-0.11094,-0.16641,0.00000,-0.20801,0.00000,-0.01734,0.02232,1.47899
with_tcp,START,0.04300,0.00000,-0.11616,-0.17424,0.00000,-0.21780,0.00000,-0.01758,0.02232,1.47899
with_tcp,START,0.04400,0.00000,-0.12150,-0.18225,0.00000,-0.22781,0.00000,-0.01783,0.02232,1.47898
with_tcp,START,0.04500,0.00000,-0.12696,-0.19044,0.00000,-0.23805,0.00000,-0.01808,0.02232,1.47897
with_tcp,START,0.04600,0.00000,-0.13254,-0.19881,0.00000,-0.24851,0.00000,-0.01834,0.02232,1.47897
with_tcp,START,0.04700,0.00000,-0.13824,-0.20736,0.00000,-0.25920,0.00000,-0.01861,0.02232,1.47896
with_tcp,START,0.04800,0.00000,-0.14406,-0.21609,0.00000,-0.27011,0.00000,-0.01888,0.02232,1.47895
with_tcp,START,0.04900,0.00000,-0.15000,-0.22500,0.00000,-0.28125,0.00000,-0.01915,0.02232,1.47895
with_tcp,START,0.05000,0.00000,-0.15606,-0.23409,0.00000,-0.29261,0.00000,-0.01943,0.02232,1.47894
with_tcp,START,0.05100,0.00000,-0.16224,-0.24336,0.00000,-0.30420,0.00000,-0.01972,0.02232,1.47893
with_tcp,START,0.05200,0.00000,-0.16854,-0.25281,0.00000,-0.31601,0.00000,-0.02001,0.02232,1.47892
with_tcp,START,0.05300,0.00000,-0.17496,-0.26244,0.00000,-0.32805,0.00000,-0.02031,0.02232,1.47891
with_tcp,START,0.05400,0.00000,-0.18150,-0.27225,0.00000,-0.34031,0.00000,-0.02062,0.02232,1.47891
with_tcp,START,0.05500,0.00000,-0.18816,-0.28224,0.00000,-0.35280,0.00000,-0.02092,0.02232,1.47890
with_tcp,START,0.05600,0.00000,-0.19494,-0.29241,0.00000,-0.36551,0.00000,-0.02124,0.02232,1.47889
with_tcp,START,0.05700,0.00000,-0.20184,-0.30276,0.00000,-0.37845,0.00000,-0.02156,0.02232,1.47888
with_tcp,START,0.05800,0.00000,-0.20886,-0.31329,0.00000,-0.39161,0.00000,-0.02189,0.02232,1.47887
with_tcp,START,0.05900,0.00000,-0.21600,-0.32400,0.00000,-0.40500,0.00000,-0.02222,0.02232,1.47886
with_tcp,START,0.06000,0.00000,-0.22326,-0.33489,0.00000,-0.41861,0.00000,-0.02256,0.02232,1.47885
with_tcp,START,0.06100,0.00000,-0.23064,-0.34596,0.00000,-0.43245,0.00000,-0.02290,0.02232,1.47884
with_tcp,START,0.06200,0.00000,-0.23814,-0.35721,0.00000,-0.44651,0.00000,-0.02325,0.02232,1.47883
with_tcp,START,0.06300,0.00000,-0.24576,-0.36864,0.00000,-0.46080,0.00000,-0.02360,0.02232,1.47882
with_tcp,START,0.06400,0.00000,-0.25350,-0.38025,0.00000,-0.47531,0.00000,-0.02396,0.02232,1.47881
with_tcp,START,0.06500,0.00000,-0.26136,-0.39204,0.00000,-0.49005,0.00000,-0.02433,0.02232,1.47879
with_tcp,START,0.06600,0.00000,-0.26934,-0.40401,0.00000,-0.50501,0.00000,-0.02470,0.02232,1.47878
with_tcp,START,0.06700,0.00000,-0.27744,-0.41616,0.00000,-0.52020,0.00000,-0.02507,0.02232,1.47877
with_tcp,START,0.06800,0.00000,-0.28566,-0.42849,0.00000,-0.53561,0.00000,-0.02546,0.02232,1.47876
with_tcp,START,0.06900,0.00000,-0.29400,-0.44100,0.00000,-0.55125,0.00000,-0.02584,0.02232,1.47875
with_tcp,START,0.07000,0.00000,-0.30246,-0.45369,0.00000,-0.56711,0.00000,-0.02624,0.02232,1.47873
with_tcp,START,0.07100,0.00000,-0.31104,-0.46656,0.00000,-0.58320,0.00000,-0.02663,0.02232,1.47872
with_tcp,START,0.07200,0.00000,-0.31974,-0.47961,0.00000,-0.59951,0.00000,-0.02704,0.02232,1.47870
with_tcp,START,0.07300,0.00000,-0.32856,-0.49284,0.00000,-0.61605,0.00000,-0.02745,0.02232,1.47869
with_tcp,START,0.07400,0.00000,-0.33750,-0.50625,0.00000,-0.63281,0.00000,-0.02786,0.02232,1.47868
with_tcp,START,0.07500,0.00000,-0.34656,-0.51984,0.00000,-0.64980,0.00000,-0.02828,0.02232,1.47866
with_tcp,START,0.07600,0.00000,-0.35574,-0.53361,0.00000,-0.66701,0.00000,-0.02871,0.02232,1.47865
with_tcp,START,0.07700,0.00000,-0.36504,-0.54756,0.00000,-0.68445,0.00000,-0.02914,0.02232,1.47863
with_tcp,START,0.07800,0.00000,-0.37446,-0.56169,0.00000,-0.70211,0.00000,-0.02958,0.02232,1.47861
with_tcp,START,0.07900,0.00000,-0.38400,-0.57600,0.00000,-0.72000,0.00000,-0.03002,0.02232,1.47860
with_tcp,START,0.08000,0.00000,-0.39366,-0.59049,0.00000,-0.73811,0.00000,-0.03047,0.02232,1.47858
with_tcp,START,0.08100,0.00000,-0.40344,-0.60516,0.00000,-0.75645,0.00000,-0.03093,0.02232,1.47856
with_tcp,START,0.08200,0.00000,-0.41334,-0.62001,0.00000,-0.77501,0.00000,-0.03139,0.02232,1.47855
with_tcp,START,0.08300,0.00000,-0.42336,-0.63504,0.00000,-0.79380,0.00000,-0.03185,0.02232,1.47853
with_tcp,START,0.08400,0.00000,-0.43350,-0.65025,0.00000,-0.81281,0.00000,-0.03232,0.02232,1.47851
with_tcp,START,0.08500,0.00000,-0.44376,-0.66564,0.00000,-0.83205,0.00000,-0.03280,0.02232,1.47849
with_tcp,START,0.08600,0.00000,-0.45414,-0.68121,0.00000,-0.85151,0.00000,-0.03328,0.02232,1.47847
with_tcp,START,0.08700,0.00000,-0.46464,-0.69696,0.00000,-0.87120,0.00000,-0.03377,0.02232,1.47845
with_tcp,START,0.08800,0.00000,-0.47526,-0.71289,0.00000,-0.89111,0.00000,-0.03426,0.02232,1.47843
with_tcp,START,0.08900,0.00000,-0.48600,-0.72900,0.00000,-0.91125,0.00000,-0.03476,0.02232,1.47841
with_tcp,START,0.09000,0.00000,-0.49686,-0.74529,0.00000,-0.93161,0.00000,-0.03526,0.02232,1.47839
with_tcp,START,0.09100,0.00000,-0.50784,-0.76176,0.00000,-0.95220,0.00000,-0.03577,0.02232,1.47837
with_tcp,START,0.09200,0.00000,-0.51894,-0.77841,0.00000,-0.97301,0.00000,-0.03629,0.02232,1.47834
with_tcp,START,0.09300,0.00000,-0.53016,-0.79524,0.00000,-0.99405,0.00000,-0.03681,0.02232,1.47832
with_tcp,START,0.09400,0.00000,-0.54150,-0.81225,0.00000,-1.01531,0.00000,-0.03734,0.02232,1.47830
with_tcp,START,0.09500,0.00000,-0.55296,-0.82944,0.00000,-1.03680,0.00000,-0.03787,0.02232,1.47827
with_tcp,START,0.09600,0.00000,-0.56454,-0.84681,0.00000,-1.05851,0.00000,-0.03841,0.02232,1.47825
with_tcp,START,0.09700,0.00000,-0.57624,-0.86436,0.00000,-1.08045,0.00000,-0.03895,0.02232,1.47822
with_tcp,START,0.09800,0.00000,-0.58806,-0.88209,0.00000,-1.10261,0.00000,-0.03950,0.02232,1.47820
with_tcp,START,0.09900,0.00000,-0.60000,-0.90000,0.00000,-1.12500,0.00000,-0.04005,0.02232,1.47817
with_tcp,START,0.10000,0.00000,-0.61206,-0.91809,0.00000,-1.14761,0.00000,-0.04061,0.02232,1.47815
with_tcp,START,0.10100,0.00000,-0.62424,-0.93636,0.00000,-1.17045,0.00000,-0.04118,0.02232,1.47812
with_tcp,START,0.10200,0.00000,-0.63654,-0.95481,0.00000,-1.19351,0.00000,-0.04175,0.02232,1.47809
with_tcp,START,0.10300,0.00000,-0.64896,-0.97344,0.00000,-1.21680,0.00000,-0.04233,0.02232,1.47806
with_tcp,START,0.10400,0.00000,-0.66150,-0.99225,0.00000,-1.24031,0.00000,-0.04291,0.02232,1.47803
with_tcp,START,0.10500,0.00000,-0.67416,-1.01124,0.00000,-1.26405,0.00000,-0.04350,0.02232,1.47800
with_tcp,START,0.10600,0.00000,-0.68694,-1.03041,0.00000,-1.28801,0.00000,-0.04409,0.02232,1.47797
with_tcp,START,0.10700,0.00000,-0.69984,-1.04976,0.00000,-1.31220,0.00000,-0.04469,0.02232,1.47794
with_tcp,START,0.10800,0.00000,-0.71286,-1.06929,0.00000,-1.33661,0.00000,-0.04529,0.02232,1.47791
with_tcp,START,0.10900,0.00000,-0.72600,-1.08900,0.00000,-1.36125,0.00000,-0.04590,0.02232,1.47788
with_tcp,START,0.11000,0.00000,-0.73926,-1.10889,0.00000,-1.38611,0.00000,-0.04652,0.02232,1.47785
with_tcp,START,0.11100,0.00000,-0.75264,-1.12896,0.00000,-1.41120,0.00000,-0.04714,0.02232,1.47781
with_tcp,START,0.11200,0.00000,-0.76614,-1.14921,0.00000,-1.43651,0.00000,-0.04776,0.02232,1.47778
with_tcp,START,0.11300,0.00000,-0.77976,-1.16964,0.00000,-1.46205,0.00000,-0.04840,0.02232,1.47774
with_tcp,START,0.11400,0.00000,-0.79350,-1.19025,0.00000,-1.48781,0.00000,-0.04903,0.02232,1.47771
with_tcp,START,0.11500,0.00000,-0.80736,-1.21104,0.00000,-1.51380,0.00000,-0.04968,0.02232,1.47767
with_tcp,START,0.11600,0.00000,-0.82134,-1.23201,0.00000,-1.54001,0.00000,-0.05032,0.02232,1.47763
with_tcp,START,0.11700,0.00000,-0.83544,-1.25316,0.00000,-1.56645,0.00000,-0.05098,0.02232,1.47760
with_tcp,START,0.11800,0.00000,-0.84966,-1.27449,0.00000,-1.59311,0.00000,-0.05164,0.02232,1.47756
with_tcp,START,0.11900,0.00000,-0.86400,-1.29600,0.00000,-1.62000,0.00000,-0.05230,0.02232,1.47752
with_tcp,START,0.12000,0.00000,-0.87846,-1.31769,0.00000,-1.64711,0.00000,-0.05297,0.02232,1.47748
with_tcp,START,0.12100,0.00000,-0.89304,-1.33956,0.00000,-1.67445,0.00000,-0.05365,0.02232,1.47744
with_tcp,START,0.12200,0.00000,-0.90774,-1.36161,0.00000,-1.70201,0.00000,-0.05433,0.02232,1.47740
with_tcp,START,0.12300,0.00000,-0.92256,-1.38384,0.00000,-1.72980,0.00000,-0.05502,0.02232,1.47735
with_tcp,START,0.12400,0.00000,-0.93750,-1.40625,0.00000,-1.75781,0.00000,-0.05571,0.02232,1.47731
with_tcp,START,0.12500,0.00000,-0.95256,-1.42884,0.00000,-1.78605,0.00000,-0.05641,0.02232,1.47727
with_tcp,START,0.12600,0.00000,-0.96774,-1.45161,0.00000,-1.81451,0.00000,-0.05711,0.02232,1.47722
with_tcp,START,0.12700,0.00000,-0.98304,-1.47456,0.00000,-1.84320,0.00000,-0.05782,0.02232,1.47718
with_tcp,START,0.12800,0.00000,-0.99846,-1.49769,0.00000,-1.87211,0.00000,-0.05854,0.02232,1.47713
with_tcp,START,0.12900,0.00000,-1.01400,-1.52100,0.00000,-1.90125,0.00000,-0.05926,0.02232,1.47708
with_tcp,START,0.13000,0.00000,-1.02966,-1.54449,0.00000,-1.93061,0.00000,-0.05998,0.02232,1.47703
with_tcp,START,0.13100,0.00000,-1.04544,-1.56816,0.00000,-1.96020,0.00000,-0.06071,0.02232,1.47698
with_tcp,START,0.13200,0.00000,-1.06134,-1.59201,0.00000,-1.99001,0.00000,-0.06145,0.02232,1.47693
with_tcp,START,0.13300,0.00000,-1.07736,-1.61604,0.00000,-2.02005,0.00000,-0.06219,0.02232,1.47688
with_tcp,START,0.13400,0.00000,-1.09350,-1.64025,0.00000,-2.05031,0.00000,-0.06294,0.02232,1.47683
with_tcp,START,0.13500,0.00000,-1.10976,-1.66464,0.00000,-2.08080,0.00000,-0.06370,0.02232,1.47678
with_tcp,START,0.13600,0.00000,-1.12614,-1.68921,0.00000,-2.11151,0.00000,-0.06445,0.02232,1.47672
with_tcp,START,0.13700,0.00000,-1.14264,-1.71396,0.00000,-2.14245,0.00000,-0.06522,0.02232,1.47667
with_tcp,START,0.13800,0.00000,-1.15926,-1.73889,0.00000,-2.17361,0.00000,-0.06599,0.02232,1.47661
with_tcp,START,0.13900,0.00000,-1.17600,-1.76400,0.00000,-2.20500,0.00000,-0.06676,0.02232,1.47656
with_tcp,START,0.14000,0.00000,-1.19286,-1.78929,0.00000,-2.23661,0.00000,-0.06754,0.02232,1.47650
with_tcp,START,0.14100,0.00000,-1.20984,-1.81476,0.00000,-2.26845,0.00000,-0.06833,0.02232,1.47644
with_tcp,START,0.14200,0.00000,-1.22694,-1.84041,0.00000,-2.30051,0.00000,-0.06912,0.02232,1.47638
with_tcp,START,0.14300,0.00000,-1.24416,-1.86624,0.00000,-2.33280,0.00000,-0.06992,0.02232,1.47632
with_tcp,START,0.14400,0.00000,-1.26150,-1.89225,0.00000,-2.36531,0.00000,-0.07072,0.02232,1.47626
with_tcp,START,0.14500,0.00000,-1.27896,-1.91844,0.00000,-2.39805,0.00000,-0.07153,0.02232,1.47619
with_tcp,START,0.14600,0.00000,-1.29654,-1.94481,0.00000,-2.43101,0.00000,-0.07235,0.02232,1.47613
with_tcp,START,0.14700,0.00000,-1.31424,-1.97136,0.00000,-2.46420,0.00000,-0.07317,0.02232,1.47607
with_tcp,START,0.14800,0.00000,-1.33206,-1.99809,0.00000,-2.49761,0.00000,-0.07399,0.02232,1.47600
with_tcp,START,0.14900,0.00000,-1.35000,-2.02500,0.00000,-2.53125,0.00000,-0.07482,0.02232,1.47593
with_tcp,START,0.15000,0.00000,-1.36806,-2.05209,0.00000,-2.56511,0.00000,-0.07566,0.02232,1.47586
with_tcp,START,0.15100,0.00000,-1.38624,-2.07936,0.00000,-2.59920,0.00000,-0.07650,0.02232,1.47579
with_tcp,START,0.15200,0.00000,-1.40454,-2.10681,0.00000,-2.63351,0.00000,-0.07734,0.02232,1.47572
with_tcp,START,0.15300,0.00000,-1.42296,-2.13444,0.00000,-2.66805,0.00000,-0.07820,0.02232,1.47565
with_tcp,START,0.15400,0.00000,-1.44150,-2.16225,0.00000,-2.70281,0.00000,-0.07905,0.02232,1.47558
with_tcp,START,0.15500,0.00000,-1.46016,-2.19024,0.00000,-2.73780,0.00000,-0.07992,0.02232,1.47550
with_tcp,START,0.15600,0.00000,-1.47894,-2.21841,0.00000,-2.77301,0.00000,-0.08079,0.02232,1.47543
with_tcp,START,0.15700,0.00000,-1.49784,-2.24676,0.00000,-2.80845,0.00000,-0.08166,0.02232,1.47535
with_tcp,START,0.15800,0.00000,-1.51686,-2.27529,0.00000,-2.84411,0.00000,-0.08254,0.02232,1.47527
with_tcp,START,0.15900,0.00000,-1.53600,-2.30400,0.00000,-2.87996,0.00000,-0.08342,0.02232,1.47519
with_tcp,START,0.16000,0.00000,-1.55526,-2.33289,0.00000,-2.91582,0.00000,-0.08431,0.02232,1.47511
with_tcp,START,0.16100,0.00000,-1.57464,-2.36196,0.00000,-2.95168,0.00000,-0.08521,0.02232,1.47503
with_tcp,START,0.16200,0.00000,-1.59414,-2.39121,0.00000,-2.98754,0.00000,-0.08611,0.02232,1.47495
with_tcp,START,0.16300,0.00000,-1.61376,-2.42064,0.00000,-3.02340,0.00000,-0.08701,0.02232,1.47486
with_tcp,START,0.16400,0.00000,-1.63350,-2.45025,0.00000,-3.05926,0.00000,-0.08792,0.02232,1.47478
with_tcp,START,0.16500,0.00000,-1.65336,-2.48004,0.00000,-3.09513,0.00000,-0.08884,0.02232,1.47469
with_tcp,START,0.16600,0.00000,-1.67334,-2.51001,0.00000,-3.13099,0.00000,-0.08976,0.02232,1.47460
with_tcp,START,0.16700,0.00000,-1.69344,-2.54016,0.00000,-3.16685,0.00000,-0.09068,0.02232,1.47452
with_tcp,START,0.16800,0.00000,-1.71366,-2.57049,0.00000,-3.20271,0.00000,-0.09161,0.02232,1.47443
with_tcp,START,0.16900,0.00000,-1.73400,-2.60100,0.00000,-3.23857,0.00000,-0.09254,0.02232,1.47433
with_tcp,START,0.17000,0.00000,-1.75446,-2.63169,0.00000,-3.27443,0.00000,-0.09348,0.02232,1.47424
with_tcp,START,0.17100,0.00000,-1.77504,-2.66256,0.00000,-3.31029,0.00000,-0.09443,0.02232,1.47415
with_tcp,START,0.17200,0.00000,-1.79574,-2.69361,0.00000,-3.34616,0.00000,-0.09537,0.02232,1.47405
with_tcp,START,0.17300,0.00000,-1.81656,-2.72484,0.00000,-3.38202,0.00000,-0.09633,0.02232,1.47396
with_tcp,START,0.17400,0.00000,-1.83750,-2.75625,0.00000,-3.41788,0.00000,-0.09728,0.02232,1.47386
with_tcp,START,0.17500,0.00000,-1.85856,-2.78784,0.00000,-3.45374,0.00000,-0.09825,0.02232,1.47376
with_tcp,START,0.17600,0.00000,-1.87974,-2.81961,0.00000,-3.48960,0.00000,-0.09922,0.02232,1.47366
with_tcp,START,0.17700,0.00000,-1.90104,-2.85156,0.00000,-3.52546,0.00000,-0.10019,0.02232,1.47356
with_tcp,START,0.17800,0.00000,-1.92246,-2.88369,0.00000,-3.56132,0.00000,-0.10117,0.02232,1.47345
with_tcp,START,0.17900,0.00000,-1.94400,-2.91600,0.00000,-3.59719,0.00000,-0.10215,0.02232,1.47335
with_tcp,START,0.18000,0.00000,-1.96566,-2.94849,0.00000,-3.63305,0.00000,-0.10314,0.02232,1.47324
with_tcp,START,0.18100,0.00000,-1.98744,-2.98116,0.00000,-3.66891,0.00000,-0.10413,0.02232,1.47313
with_tcp,START,0.18200,0.00000,-2.00934,-3.01401,0.00000,-3.70477,0.00000,-0.10512,0.02232,1.47302
with_tcp,START,0.18300,0.00000,-2.03136,-3.04704,0.00000,-3.74063,0.00000,-0.10613,0.02232,1.47291
with_tcp,START,0.18400,0.00000,-2.05350,-3.08025,0.00000,-3.77649,0.00000,-0.10713,0.02232,1.47280
with_tcp,START,0.18500,0.00000,-2.07576,-3.11364,0.00000,-3.81236,0.00000,-0.10814,0.02232,1.47269
with_tcp,START,0.18600,0.00000,-2.09814,-3.14721,0.00000,-3.84822,0.00000,-0.10916,0.02232,1.47257
with_tcp,START,0.18700,0.00000,-2.12064,-3.18096,0.00000,-3.88408,0.00000,-0.11018,0.02232,1.47246
with_tcp,START,0.18800,0.00000,-2.14326,-3.21489,0.00000,-3.91994,0.00000,-0.11121,0.02232,1.47234
with_tcp,START,0.18900,0.00000,-2.16600,-3.24900,0.00000,-3.95580,0.00000,-0.11224,0.02232,1.47222
with_tcp,START,0.19000,0.00000,-2.18886,-3.28329,0.00000,-3.99166,0.00000,-0.11327,0.02232,1.47210
with_tcp,START,0.19100,0.00000,-2.21184,-3.31776,0.00000,-4.02752,0.00000,-0.11431,0.02232,1.47198
with_tcp,START,0.19200,0.00000,-2.23494,-3.35241,0.00000,-4.06339,0.00000,-0.11536,0.02232,1.47185
with_tcp,START,0.19300,0.00000,-2.25816,-3.38724,0.00000,-4.09925,0.00000,-0.11641,0.02232,1.47173
with_tcp,START,0.19400,0.00000,-2.28150,-3.42225,0.00000,-4.13511,0.00000,-0.11746,0.02232,1.47160
with_tcp,START,0.19500,0.00000,-2.30496,-3.45744,0.00000,-4.17097,0.00000,-0.11852,0.02232,1.47147
with_tcp,START,0.19600,0.00000,-2.32854,-3.49281,0.00000,-4.20683,0.00000,-0.11959,0.02232,1.47134
with_tcp,START,0.19700,0.00000,-2.35224,-3.52836,0.00000,-4.24269,0.00000,-0.12065,0.02232,1.47121
with_tcp,START,0.19800,0.00000,-2.37606,-3.56409,0.00000,-4.27855,0.00000,-0.12173,0.02232,1.47107
with_tcp,START,0.19900,0.00000,-2.40000,-3.60000,0.00000,-4.31442,0.00000,-0.12281,0.02232,1.47094
with_tcp,START,0.20000,0.00000,-2.42406,-3.63609,0.00000,-4.35028,0.00000,-0.12389,0.02232,1.47080
with_tcp,START,0.20100,0.00000,-2.44824,-3.67236,0.00000,-4.38614,0.00000,-0.12498,0.02232,1.47066
with_tcp,START,0.20200,0.00000,-2.47254,-3.70881,0.00000,-4.42200,0.00000,-0.12607,0.02232,1.47052
with_tcp,START,0.20300,0.00000,-2.49696,-3.74544,0.00000,-4.45786,0.00000,-0.12717,0.02232,1.47038
with_tcp,START,0.20400,0.00000,-2.52150,-3.78225,0.00000,-4.49372,0.00000,-0.12827,0.02232,1.47023
with_tcp,START,0.20500,0.00000,-2.54616,-3.81924,0.00000,-4.52958,0.00000,-0.12938,0.02232,1.47009
with_tcp,START,0.20600,0.00000,-2.57094,-3.85641,0.00000,-4.56545,0.00000,-0.13049,0.02232,1.46994
with_tcp,START,0.20700,0.00000,-2.59584,-3.89376,0.00000,-4.60131,0.00000,-0.13161,0.02232,1.46979
with_tcp,START,0.20800,0.00000,-2.62086,-3.93129,0.00000,-4.63717,0.00000,-0.13273,0.02232,1.46964
with_tcp,START,0.20900,0.00000,-2.64600,-3.96900,0.00000,-4.67303,0.00000,-0.13386,0.02232,1.46949
with_tcp,START,0.21000,0.00000,-2.67126,-4.00689,0.00000,-4.70889,0.00000,-0.13499,0.02232,1.46933
with_tcp,START,0.21100,0.00000,-2.69664,-4.04496,0.00000,-4.74475,0.00000,-0.13612,0.02232,1.46918
with_tcp,START,0.21200,0.00000,-2.72214,-4.08321,0.00000,-4.78061,0.00000,-0.13726,0.02232,1.46902
with_tcp,START,0.21300,0.00000,-2.74776,-4.12164,0.00000,-4.81648,0.00000,-0.13841,0.02232,1.46886
with_tcp,START,0.21400,0.00000,-2.77350,-4.16025,0.00000,-4.85234,0.00000,-0.13956,0.02232,1.46870
with_tcp,START,0.21500,0.00000,-2.79936,-4.19904,0.00000,-4.88820,0.00000,-0.14071,0.02232,1.46853
with_tcp,START,0.21600,0.00000,-2.82534,-4.23801,0.00000,-4.92406,0.00000,-0.14187,0.02232,1.46837
with_tcp,START,0.21700,0.00000,-2.85144,-4.27716,0.00000,-4.95992,0.00000,-0.14304,0.02232,1.46820
with_tcp,START,0.21800,0.00000,-2.87766,-4.31649,0.00000,-4.99578,0.00000,-0.14420,0.02232,1.46803
with_tcp,START,0.21900,0.00000,-2.90400,-4.35600,0.00000,-5.03164,0.00000,-0.14538,0.02232,1.46786
with_tcp,START,0.22000,0.00000,-2.93046,-4.39569,0.00000,-5.06751,0.00000,-0.14656,0.02232,1.46768
with_tcp,START,0.22100,0.00000,-2.95704,-4.43556,0.00000,-5.10337,0.00000,-0.14774,0.02232,1.46751
with_tcp,START,0.22200,0.00000,-2.98374,-4.47561,0.00000,-5.13923,0.00000,-0.14893,0.02232,1.46733
with_tcp,START,0.22300,0.00000,-3.01056,-4.51584,0.00000,-5.17509,0.00000,-0.15012,0.02232,1.46715
with_tcp,START,0.22400,0.00000,-3.03750,-4.55625,0.00000,-5.21095,0.00000,-0.15132,0.02232,1.46697
with_tcp,START,0.22500,0.00000,-3.06456,-4.59684,0.00000,-5.24681,0.00000,-0.15252,0.02232,1.46678
with_tcp,START,0.22600,0.00000,-3.09174,-4.63761,0.00000,-5.28267,0.00000,-0.15372,0.02232,1.46660
with_tcp,START,0.22700,0.00000,-3.11904,-4.67856,0.00000,-5.31854,0.00000,-0.15494,0.02232,1.46641
with_tcp,START,0.22800,0.00000,-3.14646,-4.71969,0.00000,-5.35440,0.00000,-0.15615,0.02232,1.46622
with_tcp,START,0.22900,0.00000,-3.17400,-4.76100,0.00000,-5.39026,0.00000,-0.15737,0.02232,1.46603
with_tcp,START,0.23000,0.00000,-3.20166,-4.80249,0.00000,-5.42612,0.00000,-0.15860,0.02232,1.46583
with_tcp,START,0.23100,0.00000,-3.22944,-4.84416,0.00000,-5.46198,0.00000,-0.15983,0.02232,1.46563
with_tcp,START,0.23200,0.00000,-3.25734,-4.88601,0.00000,-5.49784,0.00000,-0.16106,0.02232,1.46544
with_tcp,START,0.23300,0.00000,-3.28536,-4.92804,0.00000,-5.53370,0.00000,-0.16230,0.02232,1.46523
with_tcp,START,0.23400,0.00000,-3.31350,-4.97025,0.00000,-5.56957,0.00000,-0.16354,0.02232,1.46503
with_tcp,START,0.23500,0.00000,-3.34176,-5.01264,0.00000,-5.60543,0.00000,-0.16479,0.02232,1.46483
with_tcp,START,0.23600,0.00000,-3.37014,-5.05521,0.00000,-5.64129,0.00000,-0.16604,0.02232,1.46462
with_tcp,START,0.23700,0.00000,-3.39864,-5.09796,0.00000,-5.67715,0.00000,-0.16730,0.02232,1.46441
with_tcp,START,0.23800,0.00000,-3.42726,-5.14089,0.00000,-5.71301,0.00000,-0.16856,0.02232,1.46420
with_tcp,START,0.23900,0.00000,-3.45600,-5.18400,0.00000,-5.74887,0.00000,-0.16983,0.02232,1.46398
with_tcp,START,0.24000,0.00000,-3.48486,-5.22729,0.00000,-5.78473,0.00000,-0.17110,0.02232,1.46376
with_tcp,START,0.24100,0.00000,-3.51384,-5.27076,0.00000,-5.82060,0.00000,-0.17238,0.02232,1.46355
with_tcp,START,0.24200,0.00000,-3.54294,-5.31441,0.00000,-5.85646,0.00000,-0.17366,0.02232,1.46332
with_tcp,START,0.24300,0.00000,-3.57216,-5.35824,0.00000,-5.89232,0.00000,-0.17494,0.02232,1.46310
with_tcp,START,0.24400,0.00000,-3.60150,-5.40225,0.00000,-5.92818,0.00000,-0.17623,0.02232,1.46287
with_tcp,START,0.24500,0.00000,-3.63096,-5.44644,0.00000,-5.96404,0.00000,-0.17753,0.02232,1.46265
with_tcp,START,0.24600,0.00000,-3.66054,-5.49081,0.00000,-5.99990,0.00000,-0.17883,0.02232,1.46242
with_tcp,START,0.24700,0.00000,-3.69024,-5.53536,0.00000,-6.03576,0.00000,-0.18013,0.02232,1.46218
with_tcp,START,0.24800,0.00000,-3.72006,-5.58009,0.00000,-6.07163,0.00000,-0.18144,0.02232,1.46195
with_tcp,START,0.24900,0.00000,-3.75000,-5.62500,0.00000,-6.10749,0.00000,-0.18275,0.02232,1.46171
with_tcp,START,0.25000,0.00000,-3.78006,-5.67009,0.00000,-6.14335,0.00000,-0.18407,0.02232,1.46147
with_tcp,START,0.25100,0.00000,-3.81024,-5.71536,0.00000,-6.17921,0.00000,-0.18539,0.02232,1.46122
with_tcp,START,0.25200,0.00000,-3.84054,-5.76081,0.00000,-6.21507,0.00000,-0.18672,0.02232,1.46098
with_tcp,START,0.25300,0.00000,-3.87096,-5.80644,0.00000,-6.25093,0.00000,-0.18805,0.02232,1.46073
with_tcp,START,0.25400,0.00000,-3.90150,-5.85225,0.00000,-6.28680,0.00000,-0.18938,0.02232,1.46048
with_tcp,START,0.25500,0.00000,-3.93216,-5.89824,0.00000,-6.32266,0.00000,-0.19072,0.02232,1.46023
with_tcp,START,0.25600,0.00000,-3.96294,-5.94441,0.00000,-6.35852,0.00000,-0.19207,0.02232,1.45997
with_tcp,START,0.25700,0.00000,-3.99384,-5.99076,0.00000,-6.39438,0.00000,-0.19341,0.02232,1.45971
with_tcp,START,0.25800,0.00000,-4.02486,-6.03729,0.00000,-6.43024,0.00000,-0.19477,0.02232,1.45945
with_tcp,START,0.25900,0.00000,-4.05600,-6.08400,0.00000,-6.46610,0.00000,-0.19613,0.02232,1.45919
with_tcp,START,0.26000,0.00000,-4.08726,-6.13089,0.00000,-6.50196,0.00000,-0.19749,0.02232,1.45892
with_tcp,START,0.26100,0.00000,-4.11864,-6.17796,0.00000,-6.53783,0.00000,-0.19885,0.02232,1.45865
with_tcp,START,0.26200,0.00000,-4.15014,-6.22521,0.00000,-6.57369,0.00000,-0.20023,0.02232,1.45838
with_tcp,START,0.26300,0.00000,-4.18176,-6.27264,0.00000,-6.60955,0.00000,-0.20160,0.02232,1.45811
with_tcp,START,0.26400,0.00000,-4.21350,-6.32025,0.00000,-6.64541,0.00000,-0.20298,0.02232,1.45783
with_tcp,START,0.26500,0.00000,-4.24536,-6.36804,0.00000,-6.68127,0.00000,-0.20437,0.02232,1.45755
with_tcp,START,0.26600,0.00000,-4.27734,-6.41601,0.00000,-6.71713,0.00000,-0.20576,0.02232,1.45727
with_tcp,START,0.26700,0.00000,-4.30944,-6.46416,0.00000,-6.75299,0.00000,-0.20715,0.02232,1.45698
with_tcp,START,0.26800,0.00000,-4.34166,-6.51249,0.00000,-6.78886,0.00000,-0.20855,0.02232,1.45670
with_tcp,START,0.26900,0.00000,-4.37400,-6.56100,0.00000,-6.82472,0.00000,-0.20995,0.02232,1.45640
with_tcp,START,0.27000,0.00000,-4.40646,-6.60969,0.00000,-6.86058,0.00000,-0.21136,0.02232,1.45611
with_tcp,START,0.27100,0.00000,-4.43904,-6.65856,0.00000,-6.89644,0.00000,-0.21277,0.02232,1.45581
with_tcp,START,0.27200,0.00000,-4.47174,-6.70761,0.00000,-6.93230,0.00000,-0.21418,0.02232,1.45552
with_tcp,START,0.27300,0.00000,-4.50456,-6.75684,0.00000,-6.96816,0.00000,-0.21560,0.02232,1.45521
with_tcp,START,0.27400,0.00000,-4.53750,-6.80625,0.00000,-7.00402,0.00000,-0.21703,0.02232,1.45491
with_tcp,START,0.27500,0.00000,-4.57056,-6.85584,0.00000,-7.03989,0.00000,-0.21846,0.02232,1.45460
with_tcp,START,0.27600,0.00000,-4.60374,-6.90561,0.00000,-7.07575,0.00000,-0.21989,0.02232,1.45429
with_tcp,START,0.27700,0.00000,-4.63704,-6.95556,0.00000,-7.11161,0.00000,-0.22133,0.02232,1.45398
with_tcp,START,0.27800,0.00000,-4.67046,-7.00569,0.00000,-7.14747,0.00000,-0.22277,0.02232,1.45366
with_tcp,START,0.27900,0.00000,-4.70400,-7.05600,0.00000,-7.18333,0.00000,-0.22422,0.02232,1.45334
with_tcp,START,0.28000,0.00000,-4.73766,-7.10649,0.00000,-7.21919,0.00000,-0.22567,0.02232,1.45302
with_tcp,START,0.28100,0.00000,-4.77144,-7.15716,0.00000,-7.25505,0.00000,-0.22712,0.02232,1.45269
with_tcp,START,0.28200,0.00000,-4.80534,-7.20801,0.00000,-7.29092,0.00000,-0.22858,0.02232,1.45236
with_tcp,START,0.28300,0.00000,-4.83936,-7.25904,0.00000,-7.32678,0.00000,-0.23004,0.02232,1.45203
with_tcp,START,0.28400,0.00000,-4.87350,-7.31025,0.00000,-7.36264,0.00000,-0.23151,0.02232,1.45170
with_tcp,START,0.28500,0.00000,-4.90776,-7.36164,0.00000,-7.39850,0.00000,-0.23298,0.02232,1.45136
with_tcp,START,0.28600,0.00000,-4.94214,-7.41321,0.00000,-7.43436,0.00000,-0.23446,0.02232,1.45102
with_tcp,START,0.28700,0.00000,-4.97664,-7.46496,0.00000,-7.47022,0.00000,-0.23594,0.02232,1.45067
with_tcp,START,0.28800,0.00000,-5.01126,-7.51689,0.00000,-7.50608,0.00000,-0.23743,0.02232,1.45033
with_tcp,START,0.28900,0.00000,-5.04600,-7.56900,0.00000,-7.54195,0.00000,-0.23892,0.02232,1.44997
with_tcp,START,0.29000,0.00000,-5.08086,-7.62129,0.00000,-7.57781,0.00000,-0.24041,0.02232,1.44962
with_tcp,START,0.29100,0.00000,-5.11584,-7.67376,0.00000,-7.61367,0.00000,-0.24191,0.02232,1.44926
with_tcp,START,0.29200,0.00000,-5.15094,-7.72641,0.00000,-7.64953,0.00000,-0.24341,0.02232,1.44890
with_tcp,START,0.29300,0.00000,-5.18616,-7.77924,0.00000,-7.68539,0.00000,-0.24492,0.02232,1.44854
with_tcp,START,0.29400,0.00000,-5.22150,-7.83225,0.00000,-7.72125,0.00000,-0.24643,0.02232,1.44817
with_tcp,START,0.29500,0.00000,-5.25696,-7.88544,0.00000,-7.75711,0.00000,-0.24794,0.02232,1.44780
with_tcp,START,0.29600,0.00000,-5.29254,-7.93881,0.00000,-7.79298,0.00000,-0.24946,0.02232,1.44743
with_tcp,START,0.29700,0.00000,-5.32824,-7.99236,0.00000,-7.82884,0.00000,-0.25098,0.02232,1.44705
with_tcp,START,0.29800,0.00000,-5.36406,-8.04609,0.00000,-7.86470,0.00000,-0.25251,0.02232,1.44667
with_tcp,START,0.29900,0.00000,-5.40000,-8.10000,0.00000,-7.90056,0.00000,-0.25404,0.02232,1.44629
with_tcp,START,0.30000,0.00000,-5.43606,-8.15409,0.00000,-7.93642,0.00000,-0.25558,0.02232,1.44590
with_tcp,START,0.30100,0.00000,-5.47224,-8.20836,0.00000,-7.97228,0.00000,-0.25712,0.02232,1.44552
with_tcp,START,0.30200,0.00000,-5.50854,-8.26281,0.00000,-8.00814,0.00000,-0.25866,0.02232,1.44512
with_tcp,START,0.30300,0.00000,-5.54496,-8.31744,0.00000,-8.04401,0.00000,-0.26021,0.02232,1.44472
with_tcp,START,0.30400,0.00000,-5.58150,-8.37225,0.00000,-8.07987,0.00000,-0.26177,0.02232,1.44432
with_tcp,START,0.30500,0.00000,-5.61816,-8.42724,0.00000,-8.11573,0.00000,-0.26332,0.02232,1.44392
with_tcp,START,0.30600,0.00000,-5.65494,-8.48241,0.00000,-8.15159,0.00000,-0.26488,0.02232,1.44351
with_tcp,START,0.30700,0.00000,-5.69184,-8.53776,0.00000,-8.18745,0.00000,-0.26645,0.02232,1.44310
with_tcp,START,0.30800,0.00000,-5.72886,-8.59329,0.00000,-8.22331,0.00000,-0.26802,0.02232,1.44269
with_tcp,START,0.30900,0.00000,-5.76600,-8.64900,0.00000,-8.25917,0.00000,-0.26959,0.02232,1.44227
with_tcp,START,0.31000,0.00000,-5.80326,-8.70489,0.00000,-8.29504,0.00000,-0.27117,0.02232,1.44185
with_tcp,START,0.31100,0.00000,-5.84064,-8.76096,0.00000,-8.33090,0.00000,-0.27275,0.02232,1.44142
with_tcp,START,0.31200,0.00000,-5.87814,-8.81721,0.00000,-8.36676,0.00000,-0.27433,0.02232,1.44100
with_tcp,START,0.31300,0.00000,-5.91576,-8.87364,0.00000,-8.40262,0.00000,-0.27592,0.02232,1.44056
with_tcp,START,0.31400,0.00000,-5.95350,-8.93025,0.00000,-8.43848,0.00000,-0.27752,0.02232,1.44013
with_tcp,START,0.31500,0.00000,-5.99136,-8.98704,0.00000,-8.47434,0.00000,-0.27911,0.02232,1.43969
with_tcp,START,0.31600,0.00000,-6.02934,-9.04401,0.00000,-8.51021,0.00000,-0.28071,0.02232,1.43925
with_tcp,START,0.31700,0.00000,-6.06744,-9.10116,0.00000,-8.54607,0.00000,-0.28232,0.02232,1.43880
with_tcp,START,0.31800,0.00000,-6.10566,-9.15849,0.00000,-8.58193,0.00000,-0.28393,0.02232,1.43835
with_tcp,START,0.31900,0.00000,-6.14400,-9.21600,0.00000,-8.61779,0.00000,-0.28554,0.02232,1.43789
with_tcp,START,0.32000,0.00000,-6.18246,-9.27369,0.00000,-8.65365,0.00000,-0.28716,0.02232,1.43744
with_tcp,START,0.32100,0.00000,-6.22104,-9.33156,0.00000,-8.68951,0.00000,-0.28878,0.02232,1.43697
with_tcp,START,0.32200,0.00000,-6.25974,-9.38961,0.00000,-8.72537,0.00000,-0.29041,0.02232,1.43651
with_tcp,START,0.32300,0.00000,-6.29856,-9.44784,0.00000,-8.76124,0.00000,-0.29203,0.02232,1.43604
with_tcp,START,0.32400,0.00000,-6.33750,-9.50625,0.00000,-8.79710,0.00000,-0.29367,0.02232,1.43556
with_tcp,START,0.32500,0.00000,-6.37656,-9.56484,0.00000,-8.83296,0.00000,-0.29530,0.02232,1.43509
with_tcp,START,0.32600,0.00000,-6.41574,-9.62361,0.00000,-8.86882,0.00000,-0.29695,0.02232,1.43461
with_tcp,START,0.32700,0.00000,-6.45504,-9.68256,0.00000,-8.90468,0.00000,-0.29859,0.02232,1.43412
with_tcp,START,0.32800,0.00000,-6.49446,-9.74169,0.00000,-8.94054,0.00000,-0.30024,0.02232,1.43363
with_tcp,START,0.32900,0.00000,-6.53400,-9.80100,0.00000,-8.97640,0.00000,-0.30189,0.02232,1.43314
with_tcp,START,0.33000,0.00000,-6.57366,-9.86049,0.00000,-9.01227,0.00000,-0.30355,0.02232,1.43264
with_tcp,START,0.33100,0.00000,-6.61344,-9.92016,0.00000,-9.04813,0.00000,-0.30521,0.02232,1.43214
with_tcp,START,0.33200,0.00000,-6.65334,-9.98001,0.00000,-9.08399,0.00000,-0.30687,0.02232,1.43164
with_tcp,START,0.33300,0.00000,-6.69336,-10.04004,0.00000,-9.11985,0.00000,-0.30854,0.02232,1.43113
with_tcp,START,0.33400,0.00000,-6.73350,-10.10025,0.00000,-9.15571,0.00000,-0.31021,0.02232,1.43062
with_tcp,START,0.33500,0.00000,-6.77376,-10.16064,0.00000,-9.19157,0.00000,-0.31189,0.02232,1.43010
with_tcp,START,0.33600,0.00000,-6.81414,-10.22121,0.00000,-9.22743,0.00000,-0.31357,0.02232,1.42958
with_tcp,START,0.33700,0.00000,-6.85464,-10.28196,0.00000,-9.26330,0.00000,-0.31525,0.02232,1.42905
with_tcp,START,0.33800,0.00000,-6.89526,-10.34289,0.00000,-9.29916,0.00000,-0.31694,0.02232,1.42852
with_tcp,START,0.33900,0.00000,-6.93600,-10.40400,0.00000,-9.33502,0.00000,-0.31863,0.02232,1.42799
with_tcp,START,0.34000,0.00000,-6.97686,-10.46529,0.00000,-9.37088,0.00000,-0.32032,0.02232,1.42745
with_tcp,START,0.34100,0.00000,-7.01784,-10.52676,0.00000,-9.40674,0.00000,-0.32202,0.02232,1.42691
with_tcp,START,0.34200,0.00000,-7.05894,-10.58841,0.00000,-9.44260,0.00000,-0.32372,0.02232,1.42636
with_tcp,START,0.34300,0.00000,-7.10016,-10.65024,0.00000,-9.47846,0.00000,-0.32543,0.02232,1.42581
with_tcp,START,0.34400,0.00000,-7.14150,-10.71225,0.00000,-9.51433,0.00000,-0.32714,0.02232,1.42526
with_tcp,START,0.34500,0.00000,-7.18296,-10.77444,0.00000,-9.55019,0.00000,-0.32885,0.02232,1.42470
with_tcp,START,0.34600,0.00000,-7.22454,-10.83681,0.00000,-9.58605,0.00000,-0.33056,0.02232,1.42414
with_tcp,START,0.34700,0.00000,-7.26624,-10.89936,0.00000,-9.62191,0.00000,-0.33228,0.02232,1.42357
with_tcp,START,0.34800,0.00000,-7.30806,-10.96209,0.00000,-9.65777,0.00000,-0.33401,0.02232,1.42300
with_tcp,START,0.34900,0.00000,-7.35000,-11.02500,0.00000,-9.69363,0.00000,-0.33574,0.02232,1.42242
with_tcp,START,0.35000,0.00000,-7.39206,-11.08809,0.00000,-9.72949,0.00000,-0.33747,0.02232,1.42184
with_tcp,START,0.35100,0.00000,-7.43424,-11.15136,0.00000,-9.76536,0.00000,-0.33920,0.02232,1.42126
with_tcp,START,0.35200,0.00000,-7.47654,-11.21481,0.00000,-9.80122,0.00000,-0.34094,0.02232,1.42067
with_tcp,START,0.35300,0.00000,-7.51895,-11.27844,0.00000,-9.83708,0.00000,-0.34268,0.02232,1.42007
with_tcp,START,0.35400,0.00000,-7.56137,-11.34225,0.00000,-9.87294,0.00000,-0.34442,0.02232,1.41948
with_tcp,START,0.35500,0.00000,-7.60380,-11.40624,0.00000,-9.90880,0.00000,-0.34617,0.02232,1.41888
with_tcp,START,0.35600,0.00000,-7.64623,-11.47041,0.00000,-9.94466,0.00000,-0.34791,0.02232,1.41827
with_tcp,START,0.35700,0.00000,-7.68865,-11.53476,0.00000,-9.98052,0.00000,-0.34966,0.02232,1.41766
with_tcp,START,0.35800,0.00000,-7.73108,-11.59929,0.00000,-10.01639,0.00000,-0.35140,0.02232,1.41705
with_tcp,START,0.35900,0.00000,-7.77351,-11.66400,0.00000,-10.05225,0.00000,-0.35315,0.02232,1.41643
with_tcp,START,0.36000,0.00000,-7.81593,-11.72889,0.00000,-10.08811,0.00000,-0.35490,0.02232,1.41581
with_tcp,START,0.36100,0.00000,-7.85836,-11.79396,0.00000,-10.12397,0.00000,-0.35664,0.02232,1.41519
with_tcp,START,0.36200,0.00000,-7.90079,-11.85921,0.00000,-10.15983,0.00000,-0.35839,0.02232,1.41456
with_tcp,START,0.36300,0.00000,-7.94321,-11.92464,0.00000,-10.19569,0.00000,-0.36014,0.02232,1.41393
with_tcp,START,0.36400,0.00000,-7.98564,-11.99025,0.00000,-10.23155,0.00000,-0.36190,0.02232,1.41329
with_tcp,START,0.36500,0.00000,-8.02806,-12.05604,0.00000,-10.26742,0.00000,-0.36365,0.02232,1.41266
with_tcp,START,0.36600,0.00000,-8.07049,-12.12201,0.00000,-10.30328,0.00000,-0.36540,0.02232,1.41201
with_tcp,START,0.36700,0.00000,-8.11292,-12.18816,0.00000,-10.33914,0.00000,-0.36715,0.02232,1.41137
with_tcp,START,0.36800,0.00000,-8.15534,-12.25449,0.00000,-10.37500,0.00000,-0.36891,0.02232,1.41071
with_tcp,START,0.36900,0.00000,-8.19777,-12.32100,0.00000,-10.41086,0.00000,-0.37066,0.02232,1.41006
with_tcp,START,0.37000,0.00000,-8.24020,-12.38769,0.00000,-10.44672,0.00000,-0.37242,0.02232,1.40940
with_tcp,START,0.37100,0.00000,-8.28262,-12.45456,0.00000,-10.48258,0.00000,-0.37417,0.02232,1.40874
with_tcp,START,0.37200,0.00000,-8.32505,-12.52161,0.00000,-10.51845,0.00000,-0.37593,0.02232,1.40807
with_tcp,START,0.37300,0.00000,-8.36748,-12.58884,0.00000,-10.55431,0.00000,-0.37769,0.02232,1.40740
with_tcp,START,0.37400,0.00000,-8.40990,-12.65625,0.00000,-10.59017,0.00000,-0.37944,0.02232,1.40673
with_tcp,START,0.37500,0.00000,-8.45233,-12.72384,0.00000,-10.62603,0.00000,-0.38120,0.02232,1.40605
with_tcp,START,0.37600,0.00000,-8.49476,-12.79161,0.00000,-10.66189,0.00000,-0.38296,0.02232,1.40537
with_tcp,START,0.37700,0.00000,-8.53718,-12.85956,0.00000,-10.69775,0.00000,-0.38472,0.02232,1.40468
with_tcp,START,0.37800,0.00000,-8.57961,-12.92769,0.00000,-10.73361,0.00000,-0.38648,0.02232,1.40399
with_tcp,START,0.37900,0.00000,-8.62203,-12.99600,0.00000,-10.76948,0.00000,-0.38824,0.02232,1.40330
with_tcp,START,0.38000,0.00000,-8.66446,-13.06449,0.00000,-10.80534,0.00000,-0.39001,0.02232,1.40260
with_tcp,START,0.38100,0.00000,-8.70689,-13.13316,0.00000,-10.84120,0.00000,-0.39177,0.02232,1.40190
with_tcp,START,0.38200,0.00000,-8.74931,-13.20201,0.00000,-10.87706,0.00000,-0.39353,0.02232,1.40119
with_tcp,START,0.38300,0.00000,-8.79174,-13.27104,0.00000,-10.91292,0.00000,-0.39530,0.02232,1.40048
with_tcp,START,0.38400,0.00000,-8.83417,-13.34025,0.00000,-10.94878,0.00000,-0.39706,0.02232,1.39977
with_tcp,START,0.38500,0.00000,-8.87659,-13.40964,0.00000,-10.98465,0.00000,-0.39882,0.02232,1.39905
with_tcp,START,0.38600,0.00000,-8.91902,-13.47921,0.00000,-11.02051,0.00000,-0.40059,0.02232,1.39833
with_tcp,START,0.38700,0.00000,-8.96145,-13.54896,0.00000,-11.05637,0.00000,-0.40235,0.02232,1.39760
with_tcp,START,0.38800,0.00000,-9.00387,-13.61889,0.00000,-11.09223,0.00000,-0.40412,0.02232,1.39687
with_tcp,START,0.38900,0.00000,-9.04630,-13.68900,0.00000,-11.12809,0.00000,-0.40589,0.02232,1.39614
with_tcp,START,0.39000,0.00000,-9.08873,-13.75929,0.00000,-11.16395,0.00000,-0.40765,0.02232,1.39540
with_tcp,START,0.39100,0.00000,-9.13115,-13.82976,0.00000,-11.19981,0.00000,-0.40942,0.02232,1.39466
with_tcp,START,0.39200,0.00000,-9.17358,-13.90041,0.00000,-11.23568,0.00000,-0.41119,0.02232,1.39391
with_tcp,START,0.39300,0.00000,-9.21600,-13.97124,0.00000,-11.27154,0.00000,-0.41296,0.02232,1.39316
with_tcp,START,0.39400,0.00000,-9.25843,-14.04225,0.00000,-11.30740,0.00000,-0.41473,0.02232,1.39241
with_tcp,START,0.39500,0.00000,-9.30086,-14.11344,0.00000,-11.34326,0.00000,-0.41650,0.02232,1.39165
with_tcp,START,0.39600,0.00000,-9.34328,-14.18481,0.00000,-11.37912,0.00000,-0.41827,0.02232,1.39088
with_tcp,START,0.39700,0.00000,-9.38571,-14.25636,0.00000,-11.41498,0.00000,-0.42004,0.02232,1.39012
with_tcp,START,0.39800,0.00000,-9.42814,-14.32809,0.00000,-11.45084,0.00000,-0.42181,0.02232,1.38935
with_tcp,START,0.39900,0.00000,-9.47056,-14.40000,0.00000,-11.48671,0.00000,-0.42358,0.02232,1.38857
with_tcp,START,0.40000,0.00000,-9.51299,-14.47209,0.00000,-11.52257,0.00000,-0.42535,0.02232,1.38779
with_tcp,START,0.40100,0.00000,-9.55542,-14.54436,0.00000,-11.55843,0.00000,-0.42712,0.02232,1.38701
with_tcp,START,0.40200,0.00000,-9.59784,-14.61681,0.00000,-11.59429,0.00000,-0.42889,0.02232,1.38622
with_tcp,START,0.40300,0.00000,-9.64027,-14.68944,0.00000,-11.63015,0.00000,-0.43067,0.02232,1.38543
with_tcp,START,0.40400,0.00000,-9.68269,-14.76225,0.00000,-11.66601,0.00000,-0.43244,0.02232,1.38463
with_tcp,START,0.40500,0.00000,-9.72512,-14.83524,0.00000,-11.70187,0.00000,-0.43421,0.02232,1.38383
with_tcp,START,0.40600,0.00000,-9.76755,-14.90841,0.00000,-11.73774,0.00000,-0.43598,0.02232,1.38303
with_tcp,START,0.40700,0.00000,-9.80997,-14.98176,0.00000,-11.77360,0.00000,-0.43776,0.02232,1.38222
with_tcp,START,0.40800,0.00000,-9.85240,-15.05529,0.00000,-11.80946,0.00000,-0.43953,0.02232,1.38140
with_tcp,START,0.40900,0.00000,-9.89483,-15.12900,0.00000,-11.84532,0.00000,-0.44130,0.02232,1.38059
with_tcp,START,0.41000,0.00000,-9.93725,-15.20289,0.00000,-11.88118,0.00000,-0.44308,0.02232,1.37976
with_tcp,START,0.41100,0.00000,-9.97968,-15.27696,0.00000,-11.91704,0.00000,-0.44485,0.02232,1.37894
with_tcp,START,0.41200,0.00000,-10.02211,-15.35121,0.00000,-11.95290,0.00000,-0.44663,0.02232,1.37811
with_tcp,START,0.41300,0.00000,-10.06453,-15.42564,0.00000,-11.98877,0.00000,-0.44840,0.02232,1.37727
with_tcp,START,0.41400,0.00000,-10.10696,-15.50025,0.00000,-12.02463,0.00000,-0.45018,0.02232,1.37644
with_tcp,START,0.41500,0.00000,-10.14939,-15.57504,0.00000,-12.06049,0.00000,-0.45195,0.02232,1.37559
with_tcp,START,0.41600,0.00000,-10.19181,-15.65001,0.00000,-12.09635,0.00000,-0.45373,0.02232,1.37475
with_tcp,START,0.41700,0.00000,-10.23424,-15.72516,0.00000,-12.13221,0.00000,-0.45550,0.02232,1.37389
with_tcp,START,0.41800,0.00000,-10.27666,-15.80049,0.00000,-12.16807,0.00000,-0.45728,0.02232,1.37304
with_tcp,START,0.41900,0.00000,-10.31909,-15.87600,0.00000,-12.20393,0.00000,-0.45905,0.02232,1.37218
with_tcp,START,0.42000,0.00000,-10.36152,-15.95169,0.00000,-12.23980,0.00000,-0.46083,0.02232,1.37131
with_tcp,START,0.42100,0.00000,-10.40394,-16.02756,0.00000,-12.27566,0.00000,-0.46260,0.02232,1.37044
with_tcp,START,0.42200,0.00000,-10.44637,-16.10361,0.00000,-12.31152,0.00000,-0.46438,0.02232,1.36957
with_tcp,START,0.42300,0.00000,-10.48880,-16.17984,0.00000,-12.34738,0.00000,-0.46615,0.02232,1.36869
with_tcp,START,0.42400,0.00000,-10.53122,-16.25625,0.00000,-12.38324,0.00000,-0.46793,0.02232,1.36781
with_tcp,START,0.42500,0.00000,-10.57365,-16.33284,0.00000,-12.41910,0.00000,-0.46970,0.02232,1.36692
with_tcp,START,0.42600,0.00000,-10.61608,-16.40961,0.00000,-12.45496,0.00000,-0.47148,0.02232,1.36603
with_tcp,START,0.42700,0.00000,-10.65850,-16.48656,0.00000,-12.49083,0.00000,-0.47325,0.02232,1.36514
with_tcp,START,0.42800,0.00000,-10.70093,-16.56369,0.00000,-12.52669,0.00000,-0.47503,0.02232,1.36424
with_tcp,START,0.42900,0.00000,-10.74335,-16.64100,0.00000,-12.56255,0.00000,-0.47681,0.02232,1.36333
with_tcp,START,0.43000,0.00000,-10.78578,-16.71849,0.00000,-12.59841,0.00000,-0.47858,0.02232,1.36243
with_tcp,START,0.43100,0.00000,-10.82821,-16.79616,0.00000,-12.63427,0.00000,-0.48036,0.02232,1.36151
with_tcp,START,0.43200,0.00000,-10.87063,-16.87401,0.00000,-12.67013,0.00000,-0.48213,0.02232,1.36060
with_tcp,START,0.43300,0.00000,-10.91306,-16.95204,0.00000,-12.70599,0.00000,-0.48391,0.02232,1.35967
with_tcp,START,0.43400,0.00000,-10.95549,-17.03025,0.00000,-12.74186,0.00000,-0.48568,0.02232,1.35875
with_tcp,START,0.43500,0.00000,-10.99791,-17.10864,0.00000,-12.77772,0.00000,-0.48746,0.02232,1.35782
with_tcp,START,0.43600,0.00000,-11.04034,-17.18721,0.00000,-12.81358,0.00000,-0.48923,0.02232,1.35688
with_tcp,START,0.43700,0.00000,-11.08277,-17.26596,0.00000,-12.84944,0.00000,-0.49100,0.02232,1.35594
with_tcp,START,0.43800,0.00000,-11.12519,-17.34489,0.00000,-12.88530,0.00000,-0.49278,0.02232,1.35500
with_tcp,START,0.43900,0.00000,-11.16762,-17.42400,0.00000,-12.92116,0.00000,-0.49455,0.02232,1.35405
with_tcp,START,0.44000,0.00000,-11.21005,-17.50329,0.00000,-12.95702,0.00000,-0.49633,0.02232,1.35310
with_tcp,START,0.44100,0.00000,-11.25247,-17.58276,0.00000,-12.99289,0.00000,-0.49810,0.02232,1.35214
with_tcp,START,0.44200,0.00000,-11.29490,-17.66241,0.00000,-13.02875,0.00000,-0.49987,0.02232,1.35118
with_tcp,START,0.44300,0.00000,-11.33732,-17.74224,0.00000,-13.06461,0.00000,-0.50165,0.02232,1.35021
with_tcp,START,0.44400,0.00000,-11.37975,-17.82225,0.00000,-13.10047,0.00000,-0.50342,0.02232,1.34924
with_tcp,START,0.44500,0.00000,-11.42218,-17.90244,0.00000,-13.13633,0.00000,-0.50519,0.02232,1.34826
with_tcp,START,0.44600,0.00000,-11.46460,-17.98281,0.00000,-13.17219,0.00000,-0.50696,0.02232,1.34728
with_tcp,START,0.44700,0.00000,-11.50703,-18.06336,0.00000,-13.20806,0.00000,-0.50874,0.02232,1.34630
with_tcp,START,0.44800,0.00000,-11.54946,-18.14409,0.00000,-13.24392,0.00000,-0.51051,0.02232,1.34531
with_tcp,START,0.44900,0.00000,-11.59188,-18.22500,0.00000,-13.27978,0.00000,-0.51228,0.02232,1.34432
with_tcp,START,0.45000,0.00000,-11.63431,-18.30609,0.00000,-13.31564,0.00000,-0.51405,0.02232,1.34332
with_tcp,START,0.45100,0.00000,-11.67674,-18.38736,0.00000,-13.35150,0.00000,-0.51582,0.02232,1.34232
with_tcp,START,0.45200,0.00000,-11.71916,-18.46881,0.00000,-13.38736,0.00000,-0.51759,0.02232,1.34131
with_tcp,START,0.45300,0.00000,-11.76159,-18.55044,0.00000,-13.42322,0.00000,-0.51936,0.02232,1.34030
with_tcp,START,0.45400,0.00000,-11.80402,-18.63225,0.00000,-13.45909,0.00000,-0.52113,0.02232,1.33928
with_tcp,START,0.45500,0.00000,-11.84644,-18.71424,0.00000,-13.49495,0.00000,-0.52290,0.02232,1.33826
with_tcp,START,0.45600,0.00000,-11.88887,-18.79641,0.00000,-13.53081,0.00000,-0.52467,0.02232,1.33723
with_tcp,START,0.45700,0.00000,-11.93129,-18.87876,0.00000,-13.56667,0.00000,-0.52643,0.02232,1.33620
with_tcp,START,0.45800,0.00000,-11.97372,-18.96129,0.00000,-13.60253,0.00000,-0.52820,0.02232,1.33517
with_tcp,START,0.45900,0.00000,-12.01615,-19.04400,0.00000,-13.63839,0.00000,-0.52997,0.02232,1.33413
with_tcp,START,0.46000,0.00000,-12.05857,-19.12689,0.00000,-13.67425,0.00000,-0.53173,0.02232,1.33308
with_tcp,START,0.46100,0.00000,-12.10100,-19.20996,0.00000,-13.71012,0.00000,-0.53350,0.02232,1.33203
with_tcp,START,0.46200,0.00000,-12.14343,-19.29321,0.00000,-13.74598,0.00000,-0.53527,0.02232,1.33098
with_tcp,START,0.46300,0.00000,-12.18585,-19.37664,0.00000,-13.78184,0.00000,-0.53703,0.02232,1.32992
with_tcp,START,0.46400,0.00000,-12.22828,-19.46025,0.00000,-13.81770,0.00000,-0.53879,0.02232,1.32886
with_tcp,START,0.46500,0.00000,-12.27071,-19.54404,0.00000,-13.85356,0.00000,-0.54056,0.02232,1.32779
with_tcp,START,0.46600,0.00000,-12.31313,-19.62801,0.00000,-13.88942,0.00000,-0.54232,0.02232,1.32672
with_tcp,START,0.46700,0.00000,-12.35556,-19.71216,0.00000,-13.92528,0.00000,-0.54408,0.02232,1.32564
with_tcp,START,0.46800,0.00000,-12.39798,-19.79649,0.00000,-13.96115,0.00000,-0.54584,0.02232,1.32456
with_tcp,START,0.46900,0.00000,-12.44041,-19.88100,0.00000,-13.99701,0.00000,-0.54760,0.02232,1.32347
with_tcp,START,0.47000,0.00000,-12.48284,-19.96569,0.00000,-14.03287,0.00000,-0.54936,0.02232,1.32238
with_tcp,START,0.47100,0.00000,-12.52526,-20.05056,0.00000,-14.06873,0.00000,-0.55112,0.02232,1.32128
with_tcp,START,0.47200,0.00000,-12.56769,-20.13561,0.00000,-14.10459,0.00000,-0.55288,0.02232,1.32018
with_tcp,START,0.47300,0.00000,-12.61012,-20.22084,0.00000,-14.14045,0.00000,-0.55464,0.02232,1.31908
with_tcp,START,0.47400,0.00000,-12.65254,-20.30625,0.00000,-14.17631,0.00000,-0.55640,0.02232,1.31797
with_tcp,START,0.47500,0.00000,-12.69497,-20.39184,0.00000,-14.21218,0.00000,-0.55815,0.02232,1.31685
with_tcp,START,0.47600,0.00000,-12.73740,-20.47761,0.00000,-14.24804,0.00000,-0.55991,0.02232,1.31573
with_tcp,START,0.47700,0.00000,-12.77982,-20.56356,0.00000,-14.28390,0.00000,-0.56166,0.02232,1.31461
with_tcp,START,0.47800,0.00000,-12.82225,-20.64969,0.00000,-14.31976,0.00000,-0.56342,0.02232,1.31348
with_tcp,START,0.47900,0.00000,-12.86468,-20.73600,0.00000,-14.35562,0.00000,-0.56517,0.02232,1.31235
with_tcp,START,0.48000,0.00000,-12.90710,-20.82249,0.00000,-14.39148,0.00000,-0.56692,0.02232,1.31121
with_tcp,START,0.48100,0.00000,-12.94953,-20.90916,0.00000,-14.42734,0.00000,-0.56867,0.02232,1.31006
with_tcp,START,0.48200,0.00000,-12.99195,-20.99601,0.00000,-14.46321,0.00000,-0.57042,0.02232,1.30891
with_tcp,START,0.48300,0.00000,-13.03438,-21.08304,0.00000,-14.49907,0.00000,-0.57217,0.02232,1.30776
with_tcp,START,0.48400,0.00000,-13.07681,-21.17025,0.00000,-14.53493,0.00000,-0.57392,0.02232,1.30660
with_tcp,START,0.48500,0.00000,-13.11923,-21.25764,0.00000,-14.57079,0.00000,-0.57567,0.02232,1.30544
with_tcp,START,0.48600,0.00000,-13.16166,-21.34521,0.00000,-14.60665,0.00000,-0.57742,0.02232,1.30427
with_tcp,START,0.48700,0.00000,-13.20409,-21.43296,0.00000,-14.64251,0.00000,-0.57916,0.02232,1.30310
with_tcp,START,0.48800,0.00000,-13.24651,-21.52089,0.00000,-14.67837,0.00000,-0.58091,0.02232,1.30192
with_tcp,START,0.48900,0.00000,-13.28894,-21.60900,0.00000,-14.71424,0.00000,-0.58265,0.02232,1.30074
with_tcp,START,0.49000,0.00000,-13.33137,-21.69729,0.00000,-14.75010,0.00000,-0.58439,0.02232,1.29956
with_tcp,START,0.49100,0.00000,-13.37379,-21.78576,0.00000,-14.78596,0.00000,-0.58613,0.02232,1.29836
with_tcp,START,0.49200,0.00000,-13.41622,-21.87441,0.00000,-14.82182,0.00000,-0.58787,0.02232,1.29717
with_tcp,START,0.49300,0.00000,-13.45864,-21.96324,0.00000,-14.85768,0.00000,-0.58961,0.02232,1.29597
with_tcp,START,0.49400,0.00000,-13.50107,-22.05225,0.00000,-14.89354,0.00000,-0.59135,0.02232,1.29476
with_tcp,START,0.49500,0.00000,-13.54350,-22.14144,0.00000,-14.92940,0.00000,-0.59309,0.02232,1.29355
with_tcp,START,0.49600,0.00000,-13.58592,-22.23081,0.00000,-14.96527,0.00000,-0.59483,0.02232,1.29233
with_tcp,START,0.49700,0.00000,-13.62835,-22.32036,0.00000,-15.00113,0.00000,-0.59656,0.02232,1.29111
with_tcp,START,0.49800,0.00000,-13.67078,-22.41009,0.00000,-15.03699,0.00000,-0.59829,0.02232,1.28989
with_tcp,START,0.49900,0.00000,-13.71320,-22.50000,0.00000,-15.07285,0.00000,-0.60003,0.02232,1.28866
with_tcp,START,0.50000,0.00000,-13.75563,-22.59009,0.00000,-15.10871,0.00000,-0.60176,0.02232,1.28742
with_tcp,START,0.50100,0.00000,-13.79806,-22.68036,0.00000,-15.14457,0.00000,-0.60349,0.02232,1.28618
with_tcp,START,0.50200,0.00000,-13.84048,-22.77081,0.00000,-15.18043,0.00000,-0.60522,0.02232,1.28494
with_tcp,START,0.50300,0.00000,-13.88291,-22.86144,0.00000,-15.21630,0.00000,-0.60694,0.02232,1.28369
with_tcp,START,0.50400,0.00000,-13.92534,-22.95225,0.00000,-15.25216,0.00000,-0.60867,0.02232,1.28243
with_tcp,START,0.50500,0.00000,-13.96776,-23.04324,0.00000,-15.28802,0.00000,-0.61039,0.02232,1.28117
with_tcp,START,0.50600,0.00000,-14.01019,-23.13441,0.00000,-15.32388,0.00000,-0.61212,0.02232,1.27991
with_tcp,START,0.50700,0.00000,-14.05261,-23.22576,0.00000,-15.35974,0.00000,-0.61384,0.02232,1.27864
with_tcp,START,0.50800,0.00000,-14.09504,-23.31729,0.00000,-15.39560,0.00000,-0.61556,0.02232,1.27736
with_tcp,START,0.50900,0.00000,-14.13747,-23.40900,0.00000,-15.43146,0.00000,-0.61728,0.02232,1.27608
with_tcp,START,0.51000,0.00000,-14.17989,-23.50089,0.00000,-15.46733,0.00000,-0.61900,0.02232,1.27480
with_tcp,START,0.51100,0.00000,-14.22232,-23.59296,0.00000,-15.50319,0.00000,-0.62071,0.02232,1.27351
with_tcp,START,0.51200,0.00000,-14.26475,-23.68521,0.00000,-15.53905,0.00000,-0.62243,0.02232,1.27222
with_tcp,START,0.51300,0.00000,-14.30717,-23.77764,0.00000,-15.57491,0.00000,-0.62414,0.02232,1.27092
with_tcp,START,0.51400,0.00000,-14.34960,-23.87025,0.00000,-15.61077,0.00000,-0.62585,0.02232,1.26961
with_tcp,START,0.51500,0.00000,-14.39203,-23.96304,0.00000,-15.64663,0.00000,-0.62756,0.02232,1.26831
with_tcp,START,0.51600,0.00000,-14.43445,-24.05601,0.00000,-15.68250,0.00000,-0.62927,0.02232,1.26699
with_tcp,START,0.51700,0.00000,-14.47688,-24.14916,0.00000,-15.71836,0.00000,-0.63098,0.02232,1.26567
with_tcp,START,0.51800,0.00000,-14.51931,-24.24249,0.00000,-15.75422,0.00000,-0.63268,0.02232,1.26435
with_tcp,START,0.51900,0.00000,-14.56173,-24.33600,0.00000,-15.79008,0.00000,-0.63439,0.02232,1.26302
with_tcp,START,0.52000,0.00000,-14.60416,-24.42969,0.00000,-15.82594,0.00000,-0.63609,0.02232,1.26169
with_tcp,START,0.52100,0.00000,-14.64658,-24.52356,0.00000,-15.86180,0.00000,-0.63779,0.02232,1.26035
with_tcp,START,0.52200,0.00000,-14.68901,-24.61761,0.00000,-15.89766,0.00000,-0.63949,0.02232,1.25900
with_tcp,START,0.52300,0.00000,-14.73144,-24.71184,0.00000,-15.93353,0.00000,-0.64119,0.02232,1.25766
with_tcp,START,0.52400,0.00000,-14.77386,-24.80625,0.00000,-15.96939,0.00000,-0.64289,0.02232,1.25630
with_tcp,START,0.52500,0.00000,-14.81629,-24.90084,0.00000,-16.00525,0.00000,-0.64458,0.02232,1.25494
with_tcp,START,0.52600,0.00000,-14.85872,-24.99561,0.00000,-16.04111,0.00000,-0.64627,0.02232,1.25358
with_tcp,START,0.52700,0.00000,-14.90114,-25.09056,0.00000,-16.07697,0.00000,-0.64796,0.02232,1.25221
with_tcp,START,0.52800,0.00000,-14.94357,-25.18569,0.00000,-16.11283,0.00000,-0.64965,0.02232,1.25084
with_tcp,START,0.52900,0.00000,-14.98600,-25.28100,0.00000,-16.14869,0.00000,-0.65134,0.02232,1.24946
with_tcp,START,0.53000,0.00000,-15.02842,-25.37649,0.00000,-16.18456,0.00000,-0.65302,0.02232,1.24808
with_tcp,START,0.53100,0.00000,-15.07085,-25.47216,0.00000,-16.22042,0.00000,-0.65471,0.02232,1.24669
with_tcp,START,0.53200,0.00000,-15.11327,-25.56801,0.00000,-16.25628,0.00000,-0.65639,0.02232,1.24529
with_tcp,START,0.53300,0.00000,-15.15570,-25.66404,0.00000,-16.29214,0.00000,-0.65807,0.02232,1.24389
with_tcp,START,0.53400,0.00000,-15.19813,-25.76025,0.00000,-16.32800,0.00000,-0.65975,0.02232,1.24249
with_tcp,START,0.53500,0.00000,-15.24055,-25.85664,0.00000,-16.36386,0.00000,-0.66142,0.02232,1.24108
with_tcp,START,0.53600,0.00000,-15.28298,-25.95321,0.00000,-16.39972,0.00000,-0.66310,0.02232,1.23967
with_tcp,START,0.53700,0.00000,-15.32541,-26.04996,0.00000,-16.43559,0.00000,-0.66477,0.02232,1.23825
with_tcp,START,0.53800,0.00000,-15.36783,-26.14689,0.00000,-16.47145,0.00000,-0.66644,0.02232,1.23683
with_tcp,START,0.53900,0.00000,-15.41026,-26.24400,0.00000,-16.50731,0.00000,-0.66811,0.02232,1.23540
with_tcp,START,0.54000,0.00000,-15.45269,-26.34129,0.00000,-16.54317,0.00000,-0.66977,0.02232,1.23396
with_tcp,START,0.54100,0.00000,-15.49511,-26.43876,0.00000,-16.57903,0.00000,-0.67144,0.02232,1.23253
with_tcp,START,0.54200,0.00000,-15.53754,-26.53641,0.00000,-16.61489,0.00000,-0.67310,0.02232,1.23108
with_tcp,START,0.54300,0.00000,-15.57997,-26.63424,0.00000,-16.65075,0.00000,-0.67476,0.02232,1.22963
with_tcp,START,0.54400,0.00000,-15.62239,-26.73225,0.00000,-16.68662,0.00000,-0.67642,0.02232,1.22818
with_tcp,START,0.54500,0.00000,-15.66482,-26.83044,0.00000,-16.72248,0.00000,-0.67807,0.02232,1.22672
with_tcp,START,0.54600,0.00000,-15.70724,-26.92881,0.00000,-16.75834,0.00000,-0.67973,0.02232,1.22526
with_tcp,START,0.54700,0.00000,-15.74967,-27.02736,0.00000,-16.79420,0.00000,-0.68138,0.02232,1.22379
with_tcp,START,0.54800,0.00000,-15.79210,-27.12609,0.00000,-16.83006,0.00000,-0.68303,0.02232,1.22231
with_tcp,START,0.54900,0.00000,-15.83452,-27.22500,0.00000,-16.86592,0.00000,-0.68468,0.02232,1.22083
with_tcp,START,0.55000,0.00000,-15.87695,-27.32409,0.00000,-16.90178,0.00000,-0.68632,0.02232,1.21935
with_tcp,START,0.55100,0.00000,-15.91938,-27.42336,0.00000,-16.93765,0.00000,-0.68796,0.02232,1.21786
with_tcp,START,0.55200,0.00000,-15.96180,-27.52281,0.00000,-16.97351,0.00000,-0.68960,0.02232,1.21637
with_tcp,START,0.55300,0.00000,-16.00423,-27.62244,0.00000,-17.00937,0.00000,-0.69124,0.02232,1.21487
with_tcp,START,0.55400,0.00000,-16.04666,-27.72225,0.00000,-17.04523,0.00000,-0.69288,0.02232,1.21336
with_tcp,START,0.55500,0.00000,-16.08908,-27.82224,0.00000,-17.08109,0.00000,-0.69451,0.02232,1.21186
with_tcp,START,0.55600,0.00000,-16.13151,-27.92241,0.00000,-17.11695,0.00000,-0.69614,0.02232,1.21034
with_tcp,START,0.55700,0.00000,-16.17394,-28.02276,0.00000,-17.15281,0.00000,-0.69777,0.02232,1.20882
with_tcp,START,0.55800,0.00000,-16.21636,-28.12329,0.00000,-17.18868,0.00000,-0.69940,0.02232,1.20730
with_tcp,START,0.55900,0.00000,-16.25879,-28.22400,0.00000,-17.22454,0.00000,-0.70102,0.02232,1.20577
with_tcp,START,0.56000,0.00000,-16.30121,-28.32489,0.00000,-17.26040,0.00000,-0.70264,0.02232,1.20423
with_tcp,START,0.56100,0.00000,-16.34364,-28.42596,0.00000,-17.29626,0.00000,-0.70426,0.02232,1.20269
with_tcp,START,0.56200,0.00000,-16.38607,-28.52721,0.00000,-17.33212,0.00000,-0.70588,0.02232,1.20115
with_tcp,START,0.56300,0.00000,-16.42849,-28.62864,0.00000,-17.36798,0.00000,-0.70749,0.02232,1.19960
with_tcp,START,0.56400,0.00000,-16.47092,-28.73025,0.00000,-17.40384,0.00000,-0.70911,0.02232,1.19804
with_tcp,START,0.56500,0.00000,-16.51335,-28.83204,0.00000,-17.43971,0.00000,-0.71072,0.02232,1.19648
with_tcp,START,0.56600,0.00000,-16.55577,-28.93401,0.00000,-17.47557,0.00000,-0.71232,0.02232,1.19492
with_tcp,START,0.56700,0.00000,-16.59820,-29.03616,0.00000,-17.51143,0.00000,-0.71393,0.02232,1.19335
with_tcp,START,0.56800,0.00000,-16.64063,-29.13849,0.00000,-17.54729,0.00000,-0.71553,0.02232,1.19178
with_tcp,START,0.56900,0.00000,-16.68305,-29.24100,0.00000,-17.58315,0.00000,-0.71713,0.02232,1.19019
with_tcp,START,0.57000,0.00000,-16.72548,-29.34369,0.00000,-17.61901,0.00000,-0.71872,0.02232,1.18861
with_tcp,START,0.57100,0.00000,-16.76790,-29.44656,0.00000,-17.65487,0.00000,-0.72032,0.02232,1.18702
with_tcp,START,0.57200,0.00000,-16.81033,-29.54961,0.00000,-17.69074,0.00000,-0.72191,0.02232,1.18542
with_tcp,START,0.57300,0.00000,-16.85276,-29.65284,0.00000,-17.72660,0.00000,-0.72350,0.02232,1.18382
with_tcp,START,0.57400,0.00000,-16.89518,-29.75625,0.00000,-17.76246,0.00000,-0.72508,0.02232,1.18222
with_tcp,START,0.57500,0.00000,-16.93761,-29.85984,0.00000,-17.79832,0.00000,-0.72666,0.02232,1.18061
with_tcp,START,0.57600,0.00000,-16.98004,-29.96361,0.00000,-17.83418,0.00000,-0.72824,0.02232,1.17899
with_tcp,START,0.57700,0.00000,-17.02246,-30.06756,0.00000,-17.87004,0.00000,-0.72982,0.02232,1.17737
with_tcp,START,0.57800,0.00000,-17.06489,-30.17169,0.00000,-17.90591,0.00000,-0.73139,0.02232,1.17575
with_tcp,START,0.57900,0.00000,-17.10732,-30.27600,0.00000,-17.94177,0.00000,-0.73297,0.02232,1.17412
with_tcp,START,0.58000,0.00000,-17.14974,-30.38049,0.00000,-17.97763,0.00000,-0.73453,0.02232,1.17248
with_tcp,START,0.58100,0.00000,-17.19217,-30.48516,0.00000,-18.01349,0.00000,-0.73610,0.02232,1.17084
with_tcp,START,0.58200,0.00000,-17.23460,-30.59001,0.00000,-18.04935,0.00000,-0.73766,0.02232,1.16919
with_tcp,START,0.58300,0.00000,-17.27702,-30.69504,0.00000,-18.08521,0.00000,-0.73922,0.02232,1.16754
with_tcp,START,0.58400,0.00000,-17.31945,-30.80025,0.00000,-18.12107,0.00000,-0.74078,0.02232,1.16589
with_tcp,START,0.58500,0.00000,-17.36187,-30.90564,0.00000,-18.15694,0.00000,-0.74233,0.02232,1.16423
with_tcp,START,0.58600,0.00000,-17.40430,-31.01121,0.00000,-18.19280,0.00000,-0.74388,0.02232,1.16256
with_tcp,START,0.58700,0.00000,-17.44673,-31.11696,0.00000,-18.22866,0.00000,-0.74543,0.02232,1.16089
with_tcp,START,0.58800,0.00000,-17.48915,-31.22289,0.00000,-18.26452,0.00000,-0.74698,0.02232,1.15921
with_tcp,START,0.58900,0.00000,-17.53158,-31.32900,0.00000,-18.30038,0.00000,-0.74852,0.02232,1.15753
with_tcp,START,0.59000,0.00000,-17.57401,-31.43529,0.00000,-18.33624,0.00000,-0.75006,0.02232,1.15585
with_tcp,START,0.59100,0.00000,-17.61643,-31.54176,0.00000,-18.37210,0.00000,-0.75159,0.02232,1.15416
with_tcp,START,0.59200,0.00000,-17.65886,-31.64841,0.00000,-18.40797,0.00000,-0.75312,0.02232,1.15246
with_tcp,START,0.59300,0.00000,-17.70129,-31.75524,0.00000,-18.44383,0.00000,-0.75465,0.02232,1.15076
with_tcp,START,0.59400,0.00000,-17.74371,-31.86225,0.00000,-18.47969,0.00000,-0.75618,0.02232,1.14905
with_tcp,START,0.59500,0.00000,-17.78614,-31.96944,0.00000,-18.51555,0.00000,-0.75770,0.02232,1.14734
with_tcp,START,0.59600,0.00000,-17.82856,-32.07681,0.00000,-18.55141,0.00000,-0.75922,0.02232,1.14562
with_tcp,START,0.59700,0.00000,-17.87099,-32.18436,0.00000,-18.58727,0.00000,-0.76074,0.02232,1.14390
with_tcp,START,0.59800,0.00000,-17.91342,-32.29209,0.00000,-18.62313,0.00000,-0.76225,0.02232,1.14218
with_tcp,START,0.59900,0.00000,-17.95584,-32.40000,0.00000,-18.65900,0.00000,-0.76376,0.02232,1.14045
with_tcp,START,0.60000,0.00000,-17.99827,-32.50809,0.00000,-18.69486,0.00000,-0.76527,0.02232,1.13871
with_tcp,START,0.60100,0.00000,-18.04070,-32.61636,0.00000,-18.73072,0.00000,-0.76677,0.02232,1.13697
with_tcp,START,0.60200,0.00000,-18.08312,-32.72481,0.00000,-18.76658,0.00000,-0.76827,0.02232,1.13522
with_tcp,START,0.60300,0.00000,-18.12555,-32.83344,0.00000,-18.80244,0.00000,-0.76976,0.02232,1.13347
with_tcp,START,0.60400,0.00000,-18.16798,-32.94225,0.00000,-18.83830,0.00000,-0.77126,0.02232,1.13171
with_tcp,START,0.60500,0.00000,-18.21040,-33.05124,0.00000,-18.87416,0.00000,-0.77275,0.02232,1.12995
with_tcp,START,0.60600,0.00000,-18.25283,-33.16041,0.00000,-18.91003,0.00000,-0.77423,0.02232,1.12819
with_tcp,START,0.60700,0.00000,-18.29526,-33.26976,0.00000,-18.94589,0.00000,-0.77572,0.02232,1.12641
with_tcp,START,0.60800,0.00000,-18.33768,-33.37929,0.00000,-18.98175,0.00000,-0.77719,0.02232,1.12464
with_tcp,START,0.60900,0.00000,-18.38011,-33.48900,0.00000,-19.01761,0.00000,-0.77867,0.02232,1.12286
with_tcp,START,0.61000,0.00000,-18.42253,-33.59889,0.00000,-19.05347,0.00000,-0.78014,0.02232,1.12107
with_tcp,START,0.61100,0.00000,-18.46496,-33.70896,0.00000,-19.08933,0.00000,-0.78161,0.02232,1.11928
with_tcp,START,0.61200,0.00000,-18.50739,-33.81921,0.00000,-19.12519,0.00000,-0.78307,0.02232,1.11748
with_tcp,START,0.61300,0.00000,-18.54981,-33.92964,0.00000,-19.16106,0.00000,-0.78454,0.02232,1.11568
with_tcp,START,0.61400,0.00000,-18.59224,-34.04025,0.00000,-19.19692,0.00000,-0.78599,0.02232,1.11387
with_tcp,START,0.61500,0.00000,-18.63467,-34.15104,0.00000,-19.23278,0.00000,-0.78745,0.02232,1.11206
with_tcp,START,0.61600,0.00000,-18.67709,-34.26201,0.00000,-19.26864,0.00000,-0.78890,0.02232,1.11025
with_tcp,START,0.61700,0.00000,-18.71952,-34.37316,0.00000,-19.30450,0.00000,-0.79034,0.02232,1.10842
with_tcp,START,0.61800,0.00000,-18.76195,-34.48449,0.00000,-19.34036,0.00000,-0.79179,0.02232,1.10660
with_tcp,START,0.61900,0.00000,-18.80437,-34.59600,0.00000,-19.37622,0.00000,-0.79322,0.02232,1.10477
with_tcp,START,0.62000,0.00000,-18.84680,-34.70769,0.00000,-19.41209,0.00000,-0.79466,0.02232,1.10293
with_tcp,START,0.62100,0.00000,-18.88923,-34.81956,0.00000,-19.44795,0.00000,-0.79609,0.02232,1.10109
with_tcp,START,0.62200,0.00000,-18.93165,-34.93161,0.00000,-19.48381,0.00000,-0.79752,0.02232,1.09924
with_tcp,START,0.62300,0.00000,-18.97408,-35.04384,0.00000,-19.51967,0.00000,-0.79894,0.02232,1.09739
with_tcp,START,0.62400,0.00000,-19.01650,-35.15625,0.00000,-19.55553,0.00000,-0.80036,0.02232,1.09554
with_tcp,START,0.62500,0.00000,-19.05893,-35.26884,0.00000,-19.59139,0.00000,-0.80178,0.02232,1.09368
with_tcp,START,0.62600,0.00000,-19.10136,-35.38161,0.00000,-19.62725,0.00000,-0.80319,0.02232,1.09181
with_tcp,START,0.62700,0.00000,-19.14378,-35.49456,0.00000,-19.66312,0.00000,-0.80460,0.02232,1.08994
with_tcp,START,0.62800,0.00000,-19.18621,-35.60769,0.00000,-19.69898,0.00000,-0.80600,0.02232,1.08806
with_tcp,START,0.62900,0.00000,-19.22864,-35.72100,0.00000,-19.73484,0.00000,-0.80740,0.02232,1.08618
with_tcp,START,0.63000,0.00000,-19.27106,-35.83449,0.00000,-19.77070,0.00000,-0.80879,0.02232,1.08430
with_tcp,START,0.63100,0.00000,-19.31349,-35.94816,0.00000,-19.80656,0.00000,-0.81019,0.02232,1.08241
with_tcp,START,0.63200,0.00000,-19.35592,-36.06201,0.00000,-19.84242,0.00000,-0.81157,0.02232,1.08051
with_tcp,START,0.63300,0.00000,-19.39834,-36.17604,0.00000,-19.87828,0.00000,-0.81296,0.02232,1.07861
with_tcp,START,0.63400,0.00000,-19.44077,-36.29025,0.00000,-19.91415,0.00000,-0.81434,0.02232,1.07671
with_tcp,START,0.63500,0.00000,-19.48319,-36.40464,0.00000,-19.95001,0.00000,-0.81571,0.02232,1.07480
with_tcp,START,0.63600,0.00000,-19.52562,-36.51921,0.00000,-19.98587,0.00000,-0.81708,0.02232,1.07288
with_tcp,START,0.63700,0.00000,-19.56805,-36.63396,0.00000,-20.02173,0.00000,-0.81845,0.02232,1.07097
with_tcp,START,0.63800,0.00000,-19.61047,-36.74889,0.00000,-20.05759,0.00000,-0.81981,0.02232,1.06904
with_tcp,START,0.63900,0.00000,-19.65290,-36.86400,0.00000,-20.09345,0.00000,-0.82117,0.02232,1.06711
with_tcp,START,0.64000,0.00000,-19.69533,-36.97929,0.00000,-20.12931,0.00000,-0.82252,0.02232,1.06518
with_tcp,START,0.64100,0.00000,-19.73775,-37.09476,0.00000,-20.16518,0.00000,-0.82387,0.02232,1.06324
with_tcp,START,0.64200,0.00000,-19.78018,-37.21041,0.00000,-20.20104,0.00000,-0.82522,0.02232,1.06130
with_tcp,START,0.64300,0.00000,-19.82261,-37.32624,0.00000,-20.23690,0.00000,-0.82656,0.02232,1.05935
with_tcp,START,0.64400,0.00000,-19.86503,-37.44225,0.00000,-20.27276,0.00000,-0.82790,0.02232,1.05739
with_tcp,START,0.64500,0.00000,-19.90746,-37.55844,0.00000,-20.30862,0.00000,-0.82923,0.02232,1.05544
with_tcp,START,0.64600,0.00000,-19.94989,-37.67481,0.00000,-20.34448,0.00000,-0.83056,0.02232,1.05347
with_tcp,START,0.64700,0.00000,-19.99231,-37.79136,0.00000,-20.38035,0.00000,-0.83188,0.02232,1.05151
with_tcp,START,0.64800,0.00000,-20.03474,-37.90809,0.00000,-20.41621,0.00000,-0.83320,0.02232,1.04953
with_tcp,START,0.64900,0.00000,-20.07716,-38.02500,0.00000,-20.45207,0.00000,-0.83451,0.02232,1.04756
with_tcp,START,0.65000,0.00000,-20.11959,-38.14209,0.00000,-20.48793,0.00000,-0.83582,0.02232,1.04557
with_tcp,START,0.65100,0.00000,-20.16202,-38.25936,0.00000,-20.52379,0.00000,-0.83713,0.02232,1.04359
with_tcp,START,0.65200,0.00000,-20.20444,-38.37681,0.00000,-20.55965,0.00000,-0.83843,0.02232,1.04160
with_tcp,START,0.65300,0.00000,-20.24687,-38.49444,0.00000,-20.59551,0.00000,-0.83973,0.02232,1.03960
with_tcp,START,0.65400,0.00000,-20.28930,-38.61225,0.00000,-20.63138,0.00000,-0.84102,0.02232,1.03760
with_tcp,START,0.65500,0.00000,-20.33172,-38.73024,0.00000,-20.66724,0.00000,-0.84231,0.02232,1.03559
with_tcp,START,0.65600,0.00000,-20.37415,-38.84841,0.00000,-20.70310,0.00000,-0.84359,0.02232,1.03358
with_tcp,START,0.65700,0.00000,-20.41658,-38.96676,0.00000,-20.73896,0.00000,-0.84487,0.02232,1.03157
with_tcp,START,0.65800,0.00000,-20.45900,-39.08529,0.00000,-20.77482,0.00000,-0.84614,0.02232,1.02955
with_tcp,START,0.65900,0.00000,-20.50143,-39.20400,0.00000,-20.81068,0.00000,-0.84741,0.02232,1.02752
with_tcp,START,0.66000,0.00000,-20.54385,-39.32289,0.00000,-20.84654,0.00000,-0.84867,0.02232,1.02550
with_tcp,START,0.66100,0.00000,-20.58628,-39.44196,0.00000,-20.88241,0.00000,-0.84993,0.02232,1.02346
with_tcp,START,0.66200,0.00000,-20.62871,-39.56121,0.00000,-20.91827,0.00000,-0.85118,0.02232,1.02142
with_tcp,START,0.66300,0.00000,-20.67113,-39.68064,0.00000,-20.95413,0.00000,-0.85243,0.02232,1.01938
with_tcp,START,0.66400,0.00000,-20.71356,-39.80025,0.00000,-20.98999,0.00000,-0.85368,0.02232,1.01733
with_tcp,START,0.66500,0.00000,-20.75599,-39.92004,0.00000,-21.02585,0.00000,-0.85492,0.02232,1.01528
with_tcp,START,0.66600,0.00000,-20.79841,-40.04001,0.00000,-21.06171,0.00000,-0.85615,0.02232,1.01322
with_tcp,START,0.66700,0.00000,-20.84084,-40.16016,0.00000,-21.09757,0.00000,-0.85738,0.02232,1.01116
with_tcp,START,0.66800,0.00000,-20.88327,-40.28049,0.00000,-21.13344,0.00000,-0.85860,0.02232,1.00910
with_tcp,START,0.66900,0.00000,-20.92569,-40.40100,0.00000,-21.16930,0.00000,-0.85982,0.02232,1.00703
with_tcp,START,0.67000,0.00000,-20.96812,-40.52169,0.00000,-21.20516,0.00000,-0.86104,0.02232,1.00495
with_tcp,START,0.67100,0.00000,-21.01055,-40.64256,0.00000,-21.24102,0.00000,-0.86225,0.02232,1.00287
with_tcp,START,0.67200,0.00000,-21.05297,-40.76361,0.00000,-21.27688,0.00000,-0.86345,0.02232,1.00079
with_tcp,START,0.67300,0.00000,-21.09540,-40.88484,0.00000,-21.31274,0.00000,-0.86465,0.02232,0.99870
with_tcp,START,0.67400,0.00000,-21.13782,-41.00625,0.00000,-21.34860,0.00000,-0.86585,0.02232,0.99660
with_tcp,START,0.67500,0.00000,-21.18025,-41.12784,0.00000,-21.38447,0.00000,-0.86703,0.02232,0.99451
with_tcp,START,0.67600,0.00000,-21.22268,-41.24961,0.00000,-21.42033,0.00000,-0.86822,0.02232,0.99240
with_tcp,START,0.67700,0.00000,-21.26510,-41.37156,0.00000,-21.45619,0.00000,-0.86940,0.02232,0.99030
with_tcp,START,0.67800,0.00000,-21.30753,-41.49369,0.00000,-21.49205,0.00000,-0.87057,0.02232,0.98818
with_tcp,START,0.67900,0.00000,-21.34996,-41.61600,0.00000,-21.52791,0.00000,-0.87174,0.02232,0.98607
with_tcp,START,0.68000,0.00000,-21.39238,-41.73849,0.00000,-21.56377,0.00000,-0.87290,0.02232,0.98395
with_tcp,START,0.68100,0.00000,-21.43481,-41.86116,0.00000,-21.59963,0.00000,-0.87406,0.02232,0.98182
with_tcp,START,0.68200,0.00000,-21.47724,-41.98401,0.00000,-21.63550,0.00000,-0.87521,0.02232,0.97969
with_tcp,START,0.68300,0.00000,-21.51966,-42.10704,0.00000,-21.67136,0.00000,-0.87636,0.02232,0.97756
with_tcp,START,0.68400,0.00000,-21.56209,-42.23025,0.00000,-21.70722,0.00000,-0.87750,0.02232,0.97542
with_tcp,START,0.68500,0.00000,-21.60452,-42.35364,0.00000,-21.74308,0.00000,-0.87864,0.02232,0.97328
with_tcp,START,0.68600,0.00000,-21.64694,-42.47721,0.00000,-21.77894,0.00000,-0.87977,0.02232,0.97113
with_tcp,START,0.68700,0.00000,-21.68937,-42.60096,0.00000,-21.81480,0.00000,-0.88089,0.02232,0.96898
with_tcp,START,0.68800,0.00000,-21.73179,-42.72489,0.00000,-21.85066,0.00000,-0.88201,0.02232,0.96682
with_tcp,START,0.68900,0.00000,-21.77422,-42.84900,0.00000,-21.88653,0.00000,-0.88313,0.02232,0.96466
with_tcp,START,0.69000,0.00000,-21.81665,-42.97329,0.00000,-21.92239,0.00000,-0.88424,0.02232,0.96250
with_tcp,START,0.69100,0.00000,-21.85907,-43.09776,0.00000,-21.95825,0.00000,-0.88534,0.02232,0.96033
with_tcp,START,0.69200,0.00000,-21.90150,-43.22241,0.00000,-21.99411,0.00000,-0.88644,0.02232,0.95816
with_tcp,START,0.69300,0.00000,-21.94393,-43.34724,0.00000,-22.02997,0.00000,-0.88753,0.02232,0.95598
with_tcp,START,0.69400,0.00000,-21.98635,-43.47225,0.00000,-22.06583,0.00000,-0.88862,0.02232,0.95380
with_tcp,START,0.69500,0.00000,-22.02878,-43.59744,0.00000,-22.10169,0.00000,-0.88970,0.02232,0.95161
with_tcp,START,0.69600,0.00000,-22.07121,-43.72281,0.00000,-22.13756,0.00000,-0.89077,0.02232,0.94942
with_tcp,START,0.69700,0.00000,-22.11363,-43.84836,0.00000,-22.17342,0.00000,-0.89184,0.02232,0.94723
with_tcp,START,0.69800,0.00000,-22.15606,-43.97409,0.00000,-22.20928,0.00000,-0.89291,0.02232,0.94503
with_tcp,START,0.69900,0.00000,-22.19848,-44.10000,0.00000,-22.24514,0.00000,-0.89397,0.02232,0.94282
with_tcp,START,0.70000,0.00000,-22.24091,-44.22609,0.00000,-22.28100,0.00000,-0.89502,0.02232,0.94062
with_tcp,START,0.70100,0.00000,-22.28334,-44.35236,0.00000,-22.31686,0.00000,-0.89607,0.02232,0.93840
with_tcp,START,0.70200,0.00000,-22.32576,-44.47881,0.00000,-22.35272,0.00000,-0.89711,0.02232,0.93619
with_tcp,START,0.70300,0.00000,-22.36819,-44.60544,0.00000,-22.38859,0.00000,-0.89814,0.02232,0.93397
with_tcp,START,0.70400,0.00000,-22.41062,-44.73225,0.00000,-22.42445,0.00000,-0.89917,0.02232,0.93174
with_tcp,START,0.70500,0.00000,-22.45304,-44.85924,0.00000,-22.46031,0.00000,-0.90020,0.02232,0.92952
with_tcp,START,0.70600,0.00000,-22.49547,-44.98641,0.00000,-22.49617,0.00000,-0.90121,0.02232,0.92728
with_tcp,START,0.70700,0.00000,-22.53790,-45.11362,0.00000,-22.53203,0.00000,-0.90223,0.02232,0.92505
with_tcp,START,0.70800,0.00000,-22.58032,-45.24064,0.00000,-22.56789,0.00000,-0.90323,0.02232,0.92281
with_tcp,START,0.70900,0.00000,-22.62275,-45.36749,0.00000,-22.60376,0.00000,-0.90423,0.02232,0.92058
with_tcp,START,0.71000,0.00000,-22.66518,-45.49416,0.00000,-22.63962,0.00000,-0.90522,0.02232,0.91834
with_tcp,START,0.71100,0.00000,-22.70760,-45.62065,0.00000,-22.67548,0.00000,-0.90620,0.02232,0.91611
with_tcp,START,0.71200,0.00000,-22.75003,-45.74696,0.00000,-22.71134,0.00000,-0.90717,0.02232,0.91388
with_tcp,START,0.71300,0.00000,-22.79245,-45.87309,0.00000,-22.74720,0.00000,-0.90814,0.02232,0.91164
with_tcp,START,0.71400,0.00000,-22.83488,-45.99904,0.00000,-22.78306,0.00000,-0.90910,0.02232,0.90941
with_tcp,START,0.71500,0.00000,-22.87731,-46.12480,0.00000,-22.81892,0.00000,-0.91006,0.02232,0.90717
with_tcp,START,0.71600,0.00000,-22.91973,-46.25039,0.00000,-22.85479,0.00000,-0.91100,0.02232,0.90494
with_tcp,START,0.71700,0.00000,-22.96216,-46.37580,0.00000,-22.89065,0.00000,-0.91195,0.02232,0.90271
with_tcp,START,0.71800,0.00000,-23.00459,-46.50103,0.00000,-22.92651,0.00000,-0.91288,0.02232,0.90048
with_tcp,START,0.71900,0.00000,-23.04701,-46.62608,0.00000,-22.96237,0.00000,-0.91380,0.02232,0.89824
with_tcp,START,0.72000,0.00000,-23.08944,-46.75095,0.00000,-22.99823,0.00000,-0.91472,0.02232,0.89601
with_tcp,START,0.72100,0.00000,-23.13187,-46.87563,0.00000,-23.03409,0.00000,-0.91564,0.02232,0.89378
with_tcp,START,0.72200,0.00000,-23.17429,-47.00014,0.00000,-23.06995,0.00000,-0.91654,0.02232,0.89155
with_tcp,START,0.72300,0.00000,-23.21672,-47.12447,0.00000,-23.10582,0.00000,-0.91744,0.02232,0.88932
with_tcp,START,0.72400,0.00000,-23.25914,-47.24862,0.00000,-23.14168,0.00000,-0.91833,0.02232,0.88709
with_tcp,START,0.72500,0.00000,-23.30157,-47.37259,0.00000,-23.17754,0.00000,-0.91921,0.02232,0.88486
with_tcp,START,0.72600,0.00000,-23.34400,-47.49638,0.00000,-23.21340,0.00000,-0.92009,0.02232,0.88263
with_tcp,START,0.72700,0.00000,-23.38642,-47.61999,0.00000,-23.24926,0.00000,-0.92096,0.02232,0.88040
with_tcp,START,0.72800,0.00000,-23.42885,-47.74341,0.00000,-23.28512,0.00000,-0.92182,0.02232,0.87817
with_tcp,START,0.72900,0.00000,-23.47128,-47.86666,0.00000,-23.32098,0.00000,-0.92268,0.02232,0.87594
with_tcp,START,0.73000,0.00000,-23.51370,-47.98973,0.00000,-23.35685,0.00000,-0.92353,0.02232,0.87372
with_tcp,START,0.73100,0.00000,-23.55613,-48.11262,0.00000,-23.39271,0.00000,-0.92437,0.02232,0.87149
with_tcp,START,0.73200,0.00000,-23.59856,-48.23533,0.00000,-23.42857,0.00000,-0.92521,0.02232,0.86927
with_tcp,START,0.73300,0.00000,-23.64098,-48.35786,0.00000,-23.46443,0.00000,-0.92604,0.02232,0.86704
with_tcp,START,0.73400,0.00000,-23.68341,-48.48020,0.00000,-23.50029,0.00000,-0.92686,0.02232,0.86482
with_tcp,START,0.73500,0.00000,-23.72584,-48.60237,0.00000,-23.53615,0.00000,-0.92768,0.02232,0.86259
with_tcp,START,0.73600,0.00000,-23.76826,-48.72436,0.00000,-23.57201,0.00000,-0.92849,0.02232,0.86037
with_tcp,START,0.73700,0.00000,-23.81069,-48.84617,0.00000,-23.60788,0.00000,-0.92929,0.02232,0.85815
with_tcp,START,0.73800,0.00000,-23.85311,-48.96780,0.00000,-23.64374,0.00000,-0.93008,0.02232,0.85593
with_tcp,START,0.73900,0.00000,-23.89554,-49.08925,0.00000,-23.67960,0.00000,-0.93087,0.02232,0.85371
with_tcp,START,0.74000,0.00000,-23.93797,-49.21052,0.00000,-23.71546,0.00000,-0.93166,0.02232,0.85149
with_tcp,START,0.74100,0.00000,-23.98039,-49.33160,0.00000,-23.75132,0.00000,-0.93243,0.02232,0.84927
with_tcp,START,0.74200,0.00000,-24.02282,-49.45251,0.00000,-23.78718,0.00000,-0.93320,0.02232,0.84705
with_tcp,START,0.74300,0.00000,-24.06525,-49.57324,0.00000,-23.82304,0.00000,-0.93396,0.02232,0.84483
with_tcp,START,0.74400,0.00000,-24.10767,-49.69379,0.00000,-23.85891,0.00000,-0.93472,0.02232,0.84262
with_tcp,START,0.74500,0.00000,-24.15010,-49.81416,0.00000,-23.89477,0.00000,-0.93547,0.02232,0.84040
with_tcp,START,0.74600,0.00000,-24.19253,-49.93435,0.00000,-23.93063,0.00000,-0.93621,0.02232,0.83819
with_tcp,START,0.74700,0.00000,-24.23495,-50.05435,0.00000,-23.96649,0.00000,-0.93694,0.02232,0.83598
with_tcp,START,0.74800,0.00000,-24.27738,-50.17418,0.00000,-24.00235,0.00000,-0.93767,0.02232,0.83376
with_tcp,START,0.74900,0.00000,-24.31981,-50.29383,0.00000,-24.03821,0.00000,-0.93840,0.02232,0.83155
with_tcp,START,0.75000,0.00000,-24.36223,-50.41330,0.00000,-24.07407,0.00000,-0.93911,0.02232,0.82934
with_tcp,START,0.75100,0.00000,-24.40466,-50.53259,0.00000,-24.10994,0.00000,-0.93982,0.02232,0.82713
with_tcp,START,0.75200,0.00000,-24.44708,-50.65170,0.00000,-24.14580,0.00000,-0.94053,0.02232,0.82493
with_tcp,START,0.75300,0.00000,-24.48951,-50.77062,0.00000,-24.18166,0.00000,-0.94122,0.02232,0.82272
with_tcp,START,0.75400,0.00000,-24.53194,-50.88937,0.00000,-24.21752,0.00000,-0.94191,0.02232,0.82051
with_tcp,START,0.75500,0.00000,-24.57436,-51.00794,0.00000,-24.25338,0.00000,-0.94260,0.02232,0.81831
with_tcp,START,0.75600,0.00000,-24.61679,-51.12633,0.00000,-24.28924,0.00000,-0.94327,0.02232,0.81611
with_tcp,START,0.75700,0.00000,-24.65922,-51.24454,0.00000,-24.32510,0.00000,-0.94394,0.02232,0.81391
with_tcp,START,0.75800,0.00000,-24.70164,-51.36257,0.00000,-24.36097,0.00000,-0.94461,0.02232,0.81170
with_tcp,START,0.75900,0.00000,-24.74407,-51.48042,0.00000,-24.39683,0.00000,-0.94527,0.02232,0.80951
with_tcp,START,0.76000,0.00000,-24.78650,-51.59808,0.00000,-24.43269,0.00000,-0.94592,0.02232,0.80731
with_tcp,START,0.76100,0.00000,-24.82892,-51.71557,0.00000,-24.46855,0.00000,-0.94657,0.02232,0.80511
with_tcp,START,0.76200,0.00000,-24.87135,-51.83288,0.00000,-24.50441,0.00000,-0.94720,0.02232,0.80291
with_tcp,START,0.76300,0.00000,-24.91377,-51.95001,0.00000,-24.54027,0.00000,-0.94784,0.02232,0.80072
with_tcp,START,0.76400,0.00000,-24.95620,-52.06696,0.00000,-24.57613,0.00000,-0.94846,0.02232,0.79853
with_tcp,START,0.76500,0.00000,-24.99863,-52.18373,0.00000,-24.61200,0.00000,-0.94908,0.02232,0.79634
with_tcp,START,0.76600,0.00000,-25.04105,-52.30031,0.00000,-24.64786,0.00000,-0.94970,0.02232,0.79415
with_tcp,START,0.76700,0.00000,-25.08348,-52.41672,0.00000,-24.68372,0.00000,-0.95031,0.02232,0.79196
with_tcp,START,0.76800,0.00000,-25.12591,-52.53295,0.00000,-24.71958,0.00000,-0.95091,0.02232,0.78977
with_tcp,START,0.76900,0.00000,-25.16833,-52.64900,0.00000,-24.75544,0.00000,-0.95150,0.02232,0.78758
with_tcp,START,0.77000,0.00000,-25.21076,-52.76487,0.00000,-24.79130,0.00000,-0.95209,0.02232,0.78540
with_tcp,START,0.77100,0.00000,-25.25319,-52.88056,0.00000,-24.82716,0.00000,-0.95268,0.02232,0.78322
with_tcp,START,0.77200,0.00000,-25.29561,-52.99607,0.00000,-24.86303,0.00000,-0.95325,0.02232,0.78104
with_tcp,START,0.77300,0.00000,-25.33804,-53.11139,0.00000,-24.89889,0.00000,-0.95382,0.02232,0.77886
with_tcp,START,0.77400,0.00000,-25.38047,-53.22654,0.00000,-24.93475,0.00000,-0.95439,0.02232,0.77668
with_tcp,START,0.77500,0.00000,-25.42289,-53.34151,0.00000,-24.97061,0.00000,-0.95495,0.02232,0.77450
with_tcp,START,0.77600,0.00000,-25.46532,-53.45630,0.00000,-25.00647,0.00000,-0.95550,0.02232,0.77232
with_tcp,START,0.77700,0.00000,-25.50774,-53.57091,0.00000,-25.04233,0.00000,-0.95605,0.02232,0.77015
with_tcp,START,0.77800,0.00000,-25.55017,-53.68534,0.00000,-25.07820,0.00000,-0.95659,0.02232,0.76798
with_tcp,START,0.77900,0.00000,-25.59260,-53.79958,0.00000,-25.11406,0.00000,-0.95712,0.02232,0.76581
with_tcp,START,0.78000,0.00000,-25.63502,-53.91365,0.00000,-25.14992,0.00000,-0.95765,0.02232,0.76364
with_tcp,START,0.78100,0.00000,-25.67745,-54.02754,0.00000,-25.18578,0.00000,-0.95817,0.02232,0.76147
with_tcp,START,0.78200,0.00000,-25.71988,-54.14125,0.00000,-25.22164,0.00000,-0.95869,0.02232,0.75931
with_tcp,START,0.78300,0.00000,-25.76230,-54.25478,0.00000,-25.25750,0.00000,-0.95920,0.02232,0.75714
with_tcp,START,0.78400,0.00000,-25.80473,-54.36813,0.00000,-25.29336,0.00000,-0.95970,0.02232,0.75498
with_tcp,START,0.78500,0.00000,-25.84716,-54.48130,0.00000,-25.32923,0.00000,-0.96020,0.02232,0.75282
with_tcp,START,0.78600,0.00000,-25.88958,-54.59428,0.00000,-25.36509,0.00000,-0.96070,0.02232,0.75066
with_tcp,START,0.78700,0.00000,-25.93201,-54.70709,0.00000,-25.40095,0.00000,-0.96118,0.02232,0.74851
with_tcp,START,0.78800,0.00000,-25.97444,-54.81972,0.00000,-25.43681,0.00000,-0.96166,0.02232,0.74635
with_tcp,START,0.78900,0.00000,-26.01686,-54.93217,0.00000,-25.47267,0.00000,-0.96214,0.02232,0.74420
with_tcp,START,0.79000,0.00000,-26.05929,-55.04444,0.00000,-25.50853,0.00000,-0.96261,0.02232,0.74205
with_tcp,START,0.79100,0.00000,-26.10171,-55.15653,0.00000,-25.54439,0.00000,-0.96307,0.02232,0.73990
with_tcp,START,0.79200,0.00000,-26.14414,-55.26843,0.00000,-25.58026,0.00000,-0.96353,0.02232,0.73775
with_tcp,START,0.79300,0.00000,-26.18657,-55.38016,0.00000,-25.61612,0.00000,-0.96398,0.02232,0.73560
with_tcp,START,0.79400,0.00000,-26.22899,-55.49171,0.00000,-25.65198,0.00000,-0.96443,0.02232,0.73346
with_tcp,START,0.79500,0.00000,-26.27142,-55.60308,0.00000,-25.68784,0.00000,-0.96487,0.02232,0.73132
with_tcp,START,0.79600,0.00000,-26.31385,-55.71427,0.00000,-25.72370,0.00000,-0.96530,0.02232,0.72918
with_tcp,START,0.79700,0.00000,-26.35627,-55.82528,0.00000,-25.75956,0.00000,-0.96573,0.02232,0.72704
with_tcp,START,0.79800,0.00000,-26.39870,-55.93610,0.00000,-25.79542,0.00000,-0.96616,0.02232,0.72490
with_tcp,START,0.79900,0.00000,-26.44113,-56.04675,0.00000,-25.83129,0.00000,-0.96658,0.02232,0.72277
with_tcp,START,0.80000,0.00000,-26.48355,-56.15722,0.00000,-25.86715,0.00000,-0.96699,0.02232,0.72063
with_tcp,START,0.80100,0.00000,-26.52598,-56.26751,0.00000,-25.90301,0.00000,-0.96739,0.02232,0.71850
with_tcp,START,0.80200,0.00000,-26.56840,-56.37762,0.00000,-25.93887,0.00000,-0.96780,0.02232,0.71638
with_tcp,START,0.80300,0.00000,-26.61083,-56.48755,0.00000,-25.97473,0.00000,-0.96819,0.02232,0.71425
with_tcp,START,0.80400,0.00000,-26.65326,-56.59730,0.00000,-26.01059,0.00000,-0.96858,0.02232,0.71212
with_tcp,START,0.80500,0.00000,-26.69568,-56.70686,0.00000,-26.04645,0.00000,-0.96897,0.02232,0.71000
with_tcp,START,0.80600,0.00000,-26.73811,-56.81625,0.00000,-26.08232,0.00000,-0.96934,0.02232,0.70788
with_tcp,START,0.80700,0.00000,-26.78054,-56.92546,0.00000,-26.11818,0.00000,-0.96972,0.02232,0.70576
with_tcp,START,0.80800,0.00000,-26.82296,-57.03449,0.00000,-26.15404,0.00000,-0.97009,0.02232,0.70365
with_tcp,START,0.80900,0.00000,-26.86539,-57.14334,0.00000,-26.18990,0.00000,-0.97045,0.02232,0.70153
with_tcp,START,0.81000,0.00000,-26.90782,-57.25201,0.00000,-26.22576,0.00000,-0.97081,0.02232,0.69942
with_tcp,START,0.81100,0.00000,-26.95024,-57.36049,0.00000,-26.26162,0.00000,-0.97116,0.02232,0.69731
with_tcp,START,0.81200,0.00000,-26.99267,-57.46880,0.00000,-26.29748,0.00000,-0.97150,0.02232,0.69520
with_tcp,START,0.81300,0.00000,-27.03510,-57.57693,0.00000,-26.33335,0.00000,-0.97184,0.02232,0.69310
with_tcp,START,0.81400,0.00000,-27.07752,-57.68488,0.00000,-26.36921,0.00000,-0.97218,0.02232,0.69100
with_tcp,START,0.81500,0.00000,-27.11995,-57.79265,0.00000,-26.40507,0.00000,-0.97251,0.02232,0.68889
with_tcp,START,0.81600,0.00000,-27.16237,-57.90024,0.00000,-26.44093,0.00000,-0.97284,0.02232,0.68680
with_tcp,START,0.81700,0.00000,-27.20480,-58.00765,0.00000,-26.47679,0.00000,-0.97315,0.02232,0.68470
with_tcp,START,0.81800,0.00000,-27.24723,-58.11487,0.00000,-26.51265,0.00000,-0.97347,0.02232,0.68260
with_tcp,START,0.81900,0.00000,-27.28965,-58.22192,0.00000,-26.54851,0.00000,-0.97378,0.02232,0.68051
with_tcp,START,0.82000,0.00000,-27.33208,-58.32879,0.00000,-26.58438,0.00000,-0.97408,0.02232,0.67842
with_tcp,START,0.82100,0.00000,-27.37451,-58.43548,0.00000,-26.62024,0.00000,-0.97438,0.02232,0.67634
with_tcp,START,0.82200,0.00000,-27.41693,-58.54199,0.00000,-26.65610,0.00000,-0.97467,0.02232,0.67425
with_tcp,START,0.82300,0.00000,-27.45936,-58.64832,0.00000,-26.69196,0.00000,-0.97496,0.02232,0.67217
with_tcp,START,0.82400,0.00000,-27.50179,-58.75446,0.00000,-26.72782,0.00000,-0.97524,0.02232,0.67009
with_tcp,START,0.82500,0.00000,-27.54421,-58.86043,0.00000,-26.76368,0.00000,-0.97552,0.02232,0.66801
with_tcp,START,0.82600,0.00000,-27.58664,-58.96622,0.00000,-26.79954,0.00000,-0.97579,0.02232,0.66593
with_tcp,START,0.82700,0.00000,-27.62906,-59.07183,0.00000,-26.83541,0.00000,-0.97606,0.02232,0.66386
with_tcp,START,0.82800,0.00000,-27.67149,-59.17726,0.00000,-26.87127,0.00000,-0.97632,0.02232,0.66179
with_tcp,START,0.82900,0.00000,-27.71392,-59.28251,0.00000,-26.90713,0.00000,-0.97658,0.02232,0.65972
with_tcp,START,0.83000,0.00000,-27.75634,-59.38757,0.00000,-26.94299,0.00000,-0.97683,0.02232,0.65765
with_tcp,START,0.83100,0.00000,-27.79877,-59.49246,0.00000,-26.97885,0.00000,-0.97708,0.02232,0.65559
with_tcp,START,0.83200,0.00000,-27.84120,-59.59717,0.00000,-27.01471,0.00000,-0.97732,0.02232,0.65353
with_tcp,START,0.83300,0.00000,-27.88362,-59.70170,0.00000,-27.05057,0.00000,-0.97756,0.02232,0.65147
with_tcp,START,0.83400,0.00000,-27.92605,-59.80605,0.00000,-27.08644,0.00000,-0.97779,0.02232,0.64941
with_tcp,START,0.83500,0.00000,-27.96848,-59.91022,0.00000,-27.12230,0.00000,-0.97802,0.02232,0.64736
with_tcp,START,0.83600,0.00000,-28.01090,-60.01421,0.00000,-27.15816,0.00000,-0.97824,0.02232,0.64530
with_tcp,START,0.83700,0.00000,-28.05333,-60.11801,0.00000,-27.19402,0.00000,-0.97846,0.02232,0.64325
with_tcp,START,0.83800,0.00000,-28.09576,-60.22164,0.00000,-27.22988,0.00000,-0.97867,0.02232,0.64121
with_tcp,START,0.83900,0.00000,-28.13818,-60.32509,0.00000,-27.26574,0.00000,-0.97888,0.02232,0.63916
with_tcp,START,0.84000,0.00000,-28.18061,-60.42836,0.00000,-27.30161,0.00000,-0.97908,0.02232,0.63712
with_tcp,START,0.84100,0.00000,-28.22303,-60.53145,0.00000,-27.33747,0.00000,-0.97928,0.02232,0.63508
with_tcp,START,0.84200,0.00000,-28.26546,-60.63436,0.00000,-27.37333,0.00000,-0.97947,0.02232,0.63304
with_tcp,START,0.84300,0.00000,-28.30789,-60.73708,0.00000,-27.40919,0.00000,-0.97966,0.02232,0.63101
with_tcp,START,0.84400,0.00000,-28.35031,-60.83963,0.00000,-27.44505,0.00000,-0.97984,0.02232,0.62898
with_tcp,START,0.84500,0.00000,-28.39274,-60.94200,0.00000,-27.48091,0.00000,-0.98002,0.02232,0.62695
with_tcp,START,0.84600,0.00000,-28.43517,-61.04419,0.00000,-27.51677,0.00000,-0.98020,0.02232,0.62492
with_tcp,START,0.84700,0.00000,-28.47759,-61.14620,0.00000,-27.55264,0.00000,-0.98036,0.02232,0.62290
with_tcp,START,0.84800,0.00000,-28.52002,-61.24803,0.00000,-27.58850,0.00000,-0.98053,0.02232,0.62088
with_tcp,START,0.84900,0.00000,-28.56245,-61.34968,0.00000,-27.62436,0.00000,-0.98069,0.02232,0.61886
with_tcp,START,0.85000,0.00000,-28.60487,-61.45114,0.00000,-27.66022,0.00000,-0.98084,0.02232,0.61684
with_tcp,START,0.85100,0.00000,-28.64730,-61.55243,0.00000,-27.69608,0.00000,-0.98099,0.02232,0.61483
with_tcp,START,0.85200,0.00000,-28.68973,-61.65354,0.00000,-27.73194,0.00000,-0.98114,0.02232,0.61282
with_tcp,START,0.85300,0.00000,-28.73215,-61.75447,0.00000,-27.76780,0.00000,-0.98128,0.02232,0.61081
with_tcp,START,0.85400,0.00000,-28.77458,-61.85522,0.00000,-27.80367,0.00000,-0.98142,0.02232,0.60880
with_tcp,START,0.85500,0.00000,-28.81700,-61.95579,0.00000,-27.83953,0.00000,-0.98155,0.02232,0.60680
with_tcp,START,0.85600,0.00000,-28.85943,-62.05617,0.00000,-27.87539,0.00000,-0.98168,0.02232,0.60480
with_tcp,START,0.85700,0.00000,-28.90186,-62.15638,0.00000,-27.91125,0.00000,-0.98180,0.02232,0.60280
with_tcp,START,0.85800,0.00000,-28.94428,-62.25641,0.00000,-27.94711,0.00000,-0.98192,0.02232,0.60081
with_tcp,START,0.85900,0.00000,-28.98671,-62.35626,0.00000,-27.98297,0.00000,-0.98203,0.02232,0.59882
with_tcp,START,0.86000,0.00000,-29.02914,-62.45593,0.00000,-28.01883,0.00000,-0.98214,0.02232,0.59683
with_tcp,START,0.86100,0.00000,-29.07156,-62.55542,0.00000,-28.05470,0.00000,-0.98224,0.02232,0.59484
with_tcp,START,0.86200,0.00000,-29.11399,-62.65473,0.00000,-28.09056,0.00000,-0.98234,0.02232,0.59286
with_tcp,START,0.86300,0.00000,-29.15642,-62.75385,0.00000,-28.12642,0.00000,-0.98244,0.02232,0.59088
with_tcp,START,0.86400,0.00000,-29.19884,-62.85280,0.00000,-28.16228,0.00000,-0.98253,0.02232,0.58890
with_tcp,START,0.86500,0.00000,-29.24127,-62.95157,0.00000,-28.19814,0.00000,-0.98262,0.02232,0.58692
with_tcp,START,0.86600,0.00000,-29.28369,-63.05016,0.00000,-28.23400,0.00000,-0.98270,0.02232,0.58495
with_tcp,START,0.86700,0.00000,-29.32612,-63.14857,0.00000,-28.26986,0.00000,-0.98278,0.02232,0.58298
with_tcp,START,0.86800,0.00000,-29.36855,-63.24680,0.00000,-28.30573,0.00000,-0.98285,0.02232,0.58101
with_tcp,START,0.86900,0.00000,-29.41097,-63.34484,0.00000,-28.34159,0.00000,-0.98292,0.02232,0.57905
with_tcp,START,0.87000,0.00000,-29.45340,-63.44271,0.00000,-28.37745,0.00000,-0.98299,0.02232,0.57709
with_tcp,START,0.87100,0.00000,-29.49583,-63.54040,0.00000,-28.41331,0.00000,-0.98305,0.02232,0.57513
with_tcp,START,0.87200,0.00000,-29.53825,-63.63791,0.00000,-28.44917,0.00000,-0.98311,0.02232,0.57317
with_tcp,START,0.87300,0.00000,-29.58068,-63.73524,0.00000,-28.48503,0.00000,-0.98316,0.02232,0.57122
with_tcp,START,0.87400,0.00000,-29.62311,-63.83239,0.00000,-28.52089,0.00000,-0.98321,0.02232,0.56927
with_tcp,START,0.87500,0.00000,-29.66553,-63.92935,0.00000,-28.55676,0.00000,-0.98325,0.02232,0.56732
with_tcp,START,0.87600,0.00000,-29.70796,-64.02614,0.00000,-28.59262,0.00000,-0.98329,0.02232,0.56538
with_tcp,START,0.87700,0.00000,-29.75039,-64.12275,0.00000,-28.62848,0.00000,-0.98333,0.02232,0.56344
with_tcp,START,0.87800,0.00000,-29.79281,-64.21918,0.00000,-28.66434,0.00000,-0.98336,0.02232,0.56150
with_tcp,START,0.87900,0.00000,-29.83524,-64.31543,0.00000,-28.70020,0.00000,-0.98339,0.02232,0.55956
with_tcp,START,0.88000,0.00000,-29.87766,-64.41150,0.00000,-28.73606,0.00000,-0.98341,0.02232,0.55763
with_tcp,START,0.88100,0.00000,-29.92009,-64.50739,0.00000,-28.77192,0.00000,-0.98343,0.02232,0.55570
with_tcp,START,0.88200,0.00000,-29.96252,-64.60309,0.00000,-28.80779,0.00000,-0.98344,0.02232,0.55377
with_tcp,START,0.88300,0.00000,-30.00494,-64.69862,0.00000,-28.84365,0.00000,-0.98346,0.02232,0.55185
with_tcp,START,0.88400,0.00000,-30.04737,-64.79397,0.00000,-28.87951,0.00000,-0.98346,0.02232,0.54993
with_tcp,START,0.88500,0.00000,-30.08980,-64.88914,0.00000,-28.91537,0.00000,-0.98347,0.02232,0.54801
with_tcp,START,0.88600,0.00000,-30.13222,-64.98413,0.00000,-28.95123,0.00000,-0.98346,0.02232,0.54609
with_tcp,START,0.88700,0.00000,-30.17465,-65.07894,0.00000,-28.98709,0.00000,-0.98346,0.02232,0.54418
with_tcp,START,0.88800,0.00000,-30.21708,-65.17356,0.00000,-29.02295,0.00000,-0.98345,0.02232,0.54227
with_tcp,START,0.88900,0.00000,-30.25950,-65.26801,0.00000,-29.05882,0.00000,-0.98344,0.02232,0.54036
with_tcp,START,0.89000,0.00000,-30.30193,-65.36228,0.00000,-29.09468,0.00000,-0.98342,0.02232,0.53846
with_tcp,START,0.89100,0.00000,-30.34435,-65.45637,0.00000,-29.13054,0.00000,-0.98340,0.02232,0.53656
with_tcp,START,0.89200,0.00000,-30.38678,-65.55028,0.00000,-29.16640,0.00000,-0.98338,0.02232,0.53466
with_tcp,START,0.89300,0.00000,-30.42921,-65.64401,0.00000,-29.20226,0.00000,-0.98335,0.02232,0.53277
with_tcp,START,0.89400,0.00000,-30.47163,-65.73756,0.00000,-29.23812,0.00000,-0.98332,0.02232,0.53088
with_tcp,START,0.89500,0.00000,-30.51406,-65.83092,0.00000,-29.27398,0.00000,-0.98328,0.02232,0.52899
with_tcp,START,0.89600,0.00000,-30.55649,-65.92411,0.00000,-29.30985,0.00000,-0.98324,0.02232,0.52710
with_tcp,START,0.89700,0.00000,-30.59891,-66.01712,0.00000,-29.34571,0.00000,-0.98320,0.02232,0.52522
with_tcp,START,0.89800,0.00000,-30.64134,-66.10995,0.00000,-29.38157,0.00000,-0.98315,0.02232,0.52334
with_tcp,START,0.89900,0.00000,-30.68377,-66.20260,0.00000,-29.41743,0.00000,-0.98310,0.02232,0.52146
with_tcp,START,0.90000,0.00000,-30.72619,-66.29507,0.00000,-29.45329,0.00000,-0.98304,0.02232,0.51959
with_tcp,START,0.90100,0.00000,-30.76862,-66.38735,0.00000,-29.48915,0.00000,-0.98299,0.02232,0.51772
with_tcp,START,0.90200,0.00000,-30.81105,-66.47946,0.00000,-29.52501,0.00000,-0.98292,0.02232,0.51585
with_tcp,START,0.90300,0.00000,-30.85347,-66.57139,0.00000,-29.56088,0.00000,-0.98286,0.02232,0.51399
with_tcp,START,0.90400,0.00000,-30.89590,-66.66314,0.00000,-29.59674,0.00000,-0.98279,0.02232,0.51213
with_tcp,START,0.90500,0.00000,-30.93832,-66.75471,0.00000,-29.63260,0.00000,-0.98271,0.02232,0.51027
with_tcp,START,0.90600,0.00000,-30.98075,-66.84610,0.00000,-29.66846,0.00000,-0.98264,0.02232,0.50841
with_tcp,START,0.90700,0.00000,-31.02318,-66.93731,0.00000,-29.70432,0.00000,-0.98256,0.02232,0.50656
with_tcp,START,0.90800,0.00000,-31.06560,-67.02833,0.00000,-29.74018,0.00000,-0.98247,0.02232,0.50471
with_tcp,START,0.90900,0.00000,-31.10803,-67.11918,0.00000,-29.77605,0.00000,-0.98239,0.02232,0.50287
with_tcp,START,0.91000,0.00000,-31.15046,-67.20985,0.00000,-29.81191,0.00000,-0.98229,0.02232,0.50102
with_tcp,START,0.91100,0.00000,-31.19288,-67.30034,0.00000,-29.84777,0.00000,-0.98220,0.02232,0.49918
with_tcp,START,0.91200,0.00000,-31.23531,-67.39065,0.00000,-29.88363,0.00000,-0.98210,0.02232,0.49735
with_tcp,START,0.91300,0.00000,-31.27774,-67.48078,0.00000,-29.91949,0.00000,-0.98200,0.02232,0.49551
with_tcp,START,0.91400,0.00000,-31.32016,-67.57072,0.00000,-29.95535,0.00000,-0.98190,0.02232,0.49368
with_tcp,START,0.91500,0.00000,-31.36259,-67.66049,0.00000,-29.99121,0.00000,-0.98179,0.02232,0.49186
with_tcp,START,0.91600,0.00000,-31.40502,-67.75008,0.00000,-30.02708,0.00000,-0.98167,0.02232,0.49003
with_tcp,START,0.91700,0.00000,-31.44744,-67.83949,0.00000,-30.06294,0.00000,-0.98156,0.02232,0.48821
with_tcp,START,0.91800,0.00000,-31.48987,-67.92872,0.00000,-30.09880,0.00000,-0.98144,0.02232,0.48639
with_tcp,START,0.91900,0.00000,-31.53229,-68.01777,0.00000,-30.13466,0.00000,-0.98132,0.02232,0.48458
with_tcp,START,0.92000,0.00000,-31.57472,-68.10663,0.00000,-30.17052,0.00000,-0.98119,0.02232,0.48277
with_tcp,START,0.92100,0.00000,-31.61715,-68.19532,0.00000,-30.20638,0.00000,-0.98106,0.02232,0.48096
with_tcp,START,0.92200,0.00000,-31.65957,-68.28383,0.00000,-30.24224,0.00000,-0.98093,0.02232,0.47915
with_tcp,START,0.92300,0.00000,-31.70200,-68.37216,0.00000,-30.27811,0.00000,-0.98080,0.02232,0.47735
with_tcp,START,0.92400,0.00000,-31.74443,-68.46031,0.00000,-30.31397,0.00000,-0.98066,0.02232,0.47555
with_tcp,START,0.92500,0.00000,-31.78685,-68.54828,0.00000,-30.34983,0.00000,-0.98052,0.02232,0.47376
with_tcp,START,0.92600,0.00000,-31.82928,-68.63607,0.00000,-30.38569,0.00000,-0.98037,0.02232,0.47197
with_tcp,START,0.92700,0.00000,-31.87171,-68.72367,0.00000,-30.42155,0.00000,-0.98022,0.02232,0.47018
with_tcp,START,0.92800,0.00000,-31.91413,-68.81110,0.00000,-30.45741,0.00000,-0.98007,0.02232,0.46839
with_tcp,START,0.92900,0.00000,-31.95656,-68.89835,0.00000,-30.49327,0.00000,-0.97991,0.02232,0.46661
with_tcp,START,0.93000,0.00000,-31.99898,-68.98542,0.00000,-30.52914,0.00000,-0.97976,0.02232,0.46483
with_tcp,START,0.93100,0.00000,-32.04141,-69.07231,0.00000,-30.56500,0.00000,-0.97960,0.02232,0.46305
with_tcp,START,0.93200,0.00000,-32.08384,-69.15902,0.00000,-30.60086,0.00000,-0.97943,0.02232,0.46128
with_tcp,START,0.93300,0.00000,-32.12626,-69.24554,0.00000,-30.63672,0.00000,-0.97926,0.02232,0.45951
with_tcp,START,0.93400,0.00000,-32.16869,-69.33189,0.00000,-30.67258,0.00000,-0.97909,0.02232,0.45774
with_tcp,START,0.93500,0.00000,-32.21112,-69.41806,0.00000,-30.70844,0.00000,-0.97892,0.02232,0.45598
with_tcp,START,0.93600,0.00000,-32.25354,-69.50405,0.00000,-30.74430,0.00000,-0.97874,0.02232,0.45422
with_tcp,START,0.93700,0.00000,-32.29597,-69.58986,0.00000,-30.78017,0.00000,-0.97856,0.02232,0.45246
with_tcp,START,0.93800,0.00000,-32.33840,-69.67549,0.00000,-30.81603,0.00000,-0.97838,0.02232,0.45070
with_tcp,START,0.93900,0.00000,-32.38082,-69.76094,0.00000,-30.85189,0.00000,-0.97819,0.02232,0.44895
with_tcp,START,0.94000,0.00000,-32.42325,-69.84620,0.00000,-30.88775,0.00000,-0.97800,0.02232,0.44721
with_tcp,START,0.94100,0.00000,-32.46568,-69.93129,0.00000,-30.92361,0.00000,-0.97781,0.02232,0.44546
with_tcp,START,0.94200,0.00000,-32.50810,-70.01620,0.00000,-30.95947,0.00000,-0.97762,0.02232,0.44372
with_tcp,START,0.94300,0.00000,-32.55053,-70.10093,0.00000,-30.99533,0.00000,-0.97742,0.02232,0.44198
with_tcp,START,0.94400,0.00000,-32.59295,-70.18548,0.00000,-31.03120,0.00000,-0.97722,0.02232,0.44025
with_tcp,START,0.94500,0.00000,-32.63538,-70.26985,0.00000,-31.06706,0.00000,-0.97702,0.02232,0.43851
with_tcp,START,0.94600,0.00000,-32.67781,-70.35403,0.00000,-31.10292,0.00000,-0.97681,0.02232,0.43679
with_tcp,START,0.94700,0.00000,-32.72023,-70.43804,0.00000,-31.13878,0.00000,-0.97660,0.02232,0.43506
with_tcp,START,0.94800,0.00000,-32.76266,-70.52187,0.00000,-31.17464,0.00000,-0.97639,0.02232,0.43334
with_tcp,START,0.94900,0.00000,-32.80509,-70.60552,0.00000,-31.21050,0.00000,-0.97617,0.02232,0.43162
with_tcp,START,0.95000,0.00000,-32.84751,-70.68899,0.00000,-31.24636,0.00000,-0.97595,0.02232,0.42991
with_tcp,START,0.95100,0.00000,-32.88994,-70.77228,0.00000,-31.28223,0.00000,-0.97573,0.02232,0.42819
with_tcp,START,0.95200,0.00000,-32.93237,-70.85539,0.00000,-31.31809,0.00000,-0.97551,0.02232,0.42648
with_tcp,START,0.95300,0.00000,-32.97479,-70.93831,0.00000,-31.35395,0.00000,-0.97528,0.02232,0.42478
with_tcp,START,0.95400,0.00000,-33.01722,-71.02106,0.00000,-31.38981,0.00000,-0.97505,0.02232,0.42308
with_tcp,START,0.95500,0.00000,-33.05964,-71.10363,0.00000,-31.42567,0.00000,-0.97482,0.02232,0.42138
with_tcp,START,0.95600,0.00000,-33.10207,-71.18602,0.00000,-31.46153,0.00000,-0.97459,0.02232,0.41968
with_tcp,START,0.95700,0.00000,-33.14450,-71.26823,0.00000,-31.49739,0.00000,-0.97435,0.02232,0.41799
with_tcp,START,0.95800,0.00000,-33.18692,-71.35026,0.00000,-31.53326,0.00000,-0.97411,0.02232,0.41630
with_tcp,START,0.95900,0.00000,-33.22935,-71.43210,0.00000,-31.56912,0.00000,-0.97387,0.02232,0.41461
with_tcp,START,0.96000,0.00000,-33.27178,-71.51377,0.00000,-31.60498,0.00000,-0.97362,0.02232,0.41293
with_tcp,START,0.96100,0.00000,-33.31420,-71.59526,0.00000,-31.64084,0.00000,-0.97337,0.02232,0.41125
with_tcp,START,0.96200,0.00000,-33.35663,-71.67657,0.00000,-31.67670,0.00000,-0.97312,0.02232,0.40958
with_tcp,START,0.96300,0.00000,-33.39906,-71.75770,0.00000,-31.71256,0.00000,-0.97287,0.02232,0.40790
with_tcp,START,0.96400,0.00000,-33.44148,-71.83865,0.00000,-31.74842,0.00000,-0.97262,0.02232,0.40623
with_tcp,START,0.96500,0.00000,-33.48391,-71.91941,0.00000,-31.78429,0.00000,-0.97236,0.02232,0.40457
with_tcp,START,0.96600,0.00000,-33.52634,-72.00000,0.00000,-31.82015,0.00000,-0.97210,0.02232,0.40290
with_tcp,START,0.96700,0.00000,-33.56876,-72.08041,0.00000,-31.85601,0.00000,-0.97183,0.02232,0.40124
with_tcp,START,0.96800,0.00000,-33.61119,-72.16064,0.00000,-31.89187,0.00000,-0.97157,0.02232,0.39959
with_tcp,START,0.96900,0.00000,-33.65361,-72.24069,0.00000,-31.92773,0.00000,-0.97130,0.02232,0.39793
with_tcp,START,0.97000,0.00000,-33.69604,-72.32056,0.00000,-31.96359,0.00000,-0.97103,0.02232,0.39628
with_tcp,START,0.97100,0.00000,-33.73847,-72.40025,0.00000,-31.99946,0.00000,-0.97075,0.02232,0.39464
with_tcp,START,0.97200,0.00000,-33.78089,-72.47975,0.00000,-32.03532,0.00000,-0.97048,0.02232,0.39299
with_tcp,START,0.97300,0.00000,-33.82332,-72.55908,0.00000,-32.07118,0.00000,-0.97020,0.02232,0.39135
with_tcp,START,0.97400,0.00000,-33.86575,-72.63823,0.00000,-32.10704,0.00000,-0.96992,0.02232,0.38972
with_tcp,START,0.97500,0.00000,-33.90817,-72.71720,0.00000,-32.14290,0.00000,-0.96964,0.02232,0.38808
with_tcp,START,0.97600,0.00000,-33.95060,-72.79599,0.00000,-32.17876,0.00000,-0.96935,0.02232,0.38645
with_tcp,START,0.97700,0.00000,-33.99303,-72.87460,0.00000,-32.21462,0.00000,-0.96906,0.02232,0.38483
with_tcp,START,0.97800,0.00000,-34.03545,-72.95302,0.00000,-32.25049,0.00000,-0.96877,0.02232,0.38320
with_tcp,START,0.97900,0.00000,-34.07788,-73.03127,0.00000,-32.28635,0.00000,-0.96848,0.02232,0.38158
with_tcp,START,0.98000,0.00000,-34.12031,-73.10934,0.00000,-32.32221,0.00000,-0.96819,0.02232,0.37996
with_tcp,START,0.98100,0.00000,-34.16273,-73.18723,0.00000,-32.35807,0.00000,-0.96789,0.02232,0.37835
with_tcp,START,0.98200,0.00000,-34.20516,-73.26494,0.00000,-32.39393,0.00000,-0.96759,0.02232,0.37674
with_tcp,START,0.98300,0.00000,-34.24758,-73.34247,0.00000,-32.42979,0.00000,-0.96729,0.02232,0.37513
with_tcp,START,0.98400,0.00000,-34.29001,-73.41982,0.00000,-32.46565,0.00000,-0.96699,0.02232,0.37353
with_tcp,START,0.98500,0.00000,-34.33244,-73.49698,0.00000,-32.50152,0.00000,-0.96668,0.02232,0.37193
with_tcp,START,0.98600,0.00000,-34.37486,-73.57397,0.00000,-32.53738,0.00000,-0.96637,0.02232,0.37033
with_tcp,START,0.98700,0.00000,-34.41729,-73.65078,0.00000,-32.57324,0.00000,-0.96606,0.02232,0.36874
with_tcp,START,0.98800,0.00000,-34.45972,-73.72741,0.00000,-32.60910,0.00000,-0.96575,0.02232,0.36715
with_tcp,START,0.98900,0.00000,-34.50214,-73.80386,0.00000,-32.64496,0.00000,-0.96543,0.02232,0.36556
