GriTRini/uon_rt/demo/sim/tcp_test/tcp_cross_debug.csv
Scenario,Step,Time,J1,J2,J3,J4,J5,J6,Target_X,Target_Y,Target_Z
no_tcp,BENDING,0.00000,0.00000,-0.00006,-0.00009,0.00000,-0.00011,0.00000,-0.00000,0.03450,1.45250
no_tcp,BENDING,0.00100,0.00000,-0.00024,-0.00036,0.00000,-0.00045,0.00000,-0.00001,0.03450,1.45250
no_tcp,BENDING,0.00200,0.00000,-0.00054,-0.00081,0.00000,-0.00101,0.00000,-0.00002,0.03450,1.45250
no_tcp,BENDING,0.00300,0.00000,-0.00096,-0.00144,0.00000,-0.00180,0.00000,-0.00004,0.03450,1.45250
no_tcp,BENDING,0.00400,0.00000,-0.00150,-0.00225,0.00000,-0.00281,0.00000,-0.00007,0.03450,1.45250
no_tcp,BENDING,0.00500,0.00000,-0.00216,-0.00324,0.00000,-0.00405,0.00000,-0.00010,0.03450,1.45250
no_tcp,BENDING,0.00600,0.00000,-0.00294,-0.00441,0.00000,-0.00551,0.00000,-0.00013,0.03450,1.45250
no_tcp,BENDING,0.00700,0.00000,-0.00384,-0.00576,0.00000,-0.00720,0.00000,-0.00017,0.03450,1.45250
no_tcp,BENDING,0.00800,0.00000,-0.00486,-0.00729,0.00000,-0.00911,0.00000,-0.00022,0.03450,1.45250
no_tcp,BENDING,0.00900,0.00000,-0.00600,-0.00900,0.00000,-0.01125,0.00000,-0.00027,0.03450,1.45250
no_tcp,BENDING,0.01000,0.00000,-0.00726,-0.01089,0.00000,-0.01361,0.00000,-0.00032,0.03450,1.45250
no_tcp,BENDING,0.01100,0.00000,-0.00864,-0.01296,0.00000,-0.01620,0.00000,-0.00038,0.03450,1.45250
no_tcp,BENDING,0.01200,0.00000,-0.01014,-0.01521,0.00000,-0.01901,0.00000,-0.00045,0.03450,1.45250
no_tcp,BENDING,0.01300,0.00000,-0.01176,-0.01764,0.00000,-0.02205,0.00000,-0.00052,0.03450,1.45250
no_tcp,BENDING,0.01400,0.00000,-0.01350,-0.02025,0.00000,-0.02531,0.00000,-0.00060,0.03450,1.45250
no_tcp,BENDING,0.01500,0.00000,-0.01536,-0.02304,0.00000,-0.02880,0.00000,-0.00068,0.03450,1.45250
no_tcp,BENDING,0.01600,0.00000,-0.01734,-0.02601,0.00000,-0.03251,0.00000,-0.00077,0.03450,1.45250
no_tcp,BENDING,0.01700,0.00000,-0.01944,-0.02916,0.00000,-0.03645,0.00000,-0.00086,0.03450,1.45250
no_tcp,BENDING,0.01800,0.00000,-0.02166,-0.03249,0.00000,-0.04061,0.00000,-0.00096,0.03450,1.45250
no_tcp,BENDING,0.01900,0.00000,-0.02400,-0.03600,0.00000,-0.04500,0.00000,-0.00107,0.03450,1.45250
no_tcp,BENDING,0.02000,0.00000,-0.02646,-0.03969,0.00000,-0.04961,0.00000,-0.00118,0.03450,1.45250
no_tcp,BENDING,0.02100,0.00000,-0.02904,-0.04356,0.00000,-0.05445,0.00000,-0.00129,0.03450,1.45250
no_tcp,BENDING,0.02200,0.00000,-0.03174,-0.04761,0.00000,-0.05951,0.00000,-0.00141,0.03450,1.45250
no_tcp,BENDING,0.02300,0.00000,-0.03456,-0.05184,0.00000,-0.06480,0.00000,-0.00154,0.03450,1.45250
no_tcp,BENDING,0.02400,0.00000,-0.03750,-0.05625,0.00000,-0.07031,0.00000,-0.00167,0.03450,1.45250
no_tcp,BENDING,0.02500,0.00000,-0.04056,-0.06084,0.00000,-0.07605,0.00000,-0.00180,0.03450,1.45250
no_tcp,BENDING,0.02600,0.00000,-0.04374,-0.06561,0.00000,-0.08201,0.00000,-0.00194,0.03450,1.45250
no_tcp,BENDING,0.02700,0.00000,-0.04704,-0.07056,0.00000,-0.08820,0.00000,-0.00209,0.03450,1.45250
no_tcp,BENDING,0.02800,0.00000,-0.05046,-0.07569,0.00000,-0.09461,0.00000,-0.00224,0.03450,1.45250
no_tcp,BENDING,0.02900,0.00000,-0.05400,-0.08100,0.00000,-0.10125,0.00000,-0.00240,0.03450,1.45250
no_tcp,BENDING,0.03000,0.00000,-0.05766,-0.08649,0.00000,-0.10811,0.00000,-0.00256,0.03450,1.45250
no_tcp,BENDING,0.03100,0.00000,-0.06144,-0.09216,0.00000,-0.11520,0.00000,-0.00273,0.03450,1.45250
no_tcp,BENDING,0.03200,0.00000,-0.06534,-0.09801,0.00000,-0.12251,0.00000,-0.00290,0.03450,1.45250
no_tcp,BENDING,0.03300,0.00000,-0.06936,-0.10404,0.00000,-0.13005,0.00000,-0.00308,0.03450,1.45250
no_tcp,BENDING,0.03400,0.00000,-0.07350,-0.11025,0.00000,-0.13781,0.00000,-0.00327,0.03450,1.45249
no_tcp,BENDING,0.03500,0.00000,-0.07776,-0.11664,0.00000,-0.14580,0.00000,-0.00346,0.03450,1.45249
no_tcp,BENDING,0.03600,0.00000,-0.08214,-0.12321,0.00000,-0.15401,0.00000,-0.00365,0.03450,1.45249
no_tcp,BENDING,0.03700,0.00000,-0.08664,-0.12996,0.00000,-0.16245,0.00000,-0.00385,0.03450,1.45249
no_tcp,BENDING,0.03800,0.00000,-0.09126,-0.13689,0.00000,-0.17111,0.00000,-0.00406,0.03450,1.45249
no_tcp,BENDING,0.03900,0.00000,-0.09600,-0.14400,0.00000,-0.18000,0.00000,-0.00427,0.03450,1.45249
no_tcp,BENDING,0.04000,0.00000,-0.10086,-0.15129,0.00000,-0.18911,0.00000,-0.00448,0.03450,1.45249
no_tcp,BENDING,0.04100,0.00000,-0.10584,-0.15876,0.00000,-0.19845,0.00000,-0.00470,0.03450,1.45249
no_tcp,BENDING,0.04200,0.00000,-0.11094,-0.16641,0.00000,-0.20801,0.00000,-0.00493,0.03450,1.45249
no_tcp,BENDING,0.04300,0.00000,-0.11616,-0.17424,0.00000,-0.21780,0.00000,-0.00516,0.03450,1.45249
no_tcp,BENDING,0.04400,0.00000,-0.12150,-0.18225,0.00000,-0.22781,0.00000,-0.00540,0.03450,1.45249
no_tcp,BENDING,0.04500,0.00000,-0.12696,-0.19044,0.00000,-0.23805,0.00000,-0.00564,0.03450,1.45248
no_tcp,BENDING,0.04600,0.00000,-0.13254,-0.19881,0.00000,-0.24851,0.00000,-0.00589,0.03450,1.45248
no_tcp,BENDING,0.04700,0.00000,-0.13824,-0.20736,0.00000,-0.25920,0.00000,-0.00614,0.03450,1.45248
no_tcp,BENDING,0.04800,0.00000,-0.14406,-0.21609,0.00000,-0.27011,0.00000,-0.00640,0.03450,1.45248
no_tcp,BENDING,0.04900,0.00000,-0.15000,-0.22500,0.00000,-0.28125,0.00000,-0.00667,0.03450,1.45248
no_tcp,BENDING,0.05000,0.00000,-0.15606,-0.23409,0.00000,-0.29261,0.00000,-0.00694,0.03450,1.45248
no_tcp,BENDING,0.05100,0.00000,-0.16224,-0.24336,0.00000,-0.30420,0.00000,-0.00721,0.03450,1.45247
no_tcp,BENDING,0.05200,0.00000,-0.16854,-0.25281,0.00000,-0.31601,0.00000,-0.00749,0.03450,1.45247
no_tcp,BENDING,0.05300,0.00000,-0.17496,-0.26244,0.00000,-0.32805,0.00000,-0.00778,0.03450,1.45247
no_tcp,BENDING,0.05400,0.00000,-0.18150,-0.27225,0.00000,-0.34031,0.00000,-0.00807,0.03450,1.45247
no_tcp,BENDING,0.05500,0.00000,-0.18816,-0.28224,0.00000,-0.35280,0.00000,-0.00836,0.03450,1.45247
no_tcp,BENDING,0.05600,0.00000,-0.19494,-0.29241,0.00000,-0.36551,0.00000,-0.00867,0.03450,1.45246
no_tcp,BENDING,0.05700,0.00000,-0.20184,-0.30276,0.00000,-0.37845,0.00000,-0.00897,0.03450,1.45246
no_tcp,BENDING,0.05800,0.00000,-0.20886,-0.31329,0.00000,-0.39161,0.00000,-0.00928,0.03450,1.45246
no_tcp,BENDING,0.05900,0.00000,-0.21600,-0.32400,0.00000,-0.40500,0.00000,-0.00960,0.03450,1.45245
no_tcp,BENDING,0.06000,0.00000,-0.22326,-0.33489,0.00000,-0.41861,0.00000,-0.00992,0.03450,1.45245
no_tcp,BENDING,0.06100,0.00000,-0.23064,-0.34596,0.00000,-0.43245,0.00000,-0.01025,0.03450,1.45245
no_tcp,BENDING,0.06200,0.00000,-0.23814,-0.35721,0.00000,-0.44651,0.00000,-0.01059,0.03450,1.45244
no_tcp,BENDING,0.06300,0.00000,-0.24576,-0.36864,0.00000,-0.46080,0.00000,-0.01092,0.03450,1.45244
no_tcp,BENDING,0.06400,0.00000,-0.25350,-0.38025,0.00000,-0.47531,0.00000,-0.01127,0.03450,1.45244
no_tcp,BENDING,0.06500,0.00000,-0.26136,-0.39204,0.00000,-0.49005,0.00000,-0.01162,0.03450,1.45243
no_tcp,BENDING,0.06600,0.00000,-0.26934,-0.40401,0.00000,-0.50501,0.00000,-0.01197,0.03450,1.45243
no_tcp,BENDING,0.06700,0.00000,-0.27744,-0.41616,0.00000,-0.52020,0.00000,-0.01233,0.03450,1.45242
no_tcp,BENDING,0.06800,0.00000,-0.28566,-0.42849,0.00000,-0.53561,0.00000,-0.01270,0.03450,1.45242
no_tcp,BENDING,0.06900,0.00000,-0.29400,-0.44100,0.00000,-0.55125,0.00000,-0.01307,0.03450,1.45242
no_tcp,BENDING,0.07000,0.00000,-0.30246,-0.45369,0.00000,-0.56711,0.00000,-0.01344,0.03450,1.45241
no_tcp,BENDING,0.07100,0.00000,-0.31104,-0.46656,0.00000,-0.58320,0.00000,-0.01383,0.03450,1.45241
no_tcp,BENDING,0.07200,0.00000,-0.31974,-0.47961,0.00000,-0.59951,0.00000,-0.01421,0.03450,1.45240
no_tcp,BENDING,0.07300,0.00000,-0.32856,-0.49284,0.00000,-0.61605,0.00000,-0.01460,0.03450,1.45239
no_tcp,BENDING,0.07400,0.00000,-0.33750,-0.50625,0.00000,-0.63281,0.00000,-0.01500,0.03450,1.45239
no_tcp,BENDING,0.07500,0.00000,-0.34656,-0.51984,0.00000,-0.64980,0.00000,-0.01540,0.03450,1.45238
no_tcp,BENDING,0.07600,0.00000,-0.35574,-0.53361,0.00000,-0.66701,0.00000,-0.01581,0.03450,1.45238
no_tcp,BENDING,0.07700,0.00000,-0.36504,-0.54756,0.00000,-0.68445,0.00000,-0.01623,0.03450,1.45237
no_tcp,BENDING,0.07800,0.00000,-0.37446,-0.56169,0.00000,-0.70211,0.00000,-0.01664,0.03450,1.45236
no_tcp,BENDING,0.07900,0.00000,-0.38400,-0.57600,0.00000,-0.72000,0.00000,-0.01707,0.03450,1.45236
no_tcp,BENDING,0.08000,0.00000,-0.39366,-0.59049,0.00000,-0.73811,0.00000,-0.01750,0.03450,1.45235
no_tcp,BENDING,0.08100,0.00000,-0.40344,-0.60516,0.00000,-0.75645,0.00000,-0.01793,0.03450,1.45234
no_tcp,BENDING,0.08200,0.00000,-0.41334,-0.62001,0.00000,-0.77501,0.00000,-0.01837,0.03450,1.45233
no_tcp,BENDING,0.08300,0.00000,-0.42336,-0.63504,0.00000,-0.79380,0.00000,-0.01882,0.03450,1.45232
no_tcp,BENDING,0.08400,0.00000,-0.43350,-0.65025,0.00000,-0.81281,0.00000,-0.01927,0.03450,1.45232
no_tcp,BENDING,0.08500,0.00000,-0.44376,-0.66564,0.00000,-0.83205,0.00000,-0.01972,0.03450,1.45231
no_tcp,BENDING,0.08600,0.00000,-0.45414,-0.68121,0.00000,-0.85151,0.00000,-0.02019,0.03450,1.45230
no_tcp,BENDING,0.08700,0.00000,-0.46464,-0.69696,0.00000,-0.87120,0.00000,-0.02065,0.03450,1.45229
no_tcp,BENDING,0.08800,0.00000,-0.47526,-0.71289,0.00000,-0.89111,0.00000,-0.02112,0.03450,1.45228
no_tcp,BENDING,0.08900,0.00000,-0.48600,-0.72900,0.00000,-0.91125,0.00000,-0.02160,0.03450,1.45227
no_tcp,BENDING,0.09000,0.00000,-0.49686,-0.74529,0.00000,-0.93161,0.00000,-0.02208,0.03450,1.45226
no_tcp,BENDING,0.09100,0.00000,-0.50784,-0.76176,0.00000,-0.95220,0.00000,-0.02257,0.03450,1.45225
no_tcp,BENDING,0.09200,0.00000,-0.51894,-0.77841,0.00000,-0.97301,0.00000,-0.02307,0.03450,1.45224
no_tcp,BENDING,0.09300,0.00000,-0.53016,-0.79524,0.00000,-0.99405,0.00000,-0.02356,0.03450,1.45222
no_tcp,BENDING,0.09400,0.00000,-0.54150,-0.81225,0.00000,-1.01531,0.00000,-0.02407,0.03450,1.45221
no_tcp,BENDING,0.09500,0.00000,-0.55296,-0.82944,0.00000,-1.03680,0.00000,-0.02458,0.03450,1.45220
no_tcp,BENDING,0.09600,0.00000,-0.56454,-0.84681,0.00000,-1.05851,0.00000,-0.02509,0.03450,1.45219
no_tcp,BENDING,0.09700,0.00000,-0.57624,-0.86436,0.00000,-1.08045,0.00000,-0.02561,0.03450,1.45217
no_tcp,BENDING,0.09800,0.00000,-0.58806,-0.88209,0.00000,-1.10261,0.00000,-0.02614,0.03450,1.45216
no_tcp,BENDING,0.09900,0.00000,-0.60000,-0.90000,0.00000,-1.12500,0.00000,-0.02667,0.03450,1.45215
no_tcp,BENDING,0.10000,0.00000,-0.61206,-0.91809,0.00000,-1.14761,0.00000,-0.02720,0.03450,1.45213
no_tcp,BENDING,0.10100,0.00000,-0.62424,-0.93636,0.00000,-1.17045,0.00000,-0.02774,0.03450,1.45212
no_tcp,BENDING,0.10200,0.00000,-0.63654,-0.95481,0.00000,-1.19351,0.00000,-0.02829,0.03450,1.45210
no_tcp,BENDING,0.10300,0.00000,-0.64896,-0.97344,0.00000,-1.21680,0.00000,-0.02884,0.03450,1.45209
no_tcp,BENDING,0.10400,0.00000,-0.66150,-0.99225,0.00000,-1.24031,0.00000,-0.02940,0.03450,1.45207
no_tcp,BENDING,0.10500,0.00000,-0.67416,-1.01124,0.00000,-1.26405,0.00000,-0.02996,0.03450,1.45205
no_tcp,BENDING,0.10600,0.00000,-0.68694,-1.03041,0.00000,-1.28801,0.00000,-0.03053,0.03450,1.45204
no_tcp,BENDING,0.10700,0.00000,-0.69984,-1.04976,0.00000,-1.31220,0.00000,-0.03110,0.03450,1.45202
no_tcp,BENDING,0.10800,0.00000,-0.71286,-1.06929,0.00000,-1.33661,0.00000,-0.03168,0.03450,1.45200
no_tcp,BENDING,0.10900,0.00000,-0.72600,-1.08900,0.00000,-1.36125,0.00000,-0.03227,0.03450,1.45198
no_tcp,BENDING,0.11000,0.00000,-0.73926,-1.10889,0.00000,-1.38611,0.00000,-0.03285,0.03450,1.45196
no_tcp,BENDING,0.11100,0.00000,-0.75264,-1.12896,0.00000,-1.41120,0.00000,-0.03345,0.03450,1.45195
no_tcp,BENDING,0.11200,0.00000,-0.76614,-1.14921,0.00000,-1.43651,0.00000,-0.03405,0.03450,1.45193
no_tcp,BENDING,0.11300,0.00000,-0.77976,-1.16964,0.00000,-1.46205,0.00000,-0.03465,0.03450,1.45190
no_tcp,BENDING,0.11400,0.00000,-0.79350,-1.19025,0.00000,-1.48781,0.00000,-0.03526,0.03450,1.45188
no_tcp,BENDING,0.11500,0.00000,-0.80736,-1.21104,0.00000,-1.51380,0.00000,-0.03588,0.03450,1.45186
no_tcp,BENDING,0.11600,0.00000,-0.82134,-1.23201,0.00000,-1.54001,0.00000,-0.03650,0.03450,1.45184
no_tcp,BENDING,0.11700,0.00000,-0.83544,-1.25316,0.00000,-1.56645,0.00000,-0.03713,0.03450,1.45182
no_tcp,BENDING,0.11800,0.00000,-0.84966,-1.27449,0.00000,-1.59311,0.00000,-0.03776,0.03450,1.45179
no_tcp,BENDING,0.11900,0.00000,-0.86400,-1.29600,0.00000,-1.62000,0.00000,-0.03839,0.03450,1.45177
no_tcp,BENDING,0.12000,0.00000,-0.87846,-1.31769,0.00000,-1.64711,0.00000,-0.03904,0.03450,1.45174
no_tcp,BENDING,0.12100,0.00000,-0.89304,-1.33956,0.00000,-1.67445,0.00000,-0.03968,0.03450,1.45172
no_tcp,BENDING,0.12200,0.00000,-0.90774,-1.36161,0.00000,-1.70201,0.00000,-0.04034,0.03450,1.45169
no_tcp,BENDING,0.12300,0.00000,-0.92256,-1.38384,0.00000,-1.72980,0.00000,-0.04100,0.03450,1.45167
no_tcp,BENDING,0.12400,0.00000,-0.93750,-1.40625,0.00000,-1.75781,0.00000,-0.04166,0.03450,1.45164
no_tcp,BENDING,0.12500,0.00000,-0.95256,-1.42884,0.00000,-1.78605,0.00000,-0.04233,0.03450,1.45161
no_tcp,BENDING,0.12600,0.00000,-0.96774,-1.45161,0.00000,-1.81451,0.00000,-0.04300,0.03450,1.45158
no_tcp,BENDING,0.12700,0.00000,-0.98304,-1.47456,0.00000,-1.84320,0.00000,-0.04368,0.03450,1.45155
no_tcp,BENDING,0.12800,0.00000,-0.99846,-1.49769,0.00000,-1.87211,0.00000,-0.04437,0.03450,1.45152
no_tcp,BENDING,0.12900,0.00000,-1.01400,-1.52100,0.00000,-1.90125,0.00000,-0.04506,0.03450,1.45149
no_tcp,BENDING,0.13000,0.00000,-1.02966,-1.54449,0.00000,-1.93061,0.00000,-0.04575,0.03450,1.45146
no_tcp,BENDING,0.13100,0.00000,-1.04544,-1.56816,0.00000,-1.96020,0.00000,-0.04645,0.03450,1.45143
no_tcp,BENDING,0.13200,0.00000,-1.06134,-1.59201,0.00000,-1.99001,0.00000,-0.04716,0.03450,1.45140
no_tcp,BENDING,0.13300,0.00000,-1.07736,-1.61604,0.00000,-2.02005,0.00000,-0.04787,0.03450,1.45136
no_tcp,BENDING,0.13400,0.00000,-1.09350,-1.64025,0.00000,-2.05031,0.00000,-0.04858,0.03450,1.45133
no_tcp,BENDING,0.13500,0.00000,-1.10976,-1.66464,0.00000,-2.08080,0.00000,-0.04931,0.03450,1.45129
no_tcp,BENDING,0.13600,0.00000,-1.12614,-1.68921,0.00000,-2.11151,0.00000,-0.05003,0.03450,1.45126
no_tcp,BENDING,0.13700,0.00000,-1.14264,-1.71396,0.00000,-2.14245,0.00000,-0.05077,0.03450,1.45122
no_tcp,BENDING,0.13800,0.00000,-1.15926,-1.73889,0.00000,-2.17361,0.00000,-0.05150,0.03450,1.45118
no_tcp,BENDING,0.13900,0.00000,-1.17600,-1.76400,0.00000,-2.20500,0.00000,-0.05225,0.03450,1.45115
no_tcp,BENDING,0.14000,0.00000,-1.19286,-1.78929,0.00000,-2.23661,0.00000,-0.05299,0.03450,1.45111
no_tcp,BENDING,0.14100,0.00000,-1.20984,-1.81476,0.00000,-2.26845,0.00000,-0.05375,0.03450,1.45107
no_tcp,BENDING,0.14200,0.00000,-1.22694,-1.84041,0.00000,-2.30051,0.00000,-0.05451,0.03450,1.45103
no_tcp,BENDING,0.14300,0.00000,-1.24416,-1.86624,0.00000,-2.33280,0.00000,-0.05527,0.03450,1.45098
no_tcp,BENDING,0.14400,0.00000,-1.26150,-1.89225,0.00000,-2.36531,0.00000,-0.05604,0.03450,1.45094
no_tcp,BENDING,0.14500,0.00000,-1.27896,-1.91844,0.00000,-2.39805,0.00000,-0.05682,0.03450,1.45090
no_tcp,BENDING,0.14600,0.00000,-1.29654,-1.94481,0.00000,-2.43101,0.00000,-0.05760,0.03450,1.45085
no_tcp,BENDING,0.14700,0.00000,-1.31424,-1.97136,0.00000,-2.46420,0.00000,-0.05838,0.03450,1.45081
no_tcp,BENDING,0.14800,0.00000,-1.33206,-1.99809,0.00000,-2.49761,0.00000,-0.05917,0.03450,1.45076
no_tcp,BENDING,0.14900,0.00000,-1.35000,-2.02500,0.00000,-2.53125,0.00000,-0.05997,0.03450,1.45072
no_tcp,BENDING,0.15000,0.00000,-1.36806,-2.05209,0.00000,-2.56511,0.00000,-0.06077,0.03450,1.45067
no_tcp,BENDING,0.15100,0.00000,-1.38624,-2.07936,0.00000,-2.59920,0.00000,-0.06157,0.03450,1.45062
no_tcp,BENDING,0.15200,0.00000,-1.40454,-2.10681,0.00000,-2.63351,0.00000,-0.06239,0.03450,1.45057
no_tcp,BENDING,0.15300,0.00000,-1.42296,-2.13444,0.00000,-2.66805,0.00000,-0.06320,0.03450,1.45052
no_tcp,BENDING,0.15400,0.00000,-1.44150,-2.16225,0.00000,-2.70281,0.00000,-0.06402,0.03450,1.45047
no_tcp,BENDING,0.15500,0.00000,-1.46016,-2.19024,0.00000,-2.73780,0.00000,-0.06485,0.03450,1.45041
no_tcp,BENDING,0.15600,0.00000,-1.47894,-2.21841,0.00000,-2.77301,0.00000,-0.06569,0.03450,1.45036
no_tcp,BENDING,0.15700,0.00000,-1.49784,-2.24676,0.00000,-2.80845,0.00000,-0.06652,0.03450,1.45030
no_tcp,BENDING,0.15800,0.00000,-1.51686,-2.27529,0.00000,-2.84411,0.00000,-0.06737,0.03450,1.45025
no_tcp,BENDING,0.15900,0.00000,-1.53600,-2.30400,0.00000,-2.87996,0.00000,-0.06821,0.03450,1.45019
no_tcp,BENDING,0.16000,0.00000,-1.55526,-2.33289,0.00000,-2.91582,0.00000,-0.06907,0.03450,1.45013
no_tcp,BENDING,0.16100,0.00000,-1.57464,-2.36196,0.00000,-2.95168,0.00000,-0.06993,0.03450,1.45007
no_tcp,BENDING,0.16200,0.00000,-1.59414,-2.39121,0.00000,-2.98754,0.00000,-0.07079,0.03450,1.45001
no_tcp,BENDING,0.16300,0.00000,-1.61376,-2.42064,0.00000,-3.02340,0.00000,-0.07166,0.03450,1.44995
no_tcp,BENDING,0.16400,0.00000,-1.63350,-2.45025,0.00000,-3.05926,0.00000,-0.07253,0.03450,1.44989
no_tcp,BENDING,0.16500,0.00000,-1.65336,-2.48004,0.00000,-3.09513,0.00000,-0.07341,0.03450,1.44983
no_tcp,BENDING,0.16600,0.00000,-1.67334,-2.51001,0.00000,-3.13099,0.00000,-0.07429,0.03450,1.44976
no_tcp,BENDING,0.16700,0.00000,-1.69344,-2.54016,0.00000,-3.16685,0.00000,-0.07517,0.03450,1.44970
no_tcp,BENDING,0.16800,0.00000,-1.71366,-2.57049,0.00000,-3.20271,0.00000,-0.07607,0.03450,1.44963
no_tcp,BENDING,0.16900,0.00000,-1.73400,-2.60100,0.00000,-3.23857,0.00000,-0.07696,0.03450,1.44956
no_tcp,BENDING,0.17000,0.00000,-1.75446,-2.63169,0.00000,-3.27443,0.00000,-0.07786,0.03450,1.44949
no_tcp,BENDING,0.17100,0.00000,-1.77504,-2.66256,0.00000,-3.31029,0.00000,-0.07877,0.03450,1.44942
no_tcp,BENDING,0.17200,0.00000,-1.79574,-2.69361,0.00000,-3.34616,0.00000,-0.07968,0.03450,1.44935
no_tcp,BENDING,0.17300,0.00000,-1.81656,-2.72484,0.00000,-3.38202,0.00000,-0.08059,0.03450,1.44928
no_tcp,BENDING,0.17400,0.00000,-1.83750,-2.75625,0.00000,-3.41788,0.00000,-0.08151,0.03450,1.44920
no_tcp,BENDING,0.17500,0.00000,-1.85856,-2.78784,0.00000,-3.45374,0.00000,-0.08244,0.03450,1.44913
no_tcp,BENDING,0.17600,0.00000,-1.87974,-2.81961,0.00000,-3.48960,0.00000,-0.08337,0.03450,1.44905
no_tcp,BENDING,0.17700,0.00000,-1.90104,-2.85156,0.00000,-3.52546,0.00000,-0.08430,0.03450,1.44898
no_tcp,BENDING,0.17800,0.00000,-1.92246,-2.88369,0.00000,-3.56132,0.00000,-0.08524,0.03450,1.44890
no_tcp,BENDING,0.17900,0.00000,-1.94400,-2.91600,0.00000,-3.59719,0.00000,-0.08619,0.03450,1.44882
no_tcp,BENDING,0.18000,0.00000,-1.96566,-2.94849,0.00000,-3.63305,0.00000,-0.08714,0.03450,1.44874
no_tcp,BENDING,0.18100,0.00000,-1.98744,-2.98116,0.00000,-3.66891,0.00000,-0.08809,0.03450,1.44865
no_tcp,BENDING,0.18200,0.00000,-2.00934,-3.01401,0.00000,-3.70477,0.00000,-0.08905,0.03450,1.44857
no_tcp,BENDING,0.18300,0.00000,-2.03136,-3.04704,0.00000,-3.74063,0.00000,-0.09001,0.03450,1.44849
no_tcp,BENDING,0.18400,0.00000,-2.05350,-3.08025,0.00000,-3.77649,0.00000,-0.09098,0.03450,1.44840
no_tcp,BENDING,0.18500,0.00000,-2.07576,-3.11364,0.00000,-3.81236,0.00000,-0.09195,0.03450,1.44831
no_tcp,BENDING,0.18600,0.00000,-2.09814,-3.14721,0.00000,-3.84822,0.00000,-0.09293,0.03450,1.44822
no_tcp,BENDING,0.18700,0.00000,-2.12064,-3.18096,0.00000,-3.88408,0.00000,-0.09391,0.03450,1.44813
no_tcp,BENDING,0.18800,0.00000,-2.14326,-3.21489,0.00000,-3.91994,0.00000,-0.09490,0.03450,1.44804
no_tcp,BENDING,0.18900,0.00000,-2.16600,-3.24900,0.00000,-3.95580,0.00000,-0.09589,0.03450,1.44795
no_tcp,BENDING,0.19000,0.00000,-2.18886,-3.28329,0.00000,-3.99166,0.00000,-0.09688,0.03450,1.44785
no_tcp,BENDING,0.19100,0.00000,-2.21184,-3.31776,0.00000,-4.02752,0.00000,-0.09788,0.03450,1.44776
no_tcp,BENDING,0.19200,0.00000,-2.23494,-3.35241,0.00000,-4.06339,0.00000,-0.09889,0.03450,1.44766
no_tcp,BENDING,0.19300,0.00000,-2.25816,-3.38724,0.00000,-4.09925,0.00000,-0.09990,0.03450,1.44756
no_tcp,BENDING,0.19400,0.00000,-2.28150,-3.42225,0.00000,-4.13511,0.00000,-0.10091,0.03450,1.44746
no_tcp,BENDING,0.19500,0.00000,-2.30496,-3.45744,0.00000,-4.17097,0.00000,-0.10193,0.03450,1.44736
no_tcp,BENDING,0.19600,0.00000,-2.32854,-3.49281,0.00000,-4.20683,0.00000,-0.10296,0.03450,1.44726
no_tcp,BENDING,0.19700,0.00000,-2.35224,-3.52836,0.00000,-4.24269,0.00000,-0.10399,0.03450,1.44715
no_tcp,BENDING,0.19800,0.00000,-2.37606,-3.56409,0.00000,-4.27855,0.00000,-0.10502,0.03450,1.44705
no_tcp,BENDING,0.19900,0.00000,-2.40000,-3.60000,0.00000,-4.31442,0.00000,-0.10606,0.03450,1.44694
no_tcp,BENDING,0.20000,0.00000,-2.42406,-3.63609,0.00000,-4.35028,0.00000,-0.10710,0.03450,1.44683
no_tcp,BENDING,0.20100,0.00000,-2.44824,-3.67236,0.00000,-4.38614,0.00000,-0.10815,0.03450,1.44672
no_tcp,BENDING,0.20200,0.00000,-2.47254,-3.70881,0.00000,-4.42200,0.00000,-0.10920,0.03450,1.44661
no_tcp,BENDING,0.20300,0.00000,-2.49696,-3.74544,0.00000,-4.45786,0.00000,-0.11026,0.03450,1.44649
no_tcp,BENDING,0.20400,0.00000,-2.52150,-3.78225,0.00000,-4.49372,0.00000,-0.11132,0.03450,1.44638
no_tcp,BENDING,0.20500,0.00000,-2.54616,-3.81924,0.00000,-4.52958,0.00000,-0.11239,0.03450,1.44626
no_tcp,BENDING,0.20600,0.00000,-2.57094,-3.85641,0.00000,-4.56545,0.00000,-0.11346,0.03450,1.44614
no_tcp,BENDING,0.20700,0.00000,-2.59584,-3.89376,0.00000,-4.60131,0.00000,-0.11454,0.03450,1.44602
no_tcp,BENDING,0.20800,0.00000,-2.62086,-3.93129,0.00000,-4.63717,0.00000,-0.11562,0.03450,1.44590
no_tcp,BENDING,0.20900,0.00000,-2.64600,-3.96900,0.00000,-4.67303,0.00000,-0.11670,0.03450,1.44578
no_tcp,BENDING,0.21000,0.00000,-2.67126,-4.00689,0.00000,-4.70889,0.00000,-0.11779,0.03450,1.44565
no_tcp,BENDING,0.21100,0.00000,-2.69664,-4.04496,0.00000,-4.74475,0.00000,-0.11889,0.03450,1.44552
no_tcp,BENDING,0.21200,0.00000,-2.72214,-4.08321,0.00000,-4.78061,0.00000,-0.11999,0.03450,1.44540
no_tcp,BENDING,0.21300,0.00000,-2.74776,-4.12164,0.00000,-4.81648,0.00000,-0.12109,0.03450,1.44527
no_tcp,BENDING,0.21400,0.00000,-2.77350,-4.16025,0.00000,-4.85234,0.00000,-0.12220,0.03450,1.44513
no_tcp,BENDING,0.21500,0.00000,-2.79936,-4.19904,0.00000,-4.88820,0.00000,-0.12331,0.03450,1.44500
no_tcp,BENDING,0.21600,0.00000,-2.82534,-4.23801,0.00000,-4.92406,0.00000,-0.12443,0.03450,1.44487
no_tcp,BENDING,0.21700,0.00000,-2.85144,-4.27716,0.00000,-4.95992,0.00000,-0.12555,0.03450,1.44473
no_tcp,BENDING,0.21800,0.00000,-2.87766,-4.31649,0.00000,-4.99578,0.00000,-0.12668,0.03450,1.44459
no_tcp,BENDING,0.21900,0.00000,-2.90400,-4.35600,0.00000,-5.03164,0.00000,-0.12781,0.03450,1.44445
no_tcp,BENDING,0.22000,0.00000,-2.93046,-4.39569,0.00000,-5.06751,0.00000,-0.12895,0.03450,1.44431
no_tcp,BENDING,0.22100,0.00000,-2.95704,-4.43556,0.00000,-5.10337,0.00000,-0.13009,0.03450,1.44416
no_tcp,BENDING,0.22200,0.00000,-2.98374,-4.47561,0.00000,-5.13923,0.00000,-0.13124,0.03450,1.44402
no_tcp,BENDING,0.22300,0.00000,-3.01056,-4.51584,0.00000,-5.17509,0.00000,-0.13239,0.03450,1.44387
no_tcp,BENDING,0.22400,0.00000,-3.03750,-4.55625,0.00000,-5.21095,0.00000,-0.13354,0.03450,1.44372
no_tcp,BENDING,0.22500,0.00000,-3.06456,-4.59684,0.00000,-5.24681,0.00000,-0.13470,0.03450,1.44357
no_tcp,BENDING,0.22600,0.00000,-3.09174,-4.63761,0.00000,-5.28267,0.00000,-0.13587,0.03450,1.44341
no_tcp,BENDING,0.22700,0.00000,-3.11904,-4.67856,0.00000,-5.31854,0.00000,-0.13703,0.03450,1.44326
no_tcp,BENDING,0.22800,0.00000,-3.14646,-4.71969,0.00000,-5.35440,0.00000,-0.13821,0.03450,1.44310
no_tcp,BENDING,0.22900,0.00000,-3.17400,-4.76100,0.00000,-5.39026,0.00000,-0.13939,0.03450,1.44294
no_tcp,BENDING,0.23000,0.00000,-3.20166,-4.80249,0.00000,-5.42612,0.00000,-0.14057,0.03450,1.44278
no_tcp,BENDING,0.23100,0.00000,-3.22944,-4.84416,0.00000,-5.46198,0.00000,-0.14176,0.03450,1.44261
no_tcp,BENDING,0.23200,0.00000,-3.25734,-4.88601,0.00000,-5.49784,0.00000,-0.14295,0.03450,1.44245
no_tcp,BENDING,0.23300,0.00000,-3.28536,-4.92804,0.00000,-5.53370,0.00000,-0.14414,0.03450,1.44228
no_tcp,BENDING,0.23400,0.00000,-3.31350,-4.97025,0.00000,-5.56957,0.00000,-0.14535,0.03450,1.44211
no_tcp,BENDING,0.23500,0.00000,-3.34176,-5.01264,0.00000,-5.60543,0.00000,-0.14655,0.03450,1.44194
no_tcp,BENDING,0.23600,0.00000,-3.37014,-5.05521,0.00000,-5.64129,0.00000,-0.14776,0.03450,1.44177
no_tcp,BENDING,0.23700,0.00000,-3.39864,-5.09796,0.00000,-5.67715,0.00000,-0.14898,0.03450,1.44159
no_tcp,BENDING,0.23800,0.00000,-3.42726,-5.14089,0.00000,-5.71301,0.00000,-0.15020,0.03450,1.44141
no_tcp,BENDING,0.23900,0.00000,-3.45600,-5.18400,0.00000,-5.74887,0.00000,-0.15142,0.03450,1.44123
no_tcp,BENDING,0.24000,0.00000,-3.48486,-5.22729,0.00000,-5.78473,0.00000,-0.15265,0.03450,1.44105
no_tcp,BENDING,0.24100,0.00000,-3.51384,-5.27076,0.00000,-5.82060,0.00000,-0.15388,0.03450,1.44087
no_tcp,BENDING,0.24200,0.00000,-3.54294,-5.31441,0.00000,-5.85646,0.00000,-0.15512,0.03450,1.44068
no_tcp,BENDING,0.24300,0.00000,-3.57216,-5.35824,0.00000,-5.89232,0.00000,-0.15636,0.03450,1.44049
no_tcp,BENDING,0.24400,0.00000,-3.60150,-5.40225,0.00000,-5.92818,0.00000,-0.15761,0.03450,1.44030
no_tcp,BENDING,0.24500,0.00000,-3.63096,-5.44644,0.00000,-5.96404,0.00000,-0.15886,0.03450,1.44011
no_tcp,BENDING,0.24600,0.00000,-3.66054,-5.49081,0.00000,-5.99990,0.00000,-0.16011,0.03450,1.43991
no_tcp,BENDING,0.24700,0.00000,-3.69024,-5.53536,0.00000,-6.03576,0.00000,-0.16137,0.03450,1.43972
no_tcp,BENDING,0.24800,0.00000,-3.72006,-5.58009,0.00000,-6.07163,0.00000,-0.16264,0.03450,1.43952
no_tcp,BENDING,0.24900,0.00000,-3.75000,-5.62500,0.00000,-6.10749,0.00000,-0.16391,0.03450,1.43932
no_tcp,BENDING,0.25000,0.00000,-3.78006,-5.67009,0.00000,-6.14335,0.00000,-0.16518,0.03450,1.43911
no_tcp,BENDING,0.25100,0.00000,-3.81024,-5.71536,0.00000,-6.17921,0.00000,-0.16646,0.03450,1.43890
no_tcp,BENDING,0.25200,0.00000,-3.84054,-5.76081,0.00000,-6.21507,0.00000,-0.16774,0.03450,1.43870
no_tcp,BENDING,0.25300,0.00000,-3.87096,-5.80644,0.00000,-6.25093,0.00000,-0.16903,0.03450,1.43849
no_tcp,BENDING,0.25400,0.00000,-3.90150,-5.85225,0.00000,-6.28680,0.00000,-0.17032,0.03450,1.43827
no_tcp,BENDING,0.25500,0.00000,-3.93216,-5.89824,0.00000,-6.32266,0.00000,-0.17162,0.03450,1.43806
no_tcp,BENDING,0.25600,0.00000,-3.96294,-5.94441,0.00000,-6.35852,0.00000,-0.17292,0.03450,1.43784
no_tcp,BENDING,0.25700,0.00000,-3.99384,-5.99076,0.00000,-6.39438,0.00000,-0.17422,0.03450,1.43762
no_tcp,BENDING,0.25800,0.00000,-4.02486,-6.03729,0.00000,-6.43024,0.00000,-0.17553,0.03450,1.43739
no_tcp,BENDING,0.25900,0.00000,-4.05600,-6.08400,0.00000,-6.46610,0.00000,-0.17685,0.03450,1.43717
no_tcp,BENDING,0.26000,0.00000,-4.08726,-6.13089,0.00000,-6.50196,0.00000,-0.17817,0.03450,1.43694
no_tcp,BENDING,0.26100,0.00000,-4.11864,-6.17796,0.00000,-6.53783,0.00000,-0.17949,0.03450,1.43671
no_tcp,BENDING,0.26200,0.00000,-4.15014,-6.22521,0.00000,-6.57369,0.00000,-0.18082,0.03450,1.43648
no_tcp,BENDING,0.26300,0.00000,-4.18176,-6.27264,0.00000,-6.60955,0.00000,-0.18215,0.03450,1.43624
no_tcp,BENDING,0.26400,0.00000,-4.21350,-6.32025,0.00000,-6.64541,0.00000,-0.18349,0.03450,1.43601
no_tcp,BENDING,0.26500,0.00000,-4.24536,-6.36804,0.00000,-6.68127,0.00000,-0.18483,0.03450,1.43577
no_tcp,BENDING,0.26600,0.00000,-4.27734,-6.41601,0.00000,-6.71713,0.00000,-0.18617,0.03450,1.43552
no_tcp,BENDING,0.26700,0.00000,-4.30944,-6.46416,0.00000,-6.75299,0.00000,-0.18752,0.03450,1.43528
no_tcp,BENDING,0.26800,0.00000,-4.34166,-6.51249,0.00000,-6.78886,0.00000,-0.18887,0.03450,1.43503
no_tcp,BENDING,0.26900,0.00000,-4.37400,-6.56100,0.00000,-6.82472,0.00000,-0.19023,0.03450,1.43478
no_tcp,BENDING,0.27000,0.00000,-4.40646,-6.60969,0.00000,-6.86058,0.00000,-0.19160,0.03450,1.43452
no_tcp,BENDING,0.27100,0.00000,-4.43904,-6.65856,0.00000,-6.89644,0.00000,-0.19296,0.03450,1.43427
no_tcp,BENDING,0.27200,0.00000,-4.47174,-6.70761,0.00000,-6.93230,0.00000,-0.19433,0.03450,1.43401
no_tcp,BENDING,0.27300,0.00000,-4.50456,-6.75684,0.00000,-6.96816,0.00000,-0.19571,0.03450,1.43375
no_tcp,BENDING,0.27400,0.00000,-4.53750,-6.80625,0.00000,-7.00402,0.00000,-0.19709,0.03450,1.43349
no_tcp,BENDING,0.27500,0.00000,-4.57056,-6.85584,0.00000,-7.03989,0.00000,-0.19848,0.03450,1.43322
no_tcp,BENDING,0.27600,0.00000,-4.60374,-6.90561,0.00000,-7.07575,0.00000,-0.19986,0.03450,1.43295
no_tcp,BENDING,0.27700,0.00000,-4.63704,-6.95556,0.00000,-7.11161,0.00000,-0.20126,0.03450,1.43268
no_tcp,BENDING,0.27800,0.00000,-4.67046,-7.00569,0.00000,-7.14747,0.00000,-0.20265,0.03450,1.43240
no_tcp,BENDING,0.27900,0.00000,-4.70400,-7.05600,0.00000,-7.18333,0.00000,-0.20406,0.03450,1.43212
no_tcp,BENDING,0.28000,0.00000,-4.73766,-7.10649,0.00000,-7.21919,0.00000,-0.20546,0.03450,1.43184
no_tcp,BENDING,0.28100,0.00000,-4.77144,-7.15716,0.00000,-7.25505,0.00000,-0.20687,0.03450,1.43156
no_tcp,BENDING,0.28200,0.00000,-4.80534,-7.20801,0.00000,-7.29092,0.00000,-0.20829,0.03450,1.43128
no_tcp,BENDING,0.28300,0.00000,-4.83936,-7.25904,0.00000,-7.32678,0.00000,-0.20971,0.03450,1.43099
no_tcp,BENDING,0.28400,0.00000,-4.87350,-7.31025,0.00000,-7.36264,0.00000,-0.21113,0.03450,1.43069
no_tcp,BENDING,0.28500,0.00000,-4.90776,-7.36164,0.00000,-7.39850,0.00000,-0.21256,0.03450,1.43040
no_tcp,BENDING,0.28600,0.00000,-4.94214,-7.41321,0.00000,-7.43436,0.00000,-0.21399,0.03450,1.43010
no_tcp,BENDING,0.28700,0.00000,-4.97664,-7.46496,0.00000,-7.47022,0.00000,-0.21543,0.03450,1.42980
no_tcp,BENDING,0.28800,0.00000,-5.01126,-7.51689,0.00000,-7.50608,0.00000,-0.21687,0.03450,1.42950
no_tcp,BENDING,0.28900,0.00000,-5.04600,-7.56900,0.00000,-7.54195,0.00000,-0.21831,0.03450,1.42919
no_tcp,BENDING,0.29000,0.00000,-5.08086,-7.62129,0.00000,-7.57781,0.00000,-0.21976,0.03450,1.42888
no_tcp,BENDING,0.29100,0.00000,-5.11584,-7.67376,0.00000,-7.61367,0.00000,-0.22122,0.03450,1.42857
no_tcp,BENDING,0.29200,0.00000,-5.15094,-7.72641,0.00000,-7.64953,0.00000,-0.22267,0.03450,1.42825
no_tcp,BENDING,0.29300,0.00000,-5.18616,-7.77924,0.00000,-7.68539,0.00000,-0.22413,0.03450,1.42794
no_tcp,BENDING,0.29400,0.00000,-5.22150,-7.83225,0.00000,-7.72125,0.00000,-0.22560,0.03450,1.42761
no_tcp,BENDING,0.29500,0.00000,-5.25696,-7.88544,0.00000,-7.75711,0.00000,-0.22707,0.03450,1.42729
no_tcp,BENDING,0.29600,0.00000,-5.29254,-7.93881,0.00000,-7.79298,0.00000,-0.22855,0.03450,1.42696
no_tcp,BENDING,0.29700,0.00000,-5.32824,-7.99236,0.00000,-7.82884,0.00000,-0.23002,0.03450,1.42663
no_tcp,BENDING,0.29800,0.00000,-5.36406,-8.04609,0.00000,-7.86470,0.00000,-0.23151,0.03450,1.42630
no_tcp,BENDING,0.29900,0.00000,-5.40000,-8.10000,0.00000,-7.90056,0.00000,-0.23299,0.03450,1.42596
no_tcp,BENDING,0.30000,0.00000,-5.43606,-8.15409,0.00000,-7.93642,0.00000,-0.23449,0.03450,1.42562
no_tcp,BENDING,0.30100,0.00000,-5.47224,-8.20836,0.00000,-7.97228,0.00000,-0.23598,0.03450,1.42528
no_tcp,BENDING,0.30200,0.00000,-5.50854,-8.26281,0.00000,-8.00814,0.00000,-0.23748,0.03450,1.42493
no_tcp,BENDING,0.30300,0.00000,-5.54496,-8.31744,0.00000,-8.04401,0.00000,-0.23898,0.03450,1.42458
no_tcp,BENDING,0.30400,0.00000,-5.58150,-8.37225,0.00000,-8.07987,0.00000,-0.24049,0.03450,1.42423
no_tcp,BENDING,0.30500,0.00000,-5.61816,-8.42724,0.00000,-8.11573,0.00000,-0.24200,0.03450,1.42387
no_tcp,BENDING,0.30600,0.00000,-5.65494,-8.48241,0.00000,-8.15159,0.00000,-0.24352,0.03450,1.42351
no_tcp,BENDING,0.30700,0.00000,-5.69184,-8.53776,0.00000,-8.18745,0.00000,-0.24504,0.03450,1.42315
no_tcp,BENDING,0.30800,0.00000,-5.72886,-8.59329,0.00000,-8.22331,0.00000,-0.24656,0.03450,1.42278
no_tcp,BENDING,0.30900,0.00000,-5.76600,-8.64900,0.00000,-8.25917,0.00000,-0.24809,0.03450,1.42241
no_tcp,BENDING,0.31000,0.00000,-5.80326,-8.70489,0.00000,-8.29504,0.00000,-0.24962,0.03450,1.42204
no_tcp,BENDING,0.31100,0.00000,-5.84064,-8.76096,0.00000,-8.33090,0.00000,-0.25116,0.03450,1.42166
no_tcp,BENDING,0.31200,0.00000,-5.87814,-8.81721,0.00000,-8.36676,0.00000,-0.25270,0.03450,1.42128
no_tcp,BENDING,0.31300,0.00000,-5.91576,-8.87364,0.00000,-8.40262,0.00000,-0.25425,0.03450,1.42090
no_tcp,BENDING,0.31400,0.00000,-5.95350,-8.93025,0.00000,-8.43848,0.00000,-0.25580,0.03450,1.42051
no_tcp,BENDING,0.31500,0.00000,-5.99136,-8.98704,0.00000,-8.47434,0.00000,-0.25735,0.03450,1.42012
no_tcp,BENDING,0.31600,0.00000,-6.02934,-9.04401,0.00000,-8.51021,0.00000,-0.25890,0.03450,1.41973
no_tcp,BENDING,0.31700,0.00000,-6.06744,-9.10116,0.00000,-8.54607,0.00000,-0.26047,0.03450,1.41933
no_tcp,BENDING,0.31800,0.00000,-6.10566,-9.15849,0.00000,-8.58193,0.00000,-0.26203,0.03450,1.41893
no_tcp,BENDING,0.31900,0.00000,-6.14400,-9.21600,0.00000,-8.61779,0.00000,-0.26360,0.03450,1.41853
no_tcp,BENDING,0.32000,0.00000,-6.18246,-9.27369,0.00000,-8.65365,0.00000,-0.26517,0.03450,1.41812
no_tcp,BENDING,0.32100,0.00000,-6.22104,-9.33156,0.00000,-8.68951,0.00000,-0.26675,0.03450,1.41771
no_tcp,BENDING,0.32200,0.00000,-6.25974,-9.38961,0.00000,-8.72537,0.00000,-0.26833,0.03450,1.41730
no_tcp,BENDING,0.32300,0.00000,-6.29856,-9.44784,0.00000,-8.76124,0.00000,-0.26991,0.03450,1.41688
no_tcp,BENDING,0.32400,0.00000,-6.33750,-9.50625,0.00000,-8.79710,0.00000,-0.27150,0.03450,1.41646
no_tcp,BENDING,0.32500,0.00000,-6.37656,-9.56484,0.00000,-8.83296,0.00000,-0.27309,0.03450,1.41603
no_tcp,BENDING,0.32600,0.00000,-6.41574,-9.62361,0.00000,-8.86882,0.00000,-0.27469,0.03450,1.41560
no_tcp,BENDING,0.32700,0.00000,-6.45504,-9.68256,0.00000,-8.90468,0.00000,-0.27629,0.03450,1.41517
no_tcp,BENDING,0.32800,0.00000,-6.49446,-9.74169,0.00000,-8.94054,0.00000,-0.27790,0.03450,1.41473
no_tcp,BENDING,0.32900,0.00000,-6.53400,-9.80100,0.00000,-8.97640,0.00000,-0.27950,0.03450,1.41429
no_tcp,BENDING,0.33000,0.00000,-6.57366,-9.86049,0.00000,-9.01227,0.00000,-0.28112,0.03450,1.41385
no_tcp,BENDING,0.33100,0.00000,-6.61344,-9.92016,0.00000,-9.04813,0.00000,-0.28273,0.03450,1.41340
no_tcp,BENDING,0.33200,0.00000,-6.65334,-9.98001,0.00000,-9.08399,0.00000,-0.28435,0.03450,1.41295
no_tcp,BENDING,0.33300,0.00000,-6.69336,-10.04004,0.00000,-9.11985,0.00000,-0.28598,0.03450,1.41249
no_tcp,BENDING,0.33400,0.00000,-6.73350,-10.10025,0.00000,-9.15571,0.00000,-0.28760,0.03450,1.41203
no_tcp,BENDING,0.33500,0.00000,-6.77376,-10.16064,0.00000,-9.19157,0.00000,-0.28923,0.03450,1.41157
no_tcp,BENDING,0.33600,0.00000,-6.81414,-10.22121,0.00000,-9.22743,0.00000,-0.29087,0.03450,1.41110
no_tcp,BENDING,0.33700,0.00000,-6.85464,-10.28196,0.00000,-9.26330,0.00000,-0.29251,0.03450,1.41063
no_tcp,BENDING,0.33800,0.00000,-6.89526,-10.34289,0.00000,-9.29916,0.00000,-0.29415,0.03450,1.41016
no_tcp,BENDING,0.33900,0.00000,-6.93600,-10.40400,0.00000,-9.33502,0.00000,-0.29580,0.03450,1.40968
no_tcp,BENDING,0.34000,0.00000,-6.97686,-10.46529,0.00000,-9.37088,0.00000,-0.29745,0.03450,1.40920
no_tcp,BENDING,0.34100,0.00000,-7.01784,-10.52676,0.00000,-9.40674,0.00000,-0.29910,0.03450,1.40871
no_tcp,BENDING,0.34200,0.00000,-7.05894,-10.58841,0.00000,-9.44260,0.00000,-0.30076,0.03450,1.40822
no_tcp,BENDING,0.34300,0.00000,-7.10016,-10.65024,0.00000,-9.47846,0.00000,-0.30242,0.03450,1.40773
no_tcp,BENDING,0.34400,0.00000,-7.14150,-10.71225,0.00000,-9.51433,0.00000,-0.30409,0.03450,1.40723
no_tcp,BENDING,0.34500,0.00000,-7.18296,-10.77444,0.00000,-9.55019,0.00000,-0.30575,0.03450,1.40672
no_tcp,BENDING,0.34600,0.00000,-7.22454,-10.83681,0.00000,-9.58605,0.00000,-0.30743,0.03450,1.40622
no_tcp,BENDING,0.34700,0.00000,-7.26624,-10.89936,0.00000,-9.62191,0.00000,-0.30910,0.03450,1.40571
no_tcp,BENDING,0.34800,0.00000,-7.30806,-10.96209,0.00000,-9.65777,0.00000,-0.31078,0.03450,1.40519
no_tcp,BENDING,0.34900,0.00000,-7.35000,-11.02500,0.00000,-9.69363,0.00000,-0.31247,0.03450,1.40467
no_tcp,BENDING,0.35000,0.00000,-7.39206,-11.08809,0.00000,-9.72949,0.00000,-0.31415,0.03450,1.40415
no_tcp,BENDING,0.35100,0.00000,-7.43424,-11.15136,0.00000,-9.76536,0.00000,-0.31585,0.03450,1.40362
no_tcp,BENDING,0.35200,0.00000,-7.47654,-11.21481,0.00000,-9.80122,0.00000,-0.31754,0.03450,1.40309
no_tcp,BENDING,0.35300,0.00000,-7.51895,-11.27844,0.00000,-9.83708,0.00000,-0.31924,0.03450,1.40256
no_tcp,BENDING,0.35400,0.00000,-7.56137,-11.34225,0.00000,-9.87294,0.00000,-0.32094,0.03450,1.40202
no_tcp,BENDING,0.35500,0.00000,-7.60380,-11.40624,0.00000,-9.90880,0.00000,-0.32264,0.03450,1.40147
no_tcp,BENDING,0.35600,0.00000,-7.64623,-11.47041,0.00000,-9.94466,0.00000,-0.32434,0.03450,1.40093
no_tcp,BENDING,0.35700,0.00000,-7.68865,-11.53476,0.00000,-9.98052,0.00000,-0.32604,0.03450,1.40038
no_tcp,BENDING,0.35800,0.00000,-7.73108,-11.59929,0.00000,-10.01639,0.00000,-0.32774,0.03450,1.39982
no_tcp,BENDING,0.35900,0.00000,-7.77351,-11.66400,0.00000,-10.05225,0.00000,-0.32945,0.03450,1.39927
no_tcp,BENDING,0.36000,0.00000,-7.81593,-11.72889,0.00000,-10.08811,0.00000,-0.33115,0.03450,1.39871
no_tcp,BENDING,0.36100,0.00000,-7.85836,-11.79396,0.00000,-10.12397,0.00000,-0.33286,0.03450,1.39814
no_tcp,BENDING,0.36200,0.00000,-7.90079,-11.85921,0.00000,-10.15983,0.00000,-0.33456,0.03450,1.39757
no_tcp,BENDING,0.36300,0.00000,-7.94321,-11.92464,0.00000,-10.19569,0.00000,-0.33627,0.03450,1.39700
no_tcp,BENDING,0.36400,0.00000,-7.98564,-11.99025,0.00000,-10.23155,0.00000,-0.33798,0.03450,1.39643
no_tcp,BENDING,0.36500,0.00000,-8.02806,-12.05604,0.00000,-10.26742,0.00000,-0.33969,0.03450,1.39585
no_tcp,BENDING,0.36600,0.00000,-8.07049,-12.12201,0.00000,-10.30328,0.00000,-0.34140,0.03450,1.39526
no_tcp,BENDING,0.36700,0.00000,-8.11292,-12.18816,0.00000,-10.33914,0.00000,-0.34311,0.03450,1.39468
no_tcp,BENDING,0.36800,0.00000,-8.15534,-12.25449,0.00000,-10.37500,0.00000,-0.34482,0.03450,1.39409
no_tcp,BENDING,0.36900,0.00000,-8.19777,-12.32100,0.00000,-10.41086,0.00000,-0.34654,0.03450,1.39349
no_tcp,BENDING,0.37000,0.00000,-8.24020,-12.38769,0.00000,-10.44672,0.00000,-0.34825,0.03450,1.39290
no_tcp,BENDING,0.37100,0.00000,-8.28262,-12.45456,0.00000,-10.48258,0.00000,-0.34996,0.03450,1.39230
no_tcp,BENDING,0.37200,0.00000,-8.32505,-12.52161,0.00000,-10.51845,0.00000,-0.35168,0.03450,1.39169
no_tcp,BENDING,0.37300,0.00000,-8.36748,-12.58884,0.00000,-10.55431,0.00000,-0.35339,0.03450,1.39108
no_tcp,BENDING,0.37400,0.00000,-8.40990,-12.65625,0.00000,-10.59017,0.00000,-0.35511,0.03450,1.39047
no_tcp,BENDING,0.37500,0.00000,-8.45233,-12.72384,0.00000,-10.62603,0.00000,-0.35683,0.03450,1.38985
no_tcp,BENDING,0.37600,0.00000,-8.49476,-12.79161,0.00000,-10.66189,0.00000,-0.35855,0.03450,1.38923
no_tcp,BENDING,0.37700,0.00000,-8.53718,-12.85956,0.00000,-10.69775,0.00000,-0.36027,0.03450,1.38861
no_tcp,BENDING,0.37800,0.00000,-8.57961,-12.92769,0.00000,-10.73361,0.00000,-0.36199,0.03450,1.38798
no_tcp,BENDING,0.37900,0.00000,-8.62203,-12.99600,0.00000,-10.76948,0.00000,-0.36371,0.03450,1.38735
no_tcp,BENDING,0.38000,0.00000,-8.66446,-13.06449,0.00000,-10.80534,0.00000,-0.36543,0.03450,1.38672
no_tcp,BENDING,0.38100,0.00000,-8.70689,-13.13316,0.00000,-10.84120,0.00000,-0.36715,0.03450,1.38608
no_tcp,BENDING,0.38200,0.00000,-8.74931,-13.20201,0.00000,-10.87706,0.00000,-0.36887,0.03450,1.38543
no_tcp,BENDING,0.38300,0.00000,-8.79174,-13.27104,0.00000,-10.91292,0.00000,-0.37059,0.03450,1.38479
no_tcp,BENDING,0.38400,0.00000,-8.83417,-13.34025,0.00000,-10.94878,0.00000,-0.37232,0.03450,1.38414
no_tcp,BENDING,0.38500,0.00000,-8.87659,-13.40964,0.00000,-10.98465,0.00000,-0.37404,0.03450,1.38348
no_tcp,BENDING,0.38600,0.00000,-8.91902,-13.47921,0.00000,-11.02051,0.00000,-0.37577,0.03450,1.38283
no_tcp,BENDING,0.38700,0.00000,-8.96145,-13.54896,0.00000,-11.05637,0.00000,-0.37749,0.03450,1.38216
no_tcp,BENDING,0.38800,0.00000,-9.00387,-13.61889,0.00000,-11.09223,0.00000,-0.37922,0.03450,1.38150
no_tcp,BENDING,0.38900,0.00000,-9.04630,-13.68900,0.00000,-11.12809,0.00000,-0.38095,0.03450,1.38083
no_tcp,BENDING,0.39000,0.00000,-9.08873,-13.75929,0.00000,-11.16395,0.00000,-0.38267,0.03450,1.38016
no_tcp,BENDING,0.39100,0.00000,-9.13115,-13.82976,0.00000,-11.19981,0.00000,-0.38440,0.03450,1.37948
no_tcp,BENDING,0.39200,0.00000,-9.17358,-13.90041,0.00000,-11.23568,0.00000,-0.38613,0.03450,1.37880
no_tcp,BENDING,0.39300,0.00000,-9.21600,-13.97124,0.00000,-11.27154,0.00000,-0.38786,0.03450,1.37811
no_tcp,BENDING,0.39400,0.00000,-9.25843,-14.04225,0.00000,-11.30740,0.00000,-0.38959,0.03450,1.37742
no_tcp,BENDING,0.39500,0.00000,-9.30086,-14.11344,0.00000,-11.34326,0.00000,-0.39132,0.03450,1.37673
no_tcp,BENDING,0.39600,0.00000,-9.34328,-14.18481,0.00000,-11.37912,0.00000,-0.39305,0.03450,1.37603
no_tcp,BENDING,0.39700,0.00000,-9.38571,-14.25636,0.00000,-11.41498,0.00000,-0.39478,0.03450,1.37533
no_tcp,BENDING,0.39800,0.00000,-9.42814,-14.32809,0.00000,-11.45084,0.00000,-0.39651,0.03450,1.37463
no_tcp,BENDING,0.39900,0.00000,-9.47056,-14.40000,0.00000,-11.48671,0.00000,-0.39825,0.03450,1.37392
no_tcp,BENDING,0.40000,0.00000,-9.51299,-14.47209,0.00000,-11.52257,0.00000,-0.39998,0.03450,1.37320
no_tcp,BENDING,0.40100,0.00000,-9.55542,-14.54436,0.00000,-11.55843,0.00000,-0.40171,0.03450,1.37249
no_tcp,BENDING,0.40200,0.00000,-9.59784,-14.61681,0.00000,-11.59429,0.00000,-0.40345,0.03450,1.37177
no_tcp,BENDING,0.40300,0.00000,-9.64027,-14.68944,0.00000,-11.63015,0.00000,-0.40518,0.03450,1.37104
no_tcp,BENDING,0.40400,0.00000,-9.68269,-14.76225,0.00000,-11.66601,0.00000,-0.40691,0.03450,1.37031
no_tcp,BENDING,0.40500,0.00000,-9.72512,-14.83524,0.00000,-11.70187,0.00000,-0.40865,0.03450,1.36958
no_tcp,BENDING,0.40600,0.00000,-9.76755,-14.90841,0.00000,-11.73774,0.00000,-0.41039,0.03450,1.36884
no_tcp,BENDING,0.40700,0.00000,-9.80997,-14.98176,0.00000,-11.77360,0.00000,-0.41212,0.03450,1.36810
no_tcp,BENDING,0.40800,0.00000,-9.85240,-15.05529,0.00000,-11.80946,0.00000,-0.41386,0.03450,1.36736
no_tcp,BENDING,0.40900,0.00000,-9.89483,-15.12900,0.00000,-11.84532,0.00000,-0.41559,0.03450,1.36661
no_tcp,BENDING,0.41000,0.00000,-9.93725,-15.20289,0.00000,-11.88118,0.00000,-0.41733,0.03450,1.36585
no_tcp,BENDING,0.41100,0.00000,-9.97968,-15.27696,0.00000,-11.91704,0.00000,-0.41907,0.03450,1.36510
no_tcp,BENDING,0.41200,0.00000,-10.02211,-15.35121,0.00000,-11.95290,0.00000,-0.42081,0.03450,1.36433
no_tcp,BENDING,0.41300,0.00000,-10.06453,-15.42564,0.00000,-11.98877,0.00000,-0.42254,0.03450,1.36357
no_tcp,BENDING,0.41400,0.00000,-10.10696,-15.50025,0.00000,-12.02463,0.00000,-0.42428,0.03450,1.36280
no_tcp,BENDING,0.41500,0.00000,-10.14939,-15.57504,0.00000,-12.06049,0.00000,-0.42602,0.03450,1.36202
no_tcp,BENDING,0.41600,0.00000,-10.19181,-15.65001,0.00000,-12.09635,0.00000,-0.42776,0.03450,1.36125
no_tcp,BENDING,0.41700,0.00000,-10.23424,-15.72516,0.00000,-12.13221,0.00000,-0.42950,0.03450,1.36047
no_tcp,BENDING,0.41800,0.00000,-10.27666,-15.80049,0.00000,-12.16807,0.00000,-0.43124,0.03450,1.35968
no_tcp,BENDING,0.41900,0.00000,-10.31909,-15.87600,0.00000,-12.20393,0.00000,-0.43298,0.03450,1.35889
no_tcp,BENDING,0.42000,0.00000,-10.36152,-15.95169,0.00000,-12.23980,0.00000,-0.43472,0.03450,1.35809
no_tcp,BENDING,0.42100,0.00000,-10.40394,-16.02756,0.00000,-12.27566,0.00000,-0.43646,0.03450,1.35730
no_tcp,BENDING,0.42200,0.00000,-10.44637,-16.10361,0.00000,-12.31152,0.00000,-0.43820,0.03450,1.35649
no_tcp,BENDING,0.42300,0.00000,-10.48880,-16.17984,0.00000,-12.34738,0.00000,-0.43994,0.03450,1.35569
no_tcp,BENDING,0.42400,0.00000,-10.53122,-16.25625,0.00000,-12.38324,0.00000,-0.44168,0.03450,1.35487
no_tcp,BENDING,0.42500,0.00000,-10.57365,-16.33284,0.00000,-12.41910,0.00000,-0.44342,0.03450,1.35406
no_tcp,BENDING,0.42600,0.00000,-10.61608,-16.40961,0.00000,-12.45496,0.00000,-0.44516,0.03450,1.35324
no_tcp,BENDING,0.42700,0.00000,-10.65850,-16.48656,0.00000,-12.49083,0.00000,-0.44690,0.03450,1.35242
no_tcp,BENDING,0.42800,0.00000,-10.70093,-16.56369,0.00000,-12.52669,0.00000,-0.44864,0.03450,1.35159
no_tcp,BENDING,0.42900,0.00000,-10.74335,-16.64100,0.00000,-12.56255,0.00000,-0.45038,0.03450,1.35076
no_tcp,BENDING,0.43000,0.00000,-10.78578,-16.71849,0.00000,-12.59841,0.00000,-0.45212,0.03450,1.34992
no_tcp,BENDING,0.43100,0.00000,-10.82821,-16.79616,0.00000,-12.63427,0.00000,-0.45386,0.03450,1.34908
no_tcp,BENDING,0.43200,0.00000,-10.87063,-16.87401,0.00000,-12.67013,0.00000,-0.45561,0.03450,1.34823
no_tcp,BENDING,0.43300,0.00000,-10.91306,-16.95204,0.00000,-12.70599,0.00000,-0.45735,0.03450,1.34738
no_tcp,BENDING,0.43400,0.00000,-10.95549,-17.03025,0.00000,-12.74186,0.00000,-0.45909,0.03450,1.34653
no_tcp,BENDING,0.43500,0.00000,-10.99791,-17.10864,0.00000,-12.77772,0.00000,-0.46083,0.03450,1.34567
no_tcp,BENDING,0.43600,0.00000,-11.04034,-17.18721,0.00000,-12.81358,0.00000,-0.46257,0.03450,1.34481
no_tcp,BENDING,0.43700,0.00000,-11.08277,-17.26596,0.00000,-12.84944,0.00000,-0.46431,0.03450,1.34394
no_tcp,BENDING,0.43800,0.00000,-11.12519,-17.34489,0.00000,-12.88530,0.00000,-0.46605,0.03450,1.34307
no_tcp,BENDING,0.43900,0.00000,-11.16762,-17.42400,0.00000,-12.92116,0.00000,-0.46780,0.03450,1.34220
no_tcp,BENDING,0.44000,0.00000,-11.21005,-17.50329,0.00000,-12.95702,0.00000,-0.46954,0.03450,1.34132
no_tcp,BENDING,0.44100,0.00000,-11.25247,-17.58276,0.00000,-12.99289,0.00000,-0.47128,0.03450,1.34043
no_tcp,BENDING,0.44200,0.00000,-11.29490,-17.66241,0.00000,-13.02875,0.00000,-0.47302,0.03450,1.33955
no_tcp,BENDING,0.44300,0.00000,-11.33732,-17.74224,0.00000,-13.06461,0.00000,-0.47476,0.03450,1.33865
no_tcp,BENDING,0.44400,0.00000,-11.37975,-17.82225,0.00000,-13.10047,0.00000,-0.47650,0.03450,1.33776
no_tcp,BENDING,0.44500,0.00000,-11.42218,-17.90244,0.00000,-13.13633,0.00000,-0.47824,0.03450,1.33686
no_tcp,BENDING,0.44600,0.00000,-11.46460,-17.98281,0.00000,-13.17219,0.00000,-0.47998,0.03450,1.33595
no_tcp,BENDING,0.44700,0.00000,-11.50703,-18.06336,0.00000,-13.20806,0.00000,-0.48172,0.03450,1.33504
no_tcp,BENDING,0.44800,0.00000,-11.54946,-18.14409,0.00000,-13.24392,0.00000,-0.48346,0.03450,1.33413
no_tcp,BENDING,0.44900,0.00000,-11.59188,-18.22500,0.00000,-13.27978,0.00000,-0.48520,0.03450,1.33321
no_tcp,BENDING,0.45000,0.00000,-11.63431,-18.30609,0.00000,-13.31564,0.00000,-0.48694,0.03450,1.33228
no_tcp,BENDING,0.45100,0.00000,-11.67674,-18.38736,0.00000,-13.35150,0.00000,-0.48868,0.03450,1.33136
no_tcp,BENDING,0.45200,0.00000,-11.71916,-18.46881,0.00000,-13.38736,0.00000,-0.49042,0.03450,1.33043
no_tcp,BENDING,0.45300,0.00000,-11.76159,-18.55044,0.00000,-13.42322,0.00000,-0.49216,0.03450,1.32949
no_tcp,BENDING,0.45400,0.00000,-11.80402,-18.63225,0.00000,-13.45909,0.00000,-0.49390,0.03450,1.32855
no_tcp,BENDING,0.45500,0.00000,-11.84644,-18.71424,0.00000,-13.49495,0.00000,-0.49564,0.03450,1.32760
no_tcp,BENDING,0.45600,0.00000,-11.88887,-18.79641,0.00000,-13.53081,0.00000,-0.49738,0.03450,1.32665
no_tcp,BENDING,0.45700,0.00000,-11.93129,-18.87876,0.00000,-13.56667,0.00000,-0.49912,0.03450,1.32570
no_tcp,BENDING,0.45800,0.00000,-11.97372,-18.96129,0.00000,-13.60253,0.00000,-0.50086,0.03450,1.32474
no_tcp,BENDING,0.45900,0.00000,-12.01615,-19.04400,0.00000,-13.63839,0.00000,-0.50259,0.03450,1.32378
no_tcp,BENDING,0.46000,0.00000,-12.05857,-19.12689,0.00000,-13.67425,0.00000,-0.50433,0.03450,1.32281
no_tcp,BENDING,0.46100,0.00000,-12.10100,-19.20996,0.00000,-13.71012,0.00000,-0.50607,0.03450,1.32184
no_tcp,BENDING,0.46200,0.00000,-12.14343,-19.29321,0.00000,-13.74598,0.00000,-0.50780,0.03450,1.32086
no_tcp,BENDING,0.46300,0.00000,-12.18585,-19.37664,0.00000,-13.78184,0.00000,-0.50954,0.03450,1.31988
no_tcp,BENDING,0.46400,0.00000,-12.22828,-19.46025,0.00000,-13.81770,0.00000,-0.51128,0.03450,1.31890
no_tcp,BENDING,0.46500,0.00000,-12.27071,-19.54404,0.00000,-13.85356,0.00000,-0.51301,0.03450,1.31791
no_tcp,BENDING,0.46600,0.00000,-12.31313,-19.62801,0.00000,-13.88942,0.00000,-0.51475,0.03450,1.31691
no_tcp,BENDING,0.46700,0.00000,-12.35556,-19.71216,0.00000,-13.92528,0.00000,-0.51648,0.03450,1.31591
no_tcp,BENDING,0.46800,0.00000,-12.39798,-19.79649,0.00000,-13.96115,0.00000,-0.51821,0.03450,1.31491
no_tcp,BENDING,0.46900,0.00000,-12.44041,-19.88100,0.00000,-13.99701,0.00000,-0.51995,0.03450,1.31390
no_tcp,BENDING,0.47000,0.00000,-12.48284,-19.96569,0.00000,-14.03287,0.00000,-0.52168,0.03450,1.31289
no_tcp,BENDING,0.47100,0.00000,-12.52526,-20.05056,0.00000,-14.06873,0.00000,-0.52341,0.03450,1.31187
no_tcp,BENDING,0.47200,0.00000,-12.56769,-20.13561,0.00000,-14.10459,0.00000,-0.52515,0.03450,1.31085
no_tcp,BENDING,0.47300,0.00000,-12.61012,-20.22084,0.00000,-14.14045,0.00000,-0.52688,0.03450,1.30982
no_tcp,BENDING,0.47400,0.00000,-12.65254,-20.30625,0.00000,-14.17631,0.00000,-0.52861,0.03450,1.30879
no_tcp,BENDING,0.47500,0.00000,-12.69497,-20.39184,0.00000,-14.21218,0.00000,-0.53034,0.03450,1.30776
no_tcp,BENDING,0.47600,0.00000,-12.73740,-20.47761,0.00000,-14.24804,0.00000,-0.53207,0.03450,1.30672
no_tcp,BENDING,0.47700,0.00000,-12.77982,-20.56356,0.00000,-14.28390,0.00000,-0.53380,0.03450,1.30567
no_tcp,BENDING,0.47800,0.00000,-12.82225,-20.64969,0.00000,-14.31976,0.00000,-0.53552,0.03450,1.30462
no_tcp,BENDING,0.47900,0.00000,-12.86468,-20.73600,0.00000,-14.35562,0.00000,-0.53725,0.03450,1.30357
no_tcp,BENDING,0.48000,0.00000,-12.90710,-20.82249,0.00000,-14.39148,0.00000,-0.53898,0.03450,1.30251
no_tcp,BENDING,0.48100,0.00000,-12.94953,-20.90916,0.00000,-14.42734,0.00000,-0.54071,0.03450,1.30145
no_tcp,BENDING,0.48200,0.00000,-12.99195,-20.99601,0.00000,-14.46321,0.00000,-0.54243,0.03450,1.30038
no_tcp,BENDING,0.48300,0.00000,-13.03438,-21.08304,0.00000,-14.49907,0.00000,-0.54416,0.03450,1.29931
no_tcp,BENDING,0.48400,0.00000,-13.07681,-21.17025,0.00000,-14.53493,0.00000,-0.54588,0.03450,1.29823
no_tcp,BENDING,0.48500,0.00000,-13.11923,-21.25764,0.00000,-14.57079,0.00000,-0.54760,0.03450,1.29715
no_tcp,BENDING,0.48600,0.00000,-13.16166,-21.34521,0.00000,-14.60665,0.00000,-0.54933,0.03450,1.29606
no_tcp,BENDING,0.48700,0.00000,-13.20409,-21.43296,0.00000,-14.64251,0.00000,-0.55105,0.03450,1.29497
no_tcp,BENDING,0.48800,0.00000,-13.24651,-21.52089,0.00000,-14.67837,0.00000,-0.55277,0.03450,1.29388
no_tcp,BENDING,0.48900,0.00000,-13.28894,-21.60900,0.00000,-14.71424,0.00000,-0.55449,0.03450,1.29278
no_tcp,BENDING,0.49000,0.00000,-13.33137,-21.69729,0.00000,-14.75010,0.00000,-0.55621,0.03450,1.29167
no_tcp,BENDING,0.49100,0.00000,-13.37379,-21.78576,0.00000,-14.78596,0.00000,-0.55793,0.03450,1.29056
no_tcp,BENDING,0.49200,0.00000,-13.41622,-21.87441,0.00000,-14.82182,0.00000,-0.55965,0.03450,1.28945
no_tcp,BENDING,0.49300,0.00000,-13.45864,-21.96324,0.00000,-14.85768,0.00000,-0.56136,0.03450,1.28833
no_tcp,BENDING,0.49400,0.00000,-13.50107,-22.05225,0.00000,-14.89354,0.00000,-0.56308,0.03450,1.28721
no_tcp,BENDING,0.49500,0.00000,-13.54350,-22.14144,0.00000,-14.92940,0.00000,-0.56479,0.03450,1.28608
no_tcp,BENDING,0.49600,0.00000,-13.58592,-22.23081,0.00000,-14.96527,0.00000,-0.56651,0.03450,1.28495
no_tcp,BENDING,0.49700,0.00000,-13.62835,-22.32036,0.00000,-15.00113,0.00000,-0.56822,0.03450,1.28381
no_tcp,BENDING,0.49800,0.00000,-13.67078,-22.41009,0.00000,-15.03699,0.00000,-0.56993,0.03450,1.28267
no_tcp,BENDING,0.49900,0.00000,-13.71320,-22.50000,0.00000,-15.07285,0.00000,-0.57164,0.03450,1.28152
no_tcp,BENDING,0.50000,0.00000,-13.75563,-22.59009,0.00000,-15.10871,0.00000,-0.57335,0.03450,1.28037
no_tcp,BENDING,0.50100,0.00000,-13.79806,-22.68036,0.00000,-15.14457,0.00000,-0.57506,0.03450,1.27921
no_tcp,BENDING,0.50200,0.00000,-13.84048,-22.77081,0.00000,-15.18043,0.00000,-0.57677,0.03450,1.27805
no_tcp,BENDING,0.50300,0.00000,-13.88291,-22.86144,0.00000,-15.21630,0.00000,-0.57848,0.03450,1.27688
no_tcp,BENDING,0.50400,0.00000,-13.92534,-22.95225,0.00000,-15.25216,0.00000,-0.58019,0.03450,1.27571
no_tcp,BENDING,0.50500,0.00000,-13.96776,-23.04324,0.00000,-15.28802,0.00000,-0.58189,0.03450,1.27454
no_tcp,BENDING,0.50600,0.00000,-14.01019,-23.13441,0.00000,-15.32388,0.00000,-0.58359,0.03450,1.27336
no_tcp,BENDING,0.50700,0.00000,-14.05261,-23.22576,0.00000,-15.35974,0.00000,-0.58530,0.03450,1.27217
no_tcp,BENDING,0.50800,0.00000,-14.09504,-23.31729,0.00000,-15.39560,0.00000,-0.58700,0.03450,1.27098
no_tcp,BENDING,0.50900,0.00000,-14.13747,-23.40900,0.00000,-15.43146,0.00000,-0.58870,0.03450,1.26979
no_tcp,BENDING,0.51000,0.00000,-14.17989,-23.50089,0.00000,-15.46733,0.00000,-0.59040,0.03450,1.26859
no_tcp,BENDING,0.51100,0.00000,-14.22232,-23.59296,0.00000,-15.50319,0.00000,-0.59210,0.03450,1.26738
no_tcp,BENDING,0.51200,0.00000,-14.26475,-23.68521,0.00000,-15.53905,0.00000,-0.59379,0.03450,1.26617
no_tcp,BENDING,0.51300,0.00000,-14.30717,-23.77764,0.00000,-15.57491,0.00000,-0.59549,0.03450,1.26496
no_tcp,BENDING,0.51400,0.00000,-14.34960,-23.87025,0.00000,-15.61077,0.00000,-0.59718,0.03450,1.26374
no_tcp,BENDING,0.51500,0.00000,-14.39203,-23.96304,0.00000,-15.64663,0.00000,-0.59888,0.03450,1.26252
no_tcp,BENDING,0.51600,0.00000,-14.43445,-24.05601,0.00000,-15.68250,0.00000,-0.60057,0.03450,1.26129
no_tcp,BENDING,0.51700,0.00000,-14.47688,-24.14916,0.00000,-15.71836,0.00000,-0.60226,0.03450,1.26006
no_tcp,BENDING,0.51800,0.00000,-14.51931,-24.24249,0.00000,-15.75422,0.00000,-0.60395,0.03450,1.25882
no_tcp,BENDING,0.51900,0.00000,-14.56173,-24.33600,0.00000,-15.79008,0.00000,-0.60563,0.03450,1.25758
no_tcp,BENDING,0.52000,0.00000,-14.60416,-24.42969,0.00000,-15.82594,0.00000,-0.60732,0.03450,1.25633
no_tcp,BENDING,0.52100,0.00000,-14.64658,-24.52356,0.00000,-15.86180,0.00000,-0.60901,0.03450,1.25508
no_tcp,BENDING,0.52200,0.00000,-14.68901,-24.61761,0.00000,-15.89766,0.00000,-0.61069,0.03450,1.25382
no_tcp,BENDING,0.52300,0.00000,-14.73144,-24.71184,0.00000,-15.93353,0.00000,-0.61237,0.03450,1.25256
no_tcp,BENDING,0.52400,0.00000,-14.77386,-24.80625,0.00000,-15.96939,0.00000,-0.61405,0.03450,1.25129
no_tcp,BENDING,0.52500,0.00000,-14.81629,-24.90084,0.00000,-16.00525,0.00000,-0.61573,0.03450,1.25002
no_tcp,BENDING,0.52600,0.00000,-14.85872,-24.99561,0.00000,-16.04111,0.00000,-0.61741,0.03450,1.24874
no_tcp,BENDING,0.52700,0.00000,-14.90114,-25.09056,0.00000,-16.07697,0.00000,-0.61909,0.03450,1.24746
no_tcp,BENDING,0.52800,0.00000,-14.94357,-25.18569,0.00000,-16.11283,0.00000,-0.62076,0.03450,1.24618
no_tcp,BENDING,0.52900,0.00000,-14.98600,-25.28100,0.00000,-16.14869,0.00000,-0.62243,0.03450,1.24489
no_tcp,BENDING,0.53000,0.00000,-15.02842,-25.37649,0.00000,-16.18456,0.00000,-0.62410,0.03450,1.24359
no_tcp,BENDING,0.53100,0.00000,-15.07085,-25.47216,0.00000,-16.22042,0.00000,-0.62577,0.03450,1.24229
no_tcp,BENDING,0.53200,0.00000,-15.11327,-25.56801,0.00000,-16.25628,0.00000,-0.62744,0.03450,1.24098
no_tcp,BENDING,0.53300,0.00000,-15.15570,-25.66404,0.00000,-16.29214,0.00000,-0.62911,0.03450,1.23967
no_tcp,BENDING,0.53400,0.00000,-15.19813,-25.76025,0.00000,-16.32800,0.00000,-0.63078,0.03450,1.23836
no_tcp,BENDING,0.53500,0.00000,-15.24055,-25.85664,0.00000,-16.36386,0.00000,-0.63244,0.03450,1.23704
no_tcp,BENDING,0.53600,0.00000,-15.28298,-25.95321,0.00000,-16.39972,0.00000,-0.63410,0.03450,1.23571
no_tcp,BENDING,0.53700,0.00000,-15.32541,-26.04996,0.00000,-16.43559,0.00000,-0.63576,0.03450,1.23438
no_tcp,BENDING,0.53800,0.00000,-15.36783,-26.14689,0.00000,-16.47145,0.00000,-0.63742,0.03450,1.23305
no_tcp,BENDING,0.53900,0.00000,-15.41026,-26.24400,0.00000,-16.50731,0.00000,-0.63908,0.03450,1.23171
no_tcp,BENDING,0.54000,0.00000,-15.45269,-26.34129,0.00000,-16.54317,0.00000,-0.64073,0.03450,1.23036
no_tcp,BENDING,0.54100,0.00000,-15.49511,-26.43876,0.00000,-16.57903,0.00000,-0.64238,0.03450,1.22901
no_tcp,BENDING,0.54200,0.00000,-15.53754,-26.53641,0.00000,-16.61489,0.00000,-0.64404,0.03450,1.22766
no_tcp,BENDING,0.54300,0.00000,-15.57997,-26.63424,0.00000,-16.65075,0.00000,-0.64569,0.03450,1.22630
no_tcp,BENDING,0.54400,0.00000,-15.62239,-26.73225,0.00000,-16.68662,0.00000,-0.64733,0.03450,1.22494
no_tcp,BENDING,0.54500,0.00000,-15.66482,-26.83044,0.00000,-16.72248,0.00000,-0.64898,0.03450,1.22357
no_tcp,BENDING,0.54600,0.00000,-15.70724,-26.92881,0.00000,-16.75834,0.00000,-0.65062,0.03450,1.22219
no_tcp,BENDING,0.54700,0.00000,-15.74967,-27.02736,0.00000,-16.79420,0.00000,-0.65227,0.03450,1.22081
no_tcp,BENDING,0.54800,0.00000,-15.79210,-27.12609,0.00000,-16.83006,0.00000,-0.65391,0.03450,1.21943
no_tcp,BENDING,0.54900,0.00000,-15.83452,-27.22500,0.00000,-16.86592,0.00000,-0.65555,0.03450,1.21804
no_tcp,BENDING,0.55000,0.00000,-15.87695,-27.32409,0.00000,-16.90178,0.00000,-0.65718,0.03450,1.21665
no_tcp,BENDING,0.55100,0.00000,-15.91938,-27.42336,0.00000,-16.93765,0.00000,-0.65882,0.03450,1.21525
no_tcp,BENDING,0.55200,0.00000,-15.96180,-27.52281,0.00000,-16.97351,0.00000,-0.66045,0.03450,1.21384
no_tcp,BENDING,0.55300,0.00000,-16.00423,-27.62244,0.00000,-17.00937,0.00000,-0.66208,0.03450,1.21244
no_tcp,BENDING,0.55400,0.00000,-16.04666,-27.72225,0.00000,-17.04523,0.00000,-0.66371,0.03450,1.21102
no_tcp,BENDING,0.55500,0.00000,-16.08908,-27.82224,0.00000,-17.08109,0.00000,-0.66533,0.03450,1.20960
no_tcp,BENDING,0.55600,0.00000,-16.13151,-27.92241,0.00000,-17.11695,0.00000,-0.66696,0.03450,1.20818
no_tcp,BENDING,0.55700,0.00000,-16.17394,-28.02276,0.00000,-17.15281,0.00000,-0.66858,0.03450,1.20675
no_tcp,BENDING,0.55800,0.00000,-16.21636,-28.12329,0.00000,-17.18868,0.00000,-0.67020,0.03450,1.20532
no_tcp,BENDING,0.55900,0.00000,-16.25879,-28.22400,0.00000,-17.22454,0.00000,-0.67182,0.03450,1.20388
no_tcp,BENDING,0.56000,0.00000,-16.30121,-28.32489,0.00000,-17.26040,0.00000,-0.67343,0.03450,1.20244
no_tcp,BENDING,0.56100,0.00000,-16.34364,-28.42596,0.00000,-17.29626,0.00000,-0.67505,0.03450,1.20099
no_tcp,BENDING,0.56200,0.00000,-16.38607,-28.52721,0.00000,-17.33212,0.00000,-0.67666,0.03450,1.19954
no_tcp,BENDING,0.56300,0.00000,-16.42849,-28.62864,0.00000,-17.36798,0.00000,-0.67827,0.03450,1.19808
no_tcp,BENDING,0.56400,0.00000,-16.47092,-28.73025,0.00000,-17.40384,0.00000,-0.67988,0.03450,1.19661
no_tcp,BENDING,0.56500,0.00000,-16.51335,-28.83204,0.00000,-17.43971,0.00000,-0.68148,0.03450,1.19515
no_tcp,BENDING,0.56600,0.00000,-16.55577,-28.93401,0.00000,-17.47557,0.00000,-0.68308,0.03450,1.19367
no_tcp,BENDING,0.56700,0.00000,-16.59820,-29.03616,0.00000,-17.51143,0.00000,-0.68468,0.03450,1.19220
no_tcp,BENDING,0.56800,0.00000,-16.64063,-29.13849,0.00000,-17.54729,0.00000,-0.68628,0.03450,1.19071
no_tcp,BENDING,0.56900,0.00000,-16.68305,-29.24100,0.00000,-17.58315,0.00000,-0.68788,0.03450,1.18923
no_tcp,BENDING,0.57000,0.00000,-16.72548,-29.34369,0.00000,-17.61901,0.00000,-0.68947,0.03450,1.18773
no_tcp,BENDING,0.57100,0.00000,-16.76790,-29.44656,0.00000,-17.65487,0.00000,-0.69106,0.03450,1.18624
no_tcp,BENDING,0.57200,0.00000,-16.81033,-29.54961,0.00000,-17.69074,0.00000,-0.69265,0.03450,1.18473
no_tcp,BENDING,0.57300,0.00000,-16.85276,-29.65284,0.00000,-17.72660,0.00000,-0.69424,0.03450,1.18323
no_tcp,BENDING,0.57400,0.00000,-16.89518,-29.75625,0.00000,-17.76246,0.00000,-0.69582,0.03450,1.18171
no_tcp,BENDING,0.57500,0.00000,-16.93761,-29.85984,0.00000,-17.79832,0.00000,-0.69740,0.03450,1.18020
no_tcp,BENDING,0.57600,0.00000,-16.98004,-29.96361,0.00000,-17.83418,0.00000,-0.69898,0.03450,1.17867
no_tcp,BENDING,0.57700,0.00000,-17.02246,-30.06756,0.00000,-17.87004,0.00000,-0.70056,0.03450,1.17715
no_tcp,BENDING,0.57800,0.00000,-17.06489,-30.17169,0.00000,-17.90591,0.00000,-0.70213,0.03450,1.17561
no_tcp,BENDING,0.57900,0.00000,-17.10732,-30.27600,0.00000,-17.94177,0.00000,-0.70370,0.03450,1.17408
no_tcp,BENDING,0.58000,0.00000,-17.14974,-30.38049,0.00000,-17.97763,0.00000,-0.70527,0.03450,1.17253
no_tcp,BENDING,0.58100,0.00000,-17.19217,-30.48516,0.00000,-18.01349,0.00000,-0.70683,0.03450,1.17099
no_tcp,BENDING,0.58200,0.00000,-17.23460,-30.59001,0.00000,-18.04935,0.00000,-0.70840,0.03450,1.16943
no_tcp,BENDING,0.58300,0.00000,-17.27702,-30.69504,0.00000,-18.08521,0.00000,-0.70996,0.03450,1.16788
no_tcp,BENDING,0.58400,0.00000,-17.31945,-30.80025,0.00000,-18.12107,0.00000,-0.71152,0.03450,1.16631
no_tcp,BENDING,0.58500,0.00000,-17.36187,-30.90564,0.00000,-18.15694,0.00000,-0.71307,0.03450,1.16475
no_tcp,BENDING,0.58600,0.00000,-17.40430,-31.01121,0.00000,-18.19280,0.00000,-0.71462,0.03450,1.16318
no_tcp,BENDING,0.58700,0.00000,-17.44673,-31.11696,0.00000,-18.22866,0.00000,-0.71617,0.03450,1.16160
no_tcp,BENDING,0.58800,0.00000,-17.48915,-31.22289,0.00000,-18.26452,0.00000,-0.71772,0.03450,1.16002
no_tcp,BENDING,0.58900,0.00000,-17.53158,-31.32900,0.00000,-18.30038,0.00000,-0.71927,0.03450,1.15843
no_tcp,BENDING,0.59000,0.00000,-17.57401,-31.43529,0.00000,-18.33624,0.00000,-0.72081,0.03450,1.15684
no_tcp,BENDING,0.59100,0.00000,-17.61643,-31.54176,0.00000,-18.37210,0.00000,-0.72235,0.03450,1.15524
no_tcp,BENDING,0.59200,0.00000,-17.65886,-31.64841,0.00000,-18.40797,0.00000,-0.72388,0.03450,1.15364
no_tcp,BENDING,0.59300,0.00000,-17.70129,-31.75524,0.00000,-18.44383,0.00000,-0.72542,0.03450,1.15203
no_tcp,BENDING,0.59400,0.00000,-17.74371,-31.86225,0.00000,-18.47969,0.00000,-0.72695,0.03450,1.15042
no_tcp,BENDING,0.59500,0.00000,-17.78614,-31.96944,0.00000,-18.51555,0.00000,-0.72847,0.03450,1.14880
no_tcp,BENDING,0.59600,0.00000,-17.82856,-32.07681,0.00000,-18.55141,0.00000,-0.73000,0.03450,1.14718
no_tcp,BENDING,0.59700,0.00000,-17.87099,-32.18436,0.00000,-18.58727,0.00000,-0.73152,0.03450,1.14556
no_tcp,BENDING,0.59800,0.00000,-17.91342,-32.29209,0.00000,-18.62313,0.00000,-0.73304,0.03450,1.14392
no_tcp,BENDING,0.59900,0.00000,-17.95584,-32.40000,0.00000,-18.65900,0.00000,-0.73455,0.03450,1.14229
no_tcp,BENDING,0.60000,0.00000,-17.99827,-32.50809,0.00000,-18.69486,0.00000,-0.73607,0.03450,1.14065
no_tcp,BENDING,0.60100,0.00000,-18.04070,-32.61636,0.00000,-18.73072,0.00000,-0.73757,0.03450,1.13900
no_tcp,BENDING,0.60200,0.00000,-18.08312,-32.72481,0.00000,-18.76658,0.00000,-0.73908,0.03450,1.13735
no_tcp,BENDING,0.60300,0.00000,-18.12555,-32.83344,0.00000,-18.80244,0.00000,-0.74058,0.03450,1.13569
no_tcp,BENDING,0.60400,0.00000,-18.16798,-32.94225,0.00000,-18.83830,0.00000,-0.74208,0.03450,1.13403
no_tcp,BENDING,0.60500,0.00000,-18.21040,-33.05124,0.00000,-18.87416,0.00000,-0.74358,0.03450,1.13236
no_tcp,BENDING,0.60600,0.00000,-18.25283,-33.16041,0.00000,-18.91003,0.00000,-0.74508,0.03450,1.13069
no_tcp,BENDING,0.60700,0.00000,-18.29526,-33.26976,0.00000,-18.94589,0.00000,-0.74657,0.03450,1.12902
no_tcp,BENDING,0.60800,0.00000,-18.33768,-33.37929,0.00000,-18.98175,0.00000,-0.74805,0.03450,1.12734
no_tcp,BENDING,0.60900,0.00000,-18.38011,-33.48900,0.00000,-19.01761,0.00000,-0.74954,0.03450,1.12565
no_tcp,BENDING,0.61000,0.00000,-18.42253,-33.59889,0.00000,-19.05347,0.00000,-0.75102,0.03450,1.12396
no_tcp,BENDING,0.61100,0.00000,-18.46496,-33.70896,0.00000,-19.08933,0.00000,-0.75250,0.03450,1.12226
no_tcp,BENDING,0.61200,0.00000,-18.50739,-33.81921,0.00000,-19.12519,0.00000,-0.75397,0.03450,1.12056
no_tcp,BENDING,0.61300,0.00000,-18.54981,-33.92964,0.00000,-19.16106,0.00000,-0.75544,0.03450,1.11886
no_tcp,BENDING,0.61400,0.00000,-18.59224,-34.04025,0.00000,-19.19692,0.00000,-0.75691,0.03450,1.11715
no_tcp,BENDING,0.61500,0.00000,-18.63467,-34.15104,0.00000,-19.23278,0.00000,-0.75838,0.03450,1.11543
no_tcp,BENDING,0.61600,0.00000,-18.67709,-34.26201,0.00000,-19.26864,0.00000,-0.75984,0.03450,1.11371
no_tcp,BENDING,0.61700,0.00000,-18.71952,-34.37316,0.00000,-19.30450,0.00000,-0.76130,0.03450,1.11199
no_tcp,BENDING,0.61800,0.00000,-18.76195,-34.48449,0.00000,-19.34036,0.00000,-0.76275,0.03450,1.11026
no_tcp,BENDING,0.61900,0.00000,-18.80437,-34.59600,0.00000,-19.37622,0.00000,-0.76420,0.03450,1.10852
no_tcp,BENDING,0.62000,0.00000,-18.84680,-34.70769,0.00000,-19.41209,0.00000,-0.76565,0.03450,1.10678
no_tcp,BENDING,0.62100,0.00000,-18.88923,-34.81956,0.00000,-19.44795,0.00000,-0.76709,0.03450,1.10504
no_tcp,BENDING,0.62200,0.00000,-18.93165,-34.93161,0.00000,-19.48381,0.00000,-0.76853,0.03450,1.10329
no_tcp,BENDING,0.62300,0.00000,-18.97408,-35.04384,0.00000,-19.51967,0.00000,-0.76997,0.03450,1.10153
no_tcp,BENDING,0.62400,0.00000,-19.01650,-35.15625,0.00000,-19.55553,0.00000,-0.77140,0.03450,1.09977
no_tcp,BENDING,0.62500,0.00000,-19.05893,-35.26884,0.00000,-19.59139,0.00000,-0.77283,0.03450,1.09801
no_tcp,BENDING,0.62600,0.00000,-19.10136,-35.38161,0.00000,-19.62725,0.00000,-0.77426,0.03450,1.09624
no_tcp,BENDING,0.62700,0.00000,-19.14378,-35.49456,0.00000,-19.66312,0.00000,-0.77568,0.03450,1.09447
no_tcp,BENDING,0.62800,0.00000,-19.18621,-35.60769,0.00000,-19.69898,0.00000,-0.77710,0.03450,1.09269
no_tcp,BENDING,0.62900,0.00000,-19.22864,-35.72100,0.00000,-19.73484,0.00000,-0.77852,0.03450,1.09090
no_tcp,BENDING,0.63000,0.00000,-19.27106,-35.83449,0.00000,-19.77070,0.00000,-0.77993,0.03450,1.08911
no_tcp,BENDING,0.63100,0.00000,-19.31349,-35.94816,0.00000,-19.80656,0.00000,-0.78134,0.03450,1.08732
no_tcp,BENDING,0.63200,0.00000,-19.35592,-36.06201,0.00000,-19.84242,0.00000,-0.78274,0.03450,1.08552
no_tcp,BENDING,0.63300,0.00000,-19.39834,-36.17604,0.00000,-19.87828,0.00000,-0.78414,0.03450,1.08372
no_tcp,BENDING,0.63400,0.00000,-19.44077,-36.29025,0.00000,-19.91415,0.00000,-0.78554,0.03450,1.08191
no_tcp,BENDING,0.63500,0.00000,-19.48319,-36.40464,0.00000,-19.95001,0.00000,-0.78693,0.03450,1.08010
no_tcp,BENDING,0.63600,0.00000,-19.52562,-36.51921,0.00000,-19.98587,0.00000,-0.78832,0.03450,1.07828
no_tcp,BENDING,0.63700,0.00000,-19.56805,-36.63396,0.00000,-20.02173,0.00000,-0.78970,0.03450,1.07646
no_tcp,BENDING,0.63800,0.00000,-19.61047,-36.74889,0.00000,-20.05759,0.00000,-0.79109,0.03450,1.07463
no_tcp,BENDING,0.63900,0.00000,-19.65290,-36.86400,0.00000,-20.09345,0.00000,-0.79246,0.03450,1.07280
no_tcp,BENDING,0.64000,0.00000,-19.69533,-36.97929,0.00000,-20.12931,0.00000,-0.79384,0.03450,1.07096
no_tcp,BENDING,0.64100,0.00000,-19.73775,-37.09476,0.00000,-20.16518,0.00000,-0.79521,0.03450,1.06912
no_tcp,BENDING,0.64200,0.00000,-19.78018,-37.21041,0.00000,-20.20104,0.00000,-0.79657,0.03450,1.06727
no_tcp,BENDING,0.64300,0.00000,-19.82261,-37.32624,0.00000,-20.23690,0.00000,-0.79793,0.03450,1.06542
no_tcp,BENDING,0.64400,0.00000,-19.86503,-37.44225,0.00000,-20.27276,0.00000,-0.79929,0.03450,1.06357
no_tcp,BENDING,0.64500,0.00000,-19.90746,-37.55844,0.00000,-20.30862,0.00000,-0.80064,0.03450,1.06171
no_tcp,BENDING,0.64600,0.00000,-19.94989,-37.67481,0.00000,-20.34448,0.00000,-0.80199,0.03450,1.05984
no_tcp,BENDING,0.64700,0.00000,-19.99231,-37.79136,0.00000,-20.38035,0.00000,-0.80334,0.03450,1.05797
no_tcp,BENDING,0.64800,0.00000,-20.03474,-37.90809,0.00000,-20.41621,0.00000,-0.80468,0.03450,1.05609
no_tcp,BENDING,0.64900,0.00000,-20.07716,-38.02500,0.00000,-20.45207,0.00000,-0.80602,0.03450,1.05421
no_tcp,BENDING,0.65000,0.00000,-20.11959,-38.14209,0.00000,-20.48793,0.00000,-0.80735,0.03450,1.05233
no_tcp,BENDING,0.65100,0.00000,-20.16202,-38.25936,0.00000,-20.52379,0.00000,-0.80868,0.03450,1.05044
no_tcp,BENDING,0.65200,0.00000,-20.20444,-38.37681,0.00000,-20.55965,0.00000,-0.81000,0.03450,1.04855
no_tcp,BENDING,0.65300,0.00000,-20.24687,-38.49444,0.00000,-20.59551,0.00000,-0.81132,0.03450,1.04665
no_tcp,BENDING,0.65400,0.00000,-20.28930,-38.61225,0.00000,-20.63138,0.00000,-0.81264,0.03450,1.04474
no_tcp,BENDING,0.65500,0.00000,-20.33172,-38.73024,0.00000,-20.66724,0.00000,-0.81395,0.03450,1.04283
no_tcp,BENDING,0.65600,0.00000,-20.37415,-38.84841,0.00000,-20.70310,0.00000,-0.81526,0.03450,1.04092
no_tcp,BENDING,0.65700,0.00000,-20.41658,-38.96676,0.00000,-20.73896,0.00000,-0.81656,0.03450,1.03900
no_tcp,BENDING,0.65800,0.00000,-20.45900,-39.08529,0.00000,-20.77482,0.00000,-0.81786,0.03450,1.03708
no_tcp,BENDING,0.65900,0.00000,-20.50143,-39.20400,0.00000,-20.81068,0.00000,-0.81915,0.03450,1.03515
no_tcp,BENDING,0.66000,0.00000,-20.54385,-39.32289,0.00000,-20.84654,0.00000,-0.82044,0.03450,1.03322
no_tcp,BENDING,0.66100,0.00000,-20.58628,-39.44196,0.00000,-20.88241,0.00000,-0.82173,0.03450,1.03129
no_tcp,BENDING,0.66200,0.00000,-20.62871,-39.56121,0.00000,-20.91827,0.00000,-0.82301,0.03450,1.02934
no_tcp,BENDING,0.66300,0.00000,-20.67113,-39.68064,0.00000,-20.95413,0.00000,-0.82429,0.03450,1.02740
no_tcp,BENDING,0.66400,0.00000,-20.71356,-39.80025,0.00000,-20.98999,0.00000,-0.82556,0.03450,1.02545
no_tcp,BENDING,0.66500,0.00000,-20.75599,-39.92004,0.00000,-21.02585,0.00000,-0.82683,0.03450,1.02349
no_tcp,BENDING,0.66600,0.00000,-20.79841,-40.04001,0.00000,-21.06171,0.00000,-0.82809,0.03450,1.02153
no_tcp,BENDING,0.66700,0.00000,-20.84084,-40.16016,0.00000,-21.09757,0.00000,-0.82935,0.03450,1.01957
no_tcp,BENDING,0.66800,0.00000,-20.88327,-40.28049,0.00000,-21.13344,0.00000,-0.83060,0.03450,1.01760
no_tcp,BENDING,0.66900,0.00000,-20.92569,-40.40100,0.00000,-21.16930,0.00000,-0.83185,0.03450,1.01563
no_tcp,BENDING,0.67000,0.00000,-20.96812,-40.52169,0.00000,-21.20516,0.00000,-0.83310,0.03450,1.01365
no_tcp,BENDING,0.67100,0.00000,-21.01055,-40.64256,0.00000,-21.24102,0.00000,-0.83434,0.03450,1.01167
no_tcp,BENDING,0.67200,0.00000,-21.05297,-40.76361,0.00000,-21.27688,0.00000,-0.83557,0.03450,1.00968
no_tcp,BENDING,0.67300,0.00000,-21.09540,-40.88484,0.00000,-21.31274,0.00000,-0.83680,0.03450,1.00769
no_tcp,BENDING,0.67400,0.00000,-21.13782,-41.00625,0.00000,-21.34860,0.00000,-0.83803,0.03450,1.00569
no_tcp,BENDING,0.67500,0.00000,-21.18025,-41.12784,0.00000,-21.38447,0.00000,-0.83925,0.03450,1.00369
no_tcp,BENDING,0.67600,0.00000,-21.22268,-41.24961,0.00000,-21.42033,0.00000,-0.84046,0.03450,1.00168
no_tcp,BENDING,0.67700,0.00000,-21.26510,-41.37156,0.00000,-21.45619,0.00000,-0.84167,0.03450,0.99967
no_tcp,BENDING,0.67800,0.00000,-21.30753,-41.49369,0.00000,-21.49205,0.00000,-0.84288,0.03450,0.99766
no_tcp,BENDING,0.67900,0.00000,-21.34996,-41.61600,0.00000,-21.52791,0.00000,-0.84408,0.03450,0.99564
no_tcp,BENDING,0.68000,0.00000,-21.39238,-41.73849,0.00000,-21.56377,0.00000,-0.84528,0.03450,0.99362
no_tcp,BENDING,0.68100,0.00000,-21.43481,-41.86116,0.00000,-21.59963,0.00000,-0.84647,0.03450,0.99159
no_tcp,BENDING,0.68200,0.00000,-21.47724,-41.98401,0.00000,-21.63550,0.00000,-0.84766,0.03450,0.98955
no_tcp,BENDING,0.68300,0.00000,-21.51966,-42.10704,0.00000,-21.67136,0.00000,-0.84884,0.03450,0.98752
no_tcp,BENDING,0.68400,0.00000,-21.56209,-42.23025,0.00000,-21.70722,0.00000,-0.85002,0.03450,0.98548
no_tcp,BENDING,0.68500,0.00000,-21.60452,-42.35364,0.00000,-21.74308,0.00000,-0.85119,0.03450,0.98343
no_tcp,BENDING,0.68600,0.00000,-21.64694,-42.47721,0.00000,-21.77894,0.00000,-0.85236,0.03450,0.98138
no_tcp,BENDING,0.68700,0.00000,-21.68937,-42.60096,0.00000,-21.81480,0.00000,-0.85352,0.03450,0.97932
no_tcp,BENDING,0.68800,0.00000,-21.73179,-42.72489,0.00000,-21.85066,0.00000,-0.85467,0.03450,0.97726
no_tcp,BENDING,0.68900,0.00000,-21.77422,-42.84900,0.00000,-21.88653,0.00000,-0.85583,0.03450,0.97520
no_tcp,BENDING,0.69000,0.00000,-21.81665,-42.97329,0.00000,-21.92239,0.00000,-0.85697,0.03450,0.97313
no_tcp,BENDING,0.69100,0.00000,-21.85907,-43.09776,0.00000,-21.95825,0.00000,-0.85811,0.03450,0.97106
no_tcp,BENDING,0.69200,0.00000,-21.90150,-43.22241,0.00000,-21.99411,0.00000,-0.85925,0.03450,0.96898
no_tcp,BENDING,0.69300,0.00000,-21.94393,-43.34724,0.00000,-22.02997,0.00000,-0.86038,0.03450,0.96690
no_tcp,BENDING,0.69400,0.00000,-21.98635,-43.47225,0.00000,-22.06583,0.00000,-0.86151,0.03450,0.96482
no_tcp,BENDING,0.69500,0.00000,-22.02878,-43.59744,0.00000,-22.10169,0.00000,-0.86263,0.03450,0.96273
no_tcp,BENDING,0.69600,0.00000,-22.07121,-43.72281,0.00000,-22.13756,0.00000,-0.86374,0.03450,0.96063
no_tcp,BENDING,0.69700,0.00000,-22.11363,-43.84836,0.00000,-22.17342,0.00000,-0.86485,0.03450,0.95853
no_tcp,BENDING,0.69800,0.00000,-22.15606,-43.97409,0.00000,-22.20928,0.00000,-0.86596,0.03450,0.95643
no_tcp,BENDING,0.69900,0.00000,-22.19848,-44.10000,0.00000,-22.24514,0.00000,-0.86706,0.03450,0.95432
no_tcp,BENDING,0.70000,0.00000,-22.24091,-44.22609,0.00000,-22.28100,0.00000,-0.86815,0.03450,0.95221
no_tcp,BENDING,0.70100,0.00000,-22.28334,-44.35236,0.00000,-22.31686,0.00000,-0.86924,0.03450,0.95010
no_tcp,BENDING,0.70200,0.00000,-22.32576,-44.47881,0.00000,-22.35272,0.00000,-0.87032,0.03450,0.94798
no_tcp,BENDING,0.70300,0.00000,-22.36819,-44.60544,0.00000,-22.38859,0.00000,-0.87140,0.03450,0.94585
no_tcp,BENDING,0.70400,0.00000,-22.41062,-44.73225,0.00000,-22.42445,0.00000,-0.87247,0.03450,0.94372
no_tcp,BENDING,0.70500,0.00000,-22.45304,-44.85924,0.00000,-22.46031,0.00000,-0.87354,0.03450,0.94159
no_tcp,BENDING,0.70600,0.00000,-22.49547,-44.98641,0.00000,-22.49617,0.00000,-0.87460,0.03450,0.93945
no_tcp,BENDING,0.70700,0.00000,-22.53790,-45.11362,0.00000,-22.53203,0.00000,-0.87565,0.03450,0.93731
no_tcp,BENDING,0.70800,0.00000,-22.58032,-45.24064,0.00000,-22.56789,0.00000,-0.87670,0.03450,0.93517
no_tcp,BENDING,0.70900,0.00000,-22.62275,-45.36749,0.00000,-22.60376,0.00000,-0.87774,0.03450,0.93303
no_tcp,BENDING,0.71000,0.00000,-22.66518,-45.49416,0.00000,-22.63962,0.00000,-0.87878,0.03450,0.93089
no_tcp,BENDING,0.71100,0.00000,-22.70760,-45.62065,0.00000,-22.67548,0.00000,-0.87981,0.03450,0.92875
no_tcp,BENDING,0.71200,0.00000,-22.75003,-45.74696,0.00000,-22.71134,0.00000,-0.88083,0.03450,0.92661
no_tcp,BENDING,0.71300,0.00000,-22.79245,-45.87309,0.00000,-22.74720,0.00000,-0.88184,0.03450,0.92447
no_tcp,BENDING,0.71400,0.00000,-22.83488,-45.99904,0.00000,-22.78306,0.00000,-0.88285,0.03450,0.92233
no_tcp,BENDING,0.71500,0.00000,-22.87731,-46.12480,0.00000,-22.81892,0.00000,-0.88385,0.03450,0.92019
no_tcp,BENDING,0.71600,0.00000,-22.91973,-46.25039,0.00000,-22.85479,0.00000,-0.88484,0.03450,0.91805
no_tcp,BENDING,0.71700,0.00000,-22.96216,-46.37580,0.00000,-22.89065,0.00000,-0.88583,0.03450,0.91591
no_tcp,BENDING,0.71800,0.00000,-23.00459,-46.50103,0.00000,-22.92651,0.00000,-0.88681,0.03450,0.91377
no_tcp,BENDING,0.71900,0.00000,-23.04701,-46.62608,0.00000,-22.96237,0.00000,-0.88778,0.03450,0.91163
no_tcp,BENDING,0.72000,0.00000,-23.08944,-46.75095,0.00000,-22.99823,0.00000,-0.88875,0.03450,0.90949
no_tcp,BENDING,0.72100,0.00000,-23.13187,-46.87563,0.00000,-23.03409,0.00000,-0.88971,0.03450,0.90735
no_tcp,BENDING,0.72200,0.00000,-23.17429,-47.00014,0.00000,-23.06995,0.00000,-0.89066,0.03450,0.90521
no_tcp,BENDING,0.72300,0.00000,-23.21672,-47.12447,0.00000,-23.10582,0.00000,-0.89161,0.03450,0.90308
no_tcp,BENDING,0.72400,0.00000,-23.25914,-47.24862,0.00000,-23.14168,0.00000,-0.89255,0.03450,0.90094
no_tcp,BENDING,0.72500,0.00000,-23.30157,-47.37259,0.00000,-23.17754,0.00000,-0.89348,0.03450,0.89880
no_tcp,BENDING,0.72600,0.00000,-23.34400,-47.49638,0.00000,-23.21340,0.00000,-0.89441,0.03450,0.89666
no_tcp,BENDING,0.72700,0.00000,-23.38642,-47.61999,0.00000,-23.24926,0.00000,-0.89533,0.03450,0.89452
no_tcp,BENDING,0.72800,0.00000,-23.42885,-47.74341,0.00000,-23.28512,0.00000,-0.89624,0.03450,0.89238
no_tcp,BENDING,0.72900,0.00000,-23.47128,-47.86666,0.00000,-23.32098,0.00000,-0.89715,0.03450,0.89025
no_tcp,BENDING,0.73000,0.00000,-23.51370,-47.98973,0.00000,-23.35685,0.00000,-0.89805,0.03450,0.88811
no_tcp,BENDING,0.73100,0.00000,-23.55613,-48.11262,0.00000,-23.39271,0.00000,-0.89894,0.03450,0.88597
no_tcp,BENDING,0.73200,0.00000,-23.59856,-48.23533,0.00000,-23.42857,0.00000,-0.89983,0.03450,0.88383
no_tcp,BENDING,0.73300,0.00000,-23.64098,-48.35786,0.00000,-23.46443,0.00000,-0.90071,0.03450,0.88170
no_tcp,BENDING,0.73400,0.00000,-23.68341,-48.48020,0.00000,-23.50029,0.00000,-0.90158,0.03450,0.87956
no_tcp,BENDING,0.73500,0.00000,-23.72584,-48.60237,0.00000,-23.53615,0.00000,-0.90245,0.03450,0.87743
no_tcp,BENDING,0.73600,0.00000,-23.76826,-48.72436,0.00000,-23.57201,0.00000,-0.90331,0.03450,0.87529
no_tcp,BENDING,0.73700,0.00000,-23.81069,-48.84617,0.00000,-23.60788,0.00000,-0.90417,0.03450,0.87316
no_tcp,BENDING,0.73800,0.00000,-23.85311,-48.96780,0.00000,-23.64374,0.00000,-0.90502,0.03450,0.87103
no_tcp,BENDING,0.73900,0.00000,-23.89554,-49.08925,0.00000,-23.67960,0.00000,-0.90586,0.03450,0.86889
no_tcp,BENDING,0.74000,0.00000,-23.93797,-49.21052,0.00000,-23.71546,0.00000,-0.90669,0.03450,0.86676
no_tcp,BENDING,0.74100,0.00000,-23.98039,-49.33160,0.00000,-23.75132,0.00000,-0.90752,0.03450,0.86463
no_tcp,BENDING,0.74200,0.00000,-24.02282,-49.45251,0.00000,-23.78718,0.00000,-0.90834,0.03450,0.86250
no_tcp,BENDING,0.74300,0.00000,-24.06525,-49.57324,0.00000,-23.82304,0.00000,-0.90916,0.03450,0.86037
no_tcp,BENDING,0.74400,0.00000,-24.10767,-49.69379,0.00000,-23.85891,0.00000,-0.90997,0.03450,0.85824
no_tcp,BENDING,0.74500,0.00000,-24.15010,-49.81416,0.00000,-23.89477,0.00000,-0.91077,0.03450,0.85611
no_tcp,BENDING,0.74600,0.00000,-24.19253,-49.93435,0.00000,-23.93063,0.00000,-0.91157,0.03450,0.85398
no_tcp,BENDING,0.74700,0.00000,-24.23495,-50.05435,0.00000,-23.96649,0.00000,-0.91236,0.03450,0.85185
no_tcp,BENDING,0.74800,0.00000,-24.27738,-50.17418,0.00000,-24.00235,0.00000,-0.91314,0.03450,0.84972
no_tcp,BENDING,0.74900,0.00000,-24.31981,-50.29383,0.00000,-24.03821,0.00000,-0.91392,0.03450,0.84760
no_tcp,BENDING,0.75000,0.00000,-24.36223,-50.41330,0.00000,-24.07407,0.00000,-0.91469,0.03450,0.84547
no_tcp,BENDING,0.75100,0.00000,-24.40466,-50.53259,0.00000,-24.10994,0.00000,-0.91546,0.03450,0.84335
no_tcp,BENDING,0.75200,0.00000,-24.44708,-50.65170,0.00000,-24.14580,0.00000,-0.91622,0.03450,0.84122
no_tcp,BENDING,0.75300,0.00000,-24.48951,-50.77062,0.00000,-24.18166,0.00000,-0.91697,0.03450,0.83910
no_tcp,BENDING,0.75400,0.00000,-24.53194,-50.88937,0.00000,-24.21752,0.00000,-0.91772,0.03450,0.83698
no_tcp,BENDING,0.75500,0.00000,-24.57436,-51.00794,0.00000,-24.25338,0.00000,-0.91846,0.03450,0.83486
no_tcp,BENDING,0.75600,0.00000,-24.61679,-51.12633,0.00000,-24.28924,0.00000,-0.91919,0.03450,0.83274
no_tcp,BENDING,0.75700,0.00000,-24.65922,-51.24454,0.00000,-24.32510,0.00000,-0.91992,0.03450,0.83062
no_tcp,BENDING,0.75800,0.00000,-24.70164,-51.36257,0.00000,-24.36097,0.00000,-0.92064,0.03450,0.82850
no_tcp,BENDING,0.75900,0.00000,-24.74407,-51.48042,0.00000,-24.39683,0.00000,-0.92136,0.03450,0.82638
no_tcp,BENDING,0.76000,0.00000,-24.78650,-51.59808,0.00000,-24.43269,0.00000,-0.92207,0.03450,0.82427
no_tcp,BENDING,0.76100,0.00000,-24.82892,-51.71557,0.00000,-24.46855,0.00000,-0.92277,0.03450,0.82215
no_tcp,BENDING,0.76200,0.00000,-24.87135,-51.83288,0.00000,-24.50441,0.00000,-0.92347,0.03450,0.82004
no_tcp,BENDING,0.76300,0.00000,-24.91377,-51.95001,0.00000,-24.54027,0.00000,-0.92416,0.03450,0.81792
no_tcp,BENDING,0.76400,0.00000,-24.95620,-52.06696,0.00000,-24.57613,0.00000,-0.92485,0.03450,0.81581
no_tcp,BENDING,0.76500,0.00000,-24.99863,-52.18373,0.00000,-24.61200,0.00000,-0.92553,0.03450,0.81370
no_tcp,BENDING,0.76600,0.00000,-25.04105,-52.30031,0.00000,-24.64786,0.00000,-0.92620,0.03450,0.81159
no_tcp,BENDING,0.76700,0.00000,-25.08348,-52.41672,0.00000,-24.68372,0.00000,-0.92687,0.03450,0.80948
no_tcp,BENDING,0.76800,0.00000,-25.12591,-52.53295,0.00000,-24.71958,0.00000,-0.92753,0.03450,0.80737
no_tcp,BENDING,0.76900,0.00000,-25.16833,-52.64900,0.00000,-24.75544,0.00000,-0.92818,0.03450,0.80526
no_tcp,BENDING,0.77000,0.00000,-25.21076,-52.76487,0.00000,-24.79130,0.00000,-0.92883,0.03450,0.80316
no_tcp,BENDING,0.77100,0.00000,-25.25319,-52.88056,0.00000,-24.82716,0.00000,-0.92948,0.03450,0.80105
no_tcp,BENDING,0.77200,0.00000,-25.29561,-52.99607,0.00000,-24.86303,0.00000,-0.93011,0.03450,0.79895
no_tcp,BENDING,0.77300,0.00000,-25.33804,-53.11139,0.00000,-24.89889,0.00000,-0.93074,0.03450,0.79685
no_tcp,BENDING,0.77400,0.00000,-25.38047,-53.22654,0.00000,-24.93475,0.00000,-0.93137,0.03450,0.79475
no_tcp,BENDING,0.77500,0.00000,-25.42289,-53.34151,0.00000,-24.97061,0.00000,-0.93199,0.03450,0.79265
no_tcp,BENDING,0.77600,0.00000,-25.46532,-53.45630,0.00000,-25.00647,0.00000,-0.93260,0.03450,0.79055
no_tcp,BENDING,0.77700,0.00000,-25.50774,-53.57091,0.00000,-25.04233,0.00000,-0.93321,0.03450,0.78846
no_tcp,BENDING,0.77800,0.00000,-25.55017,-53.68534,0.00000,-25.07820,0.00000,-0.93381,0.03450,0.78636
no_tcp,BENDING,0.77900,0.00000,-25.59260,-53.79958,0.00000,-25.11406,0.00000,-0.93441,0.03450,0.78427
no_tcp,BENDING,0.78000,0.00000,-25.63502,-53.91365,0.00000,-25.14992,0.00000,-0.93500,0.03450,0.78217
no_tcp,BENDING,0.78100,0.00000,-25.67745,-54.02754,0.00000,-25.18578,0.00000,-0.93559,0.03450,0.78008
no_tcp,BENDING,0.78200,0.00000,-25.71988,-54.14125,0.00000,-25.22164,0.00000,-0.93616,0.03450,0.77799
no_tcp,BENDING,0.78300,0.00000,-25.76230,-54.25478,0.00000,-25.25750,0.00000,-0.93674,0.03450,0.77590
no_tcp,BENDING,0.78400,0.00000,-25.80473,-54.36813,0.00000,-25.29336,0.00000,-0.93731,0.03450,0.77382
no_tcp,BENDING,0.78500,0.00000,-25.84716,-54.48130,0.00000,-25.32923,0.00000,-0.93787,0.03450,0.77173
no_tcp,BENDING,0.78600,0.00000,-25.88958,-54.59428,0.00000,-25.36509,0.00000,-0.93842,0.03450,0.76965
no_tcp,BENDING,0.78700,0.00000,-25.93201,-54.70709,0.00000,-25.40095,0.00000,-0.93897,0.03450,0.76756
no_tcp,BENDING,0.78800,0.00000,-25.97444,-54.81972,0.00000,-25.43681,0.00000,-0.93952,0.03450,0.76548
no_tcp,BENDING,0.78900,0.00000,-26.01686,-54.93217,0.00000,-25.47267,0.00000,-0.94006,0.03450,0.76340
no_tcp,BENDING,0.79000,0.00000,-26.05929,-55.04444,0.00000,-25.50853,0.00000,-0.94059,0.03450,0.76132
no_tcp,BENDING,0.79100,0.00000,-26.10171,-55.15653,0.00000,-25.54439,0.00000,-0.94112,0.03450,0.75925
no_tcp,BENDING,0.79200,0.00000,-26.14414,-55.26843,0.00000,-25.58026,0.00000,-0.94164,0.03450,0.75717
no_tcp,BENDING,0.79300,0.00000,-26.18657,-55.38016,0.00000,-25.61612,0.00000,-0.94216,0.03450,0.75510
no_tcp,BENDING,0.79400,0.00000,-26.22899,-55.49171,0.00000,-25.65198,0.00000,-0.94267,0.03450,0.75303
no_tcp,BENDING,0.79500,0.00000,-26.27142,-55.60308,0.00000,-25.68784,0.00000,-0.94318,0.03450,0.75096
no_tcp,BENDING,0.79600,0.00000,-26.31385,-55.71427,0.00000,-25.72370,0.00000,-0.94368,0.03450,0.74889
no_tcp,BENDING,0.79700,0.00000,-26.35627,-55.82528,0.00000,-25.75956,0.00000,-0.94417,0.03450,0.74682
no_tcp,BENDING,0.79800,0.00000,-26.39870,-55.93610,0.00000,-25.79542,0.00000,-0.94466,0.03450,0.74476
no_tcp,BENDING,0.79900,0.00000,-26.44113,-56.04675,0.00000,-25.83129,0.00000,-0.94514,0.03450,0.74269
no_tcp,BENDING,0.80000,0.00000,-26.48355,-56.15722,0.00000,-25.86715,0.00000,-0.94562,0.03450,0.74063
no_tcp,BENDING,0.80100,0.00000,-26.52598,-56.26751,0.00000,-25.90301,0.00000,-0.94609,0.03450,0.73857
no_tcp,BENDING,0.80200,0.00000,-26.56840,-56.37762,0.00000,-25.93887,0.00000,-0.94656,0.03450,0.73651
no_tcp,BENDING,0.80300,0.00000,-26.61083,-56.48755,0.00000,-25.97473,0.00000,-0.94702,0.03450,0.73446
no_tcp,BENDING,0.80400,0.00000,-26.65326,-56.59730,0.00000,-26.01059,0.00000,-0.94748,0.03450,0.73240
no_tcp,BENDING,0.80500,0.00000,-26.69568,-56.70686,0.00000,-26.04645,0.00000,-0.94793,0.03450,0.73035
no_tcp,BENDING,0.80600,0.00000,-26.73811,-56.81625,0.00000,-26.08232,0.00000,-0.94838,0.03450,0.72830
no_tcp,BENDING,0.80700,0.00000,-26.78054,-56.92546,0.00000,-26.11818,0.00000,-0.94882,0.03450,0.72625
no_tcp,BENDING,0.80800,0.00000,-26.82296,-57.03449,0.00000,-26.15404,0.00000,-0.94925,0.03450,0.72420
no_tcp,BENDING,0.80900,0.00000,-26.86539,-57.14334,0.00000,-26.18990,0.00000,-0.94968,0.03450,0.72215
no_tcp,BENDING,0.81000,0.00000,-26.90782,-57.25201,0.00000,-26.22576,0.00000,-0.95011,0.03450,0.72011
no_tcp,BENDING,0.81100,0.00000,-26.95024,-57.36049,0.00000,-26.26162,0.00000,-0.95052,0.03450,0.71807
no_tcp,BENDING,0.81200,0.00000,-26.99267,-57.46880,0.00000,-26.29748,0.00000,-0.95094,0.03450,0.71603
no_tcp,BENDING,0.81300,0.00000,-27.03510,-57.57693,0.00000,-26.33335,0.00000,-0.95135,0.03450,0.71399
no_tcp,BENDING,0.81400,0.00000,-27.07752,-57.68488,0.00000,-26.36921,0.00000,-0.95175,0.03450,0.71195
no_tcp,BENDING,0.81500,0.00000,-27.11995,-57.79265,0.00000,-26.40507,0.00000,-0.95215,0.03450,0.70991
no_tcp,BENDING,0.81600,0.00000,-27.16237,-57.90024,0.00000,-26.44093,0.00000,-0.95254,0.03450,0.70788
no_tcp,BENDING,0.81700,0.00000,-27.20480,-58.00765,0.00000,-26.47679,0.00000,-0.95293,0.03450,0.70585
no_tcp,BENDING,0.81800,0.00000,-27.24723,-58.11487,0.00000,-26.51265,0.00000,-0.95331,0.03450,0.70382
no_tcp,BENDING,0.81900,0.00000,-27.28965,-58.22192,0.00000,-26.54851,0.00000,-0.95369,0.03450,0.70180
no_tcp,BENDING,0.82000,0.00000,-27.33208,-58.32879,0.00000,-26.58438,0.00000,-0.95406,0.03450,0.69977
no_tcp,BENDING,0.82100,0.00000,-27.37451,-58.43548,0.00000,-26.62024,0.00000,-0.95443,0.03450,0.69775
no_tcp,BENDING,0.82200,0.00000,-27.41693,-58.54199,0.00000,-26.65610,0.00000,-0.95479,0.03450,0.69573
no_tcp,BENDING,0.82300,0.00000,-27.45936,-58.64832,0.00000,-26.69196,0.00000,-0.95515,0.03450,0.69371
no_tcp,BENDING,0.82400,0.00000,-27.50179,-58.75446,0.00000,-26.72782,0.00000,-0.95550,0.03450,0.69169
no_tcp,BENDING,0.82500,0.00000,-27.54421,-58.86043,0.00000,-26.76368,0.00000,-0.95585,0.03450,0.68967
no_tcp,BENDING,0.82600,0.00000,-27.58664,-58.96622,0.00000,-26.79954,0.00000,-0.95619,0.03450,0.68766
no_tcp,BENDING,0.82700,0.00000,-27.62906,-59.07183,0.00000,-26.83541,0.00000,-0.95653,0.03450,0.68565
no_tcp,BENDING,0.82800,0.00000,-27.67149,-59.17726,0.00000,-26.87127,0.00000,-0.95686,0.03450,0.68364
no_tcp,BENDING,0.82900,0.00000,-27.71392,-59.28251,0.00000,-26.90713,0.00000,-0.95719,0.03450,0.68164
no_tcp,BENDING,0.83000,0.00000,-27.75634,-59.38757,0.00000,-26.94299,0.00000,-0.95751,0.03450,0.67963
no_tcp,BENDING,0.83100,0.00000,-27.79877,-59.49246,0.00000,-26.97885,0.00000,-0.95783,0.03450,0.67763
no_tcp,BENDING,0.83200,0.00000,-27.84120,-59.59717,0.00000,-27.01471,0.00000,-0.95814,0.03450,0.67563
no_tcp,BENDING,0.83300,0.00000,-27.88362,-59.70170,0.00000,-27.05057,0.00000,-0.95845,0.03450,0.67363
no_tcp,BENDING,0.83400,0.00000,-27.92605,-59.80605,0.00000,-27.08644,0.00000,-0.95875,0.03450,0.67163
no_tcp,BENDING,0.83500,0.00000,-27.96848,-59.91022,0.00000,-27.12230,0.00000,-0.95905,0.03450,0.66964
no_tcp,BENDING,0.83600,0.00000,-28.01090,-60.01421,0.00000,-27.15816,0.00000,-0.95934,0.03450,0.66765
no_tcp,BENDING,0.83700,0.00000,-28.05333,-60.11801,0.00000,-27.19402,0.00000,-0.95963,0.03450,0.66566
no_tcp,BENDING,0.83800,0.00000,-28.09576,-60.22164,0.00000,-27.22988,0.00000,-0.95992,0.03450,0.66367
no_tcp,BENDING,0.83900,0.00000,-28.13818,-60.32509,0.00000,-27.26574,0.00000,-0.96019,0.03450,0.66169
no_tcp,BENDING,0.84000,0.00000,-28.18061,-60.42836,0.00000,-27.30161,0.00000,-0.96047,0.03450,0.65970
no_tcp,BENDING,0.84100,0.00000,-28.22303,-60.53145,0.00000,-27.33747,0.00000,-0.96074,0.03450,0.65772
no_tcp,BENDING,0.84200,0.00000,-28.26546,-60.63436,0.00000,-27.37333,0.00000,-0.96100,0.03450,0.65575
no_tcp,BENDING,0.84300,0.00000,-28.30789,-60.73708,0.00000,-27.40919,0.00000,-0.96126,0.03450,0.65377
no_tcp,BENDING,0.84400,0.00000,-28.35031,-60.83963,0.00000,-27.44505,0.00000,-0.96152,0.03450,0.65180
no_tcp,BENDING,0.84500,0.00000,-28.39274,-60.94200,0.00000,-27.48091,0.00000,-0.96177,0.03450,0.64982
no_tcp,BENDING,0.84600,0.00000,-28.43517,-61.04419,0.00000,-27.51677,0.00000,-0.96201,0.03450,0.64785
no_tcp,BENDING,0.84700,0.00000,-28.47759,-61.14620,0.00000,-27.55264,0.00000,-0.96226,0.03450,0.64589
no_tcp,BENDING,0.84800,0.00000,-28.52002,-61.24803,0.00000,-27.58850,0.00000,-0.96249,0.03450,0.64392
no_tcp,BENDING,0.84900,0.00000,-28.56245,-61.34968,0.00000,-27.62436,0.00000,-0.96272,0.03450,0.64196
no_tcp,BENDING,0.85000,0.00000,-28.60487,-61.45114,0.00000,-27.66022,0.00000,-0.96295,0.03450,0.64000
no_tcp,BENDING,0.85100,0.00000,-28.64730,-61.55243,0.00000,-27.69608,0.00000,-0.96317,0.03450,0.63804
no_tcp,BENDING,0.85200,0.00000,-28.68973,-61.65354,0.00000,-27.73194,0.00000,-0.96339,0.03450,0.63609
no_tcp,BENDING,0.85300,0.00000,-28.73215,-61.75447,0.00000,-27.76780,0.00000,-0.96361,0.03450,0.63414
no_tcp,BENDING,0.85400,0.00000,-28.77458,-61.85522,0.00000,-27.80367,0.00000,-0.96382,0.03450,0.63219
no_tcp,BENDING,0.85500,0.00000,-28.81700,-61.95579,0.00000,-27.83953,0.00000,-0.96402,0.03450,0.63024
no_tcp,BENDING,0.85600,0.00000,-28.85943,-62.05617,0.00000,-27.87539,0.00000,-0.96422,0.03450,0.62829
no_tcp,BENDING,0.85700,0.00000,-28.90186,-62.15638,0.00000,-27.91125,0.00000,-0.96442,0.03450,0.62635
no_tcp,BENDING,0.85800,0.00000,-28.94428,-62.25641,0.00000,-27.94711,0.00000,-0.96461,0.03450,0.62441
no_tcp,BENDING,0.85900,0.00000,-28.98671,-62.35626,0.00000,-27.98297,0.00000,-0.96480,0.03450,0.62247
no_tcp,BENDING,0.86000,0.00000,-29.02914,-62.45593,0.00000,-28.01883,0.00000,-0.96498,0.03450,0.62053
no_tcp,BENDING,0.86100,0.00000,-29.07156,-62.55542,0.00000,-28.05470,0.00000,-0.96516,0.03450,0.61860
no_tcp,BENDING,0.86200,0.00000,-29.11399,-62.65473,0.00000,-28.09056,0.00000,-0.96533,0.03450,0.61667
no_tcp,BENDING,0.86300,0.00000,-29.15642,-62.75385,0.00000,-28.12642,0.00000,-0.96550,0.03450,0.61474
no_tcp,BENDING,0.86400,0.00000,-29.19884,-62.85280,0.00000,-28.16228,0.00000,-0.96567,0.03450,0.61281
no_tcp,BENDING,0.86500,0.00000,-29.24127,-62.95157,0.00000,-28.19814,0.00000,-0.96583,0.03450,0.61089
no_tcp,BENDING,0.86600,0.00000,-29.28369,-63.05016,0.00000,-28.23400,0.00000,-0.96598,0.03450,0.60897
no_tcp,BENDING,0.86700,0.00000,-29.32612,-63.14857,0.00000,-28.26986,0.00000,-0.96614,0.03450,0.60705
no_tcp,BENDING,0.86800,0.00000,-29.36855,-63.24680,0.00000,-28.30573,0.00000,-0.96628,0.03450,0.60514
no_tcp,BENDING,0.86900,0.00000,-29.41097,-63.34484,0.00000,-28.34159,0.00000,-0.96643,0.03450,0.60322
no_tcp,BENDING,0.87000,0.00000,-29.45340,-63.44271,0.00000,-28.37745,0.00000,-0.96657,0.03450,0.60131
no_tcp,BENDING,0.87100,0.00000,-29.49583,-63.54040,0.00000,-28.41331,0.00000,-0.96670,0.03450,0.59940
no_tcp,BENDING,0.87200,0.00000,-29.53825,-63.63791,0.00000,-28.44917,0.00000,-0.96684,0.03450,0.59750
no_tcp,BENDING,0.87300,0.00000,-29.58068,-63.73524,0.00000,-28.48503,0.00000,-0.96696,0.03450,0.59559
no_tcp,BENDING,0.87400,0.00000,-29.62311,-63.83239,0.00000,-28.52089,0.00000,-0.96709,0.03450,0.59369
no_tcp,BENDING,0.87500,0.00000,-29.66553,-63.92935,0.00000,-28.55676,0.00000,-0.96720,0.03450,0.59179
no_tcp,BENDING,0.87600,0.00000,-29.70796,-64.02614,0.00000,-28.59262,0.00000,-0.96732,0.03450,0.58990
no_tcp,BENDING,0.87700,0.00000,-29.75039,-64.12275,0.00000,-28.62848,0.00000,-0.96743,0.03450,0.58801
no_tcp,BENDING,0.87800,0.00000,-29.79281,-64.21918,0.00000,-28.66434,0.00000,-0.96754,0.03450,0.58612
no_tcp,BENDING,0.87900,0.00000,-29.83524,-64.31543,0.00000,-28.70020,0.00000,-0.96764,0.03450,0.58423
no_tcp,BENDING,0.88000,0.00000,-29.87766,-64.41150,0.00000,-28.73606,0.00000,-0.96774,0.03450,0.58234
no_tcp,BENDING,0.88100,0.00000,-29.92009,-64.50739,0.00000,-28.77192,0.00000,-0.96783,0.03450,0.58046
no_tcp,BENDING,0.88200,0.00000,-29.96252,-64.60309,0.00000,-28.80779,0.00000,-0.96792,0.03450,0.57858
no_tcp,BENDING,0.88300,0.00000,-30.00494,-64.69862,0.00000,-28.84365,0.00000,-0.96801,0.03450,0.57670
no_tcp,BENDING,0.88400,0.00000,-30.04737,-64.79397,0.00000,-28.87951,0.00000,-0.96809,0.03450,0.57483
no_tcp,BENDING,0.88500,0.00000,-30.08980,-64.88914,0.00000,-28.91537,0.00000,-0.96817,0.03450,0.57296
no_tcp,BENDING,0.88600,0.00000,-30.13222,-64.98413,0.00000,-28.95123,0.00000,-0.96824,0.03450,0.57109
no_tcp,BENDING,0.88700,0.00000,-30.17465,-65.07894,0.00000,-28.98709,0.00000,-0.96832,0.03450,0.56922
no_tcp,BENDING,0.88800,0.00000,-30.21708,-65.17356,0.00000,-29.02295,0.00000,-0.96838,0.03450,0.56736
no_tcp,BENDING,0.88900,0.00000,-30.25950,-65.26801,0.00000,-29.05882,0.00000,-0.96845,0.03450,0.56550
no_tcp,BENDING,0.89000,0.00000,-30.30193,-65.36228,0.00000,-29.09468,0.00000,-0.96850,0.03450,0.56364
no_tcp,BENDING,0.89100,0.00000,-30.34435,-65.45637,0.00000,-29.13054,0.00000,-0.96856,0.03450,0.56178
no_tcp,BENDING,0.89200,0.00000,-30.38678,-65.55028,0.00000,-29.16640,0.00000,-0.96861,0.03450,0.55993
no_tcp,BENDING,0.89300,0.00000,-30.42921,-65.64401,0.00000,-29.20226,0.00000,-0.96866,0.03450,0.55808
no_tcp,BENDING,0.89400,0.00000,-30.47163,-65.73756,0.00000,-29.23812,0.00000,-0.96870,0.03450,0.55623
no_tcp,BENDING,0.89500,0.00000,-30.51406,-65.83092,0.00000,-29.27398,0.00000,-0.96874,0.03450,0.55439
no_tcp,BENDING,0.89600,0.00000,-30.55649,-65.92411,0.00000,-29.30985,0.00000,-0.96878,0.03450,0.55254
no_tcp,BENDING,0.89700,0.00000,-30.59891,-66.01712,0.00000,-29.34571,0.00000,-0.96881,0.03450,0.55070
no_tcp,BENDING,0.89800,0.00000,-30.64134,-66.10995,0.00000,-29.38157,0.00000,-0.96884,0.03450,0.54887
no_tcp,BENDING,0.89900,0.00000,-30.68377,-66.20260,0.00000,-29.41743,0.00000,-0.96887,0.03450,0.54703
no_tcp,BENDING,0.90000,0.00000,-30.72619,-66.29507,0.00000,-29.45329,0.00000,-0.96889,0.03450,0.54520
no_tcp,BENDING,0.90100,0.00000,-30.76862,-66.38735,0.00000,-29.48915,0.00000,-0.96890,0.03450,0.54337
no_tcp,BENDING,0.90200,0.00000,-30.81105,-66.47946,0.00000,-29.52501,0.00000,-0.96892,0.03450,0.54155
no_tcp,BENDING,0.90300,0.00000,-30.85347,-66.57139,0.00000,-29.56088,0.00000,-0.96893,0.03450,0.53973
no_tcp,BENDING,0.90400,0.00000,-30.89590,-66.66314,0.00000,-29.59674,0.00000,-0.96894,0.03450,0.53791
no_tcp,BENDING,0.90500,0.00000,-30.93832,-66.75471,0.00000,-29.63260,0.00000,-0.96894,0.03450,0.53609
no_tcp,BENDING,0.90600,0.00000,-30.98075,-66.84610,0.00000,-29.66846,0.00000,-0.96894,0.03450,0.53427
no_tcp,BENDING,0.90700,0.00000,-31.02318,-66.93731,0.00000,-29.70432,0.00000,-0.96894,0.03450,0.53246
no_tcp,BENDING,0.90800,0.00000,-31.06560,-67.02833,0.00000,-29.74018,0.00000,-0.96893,0.03450,0.53065
no_tcp,BENDING,0.90900,0.00000,-31.10803,-67.11918,0.00000,-29.77605,0.00000,-0.96892,0.03450,0.52885
no_tcp,BENDING,0.91000,0.00000,-31.15046,-67.20985,0.00000,-29.81191,0.00000,-0.96890,0.03450,0.52704
no_tcp,BENDING,0.91100,0.00000,-31.19288,-67.30034,0.00000,-29.84777,0.00000,-0.96888,0.03450,0.52524
no_tcp,BENDING,0.91200,0.00000,-31.23531,-67.39065,0.00000,-29.88363,0.00000,-0.96886,0.03450,0.52345
no_tcp,BENDING,0.91300,0.00000,-31.27774,-67.48078,0.00000,-29.91949,0.00000,-0.96884,0.03450,0.52165
no_tcp,BENDING,0.91400,0.00000,-31.32016,-67.57072,0.00000,-29.95535,0.00000,-0.96881,0.03450,0.51986
no_tcp,BENDING,0.91500,0.00000,-31.36259,-67.66049,0.00000,-29.99121,0.00000,-0.96878,0.03450,0.51807
no_tcp,BENDING,0.91600,0.00000,-31.40502,-67.75008,0.00000,-30.02708,0.00000,-0.96874,0.03450,0.51629
no_tcp,BENDING,0.91700,0.00000,-31.44744,-67.83949,0.00000,-30.06294,0.00000,-0.96870,0.03450,0.51450
no_tcp,BENDING,0.91800,0.00000,-31.48987,-67.92872,0.00000,-30.09880,0.00000,-0.96866,0.03450,0.51272
no_tcp,BENDING,0.91900,0.00000,-31.53229,-68.01777,0.00000,-30.13466,0.00000,-0.96862,0.03450,0.51094
no_tcp,BENDING,0.92000,0.00000,-31.57472,-68.10663,0.00000,-30.17052,0.00000,-0.96857,0.03450,0.50917
no_tcp,BENDING,0.92100,0.00000,-31.61715,-68.19532,0.00000,-30.20638,0.00000,-0.96852,0.03450,0.50740
no_tcp,BENDING,0.92200,0.00000,-31.65957,-68.28383,0.00000,-30.24224,0.00000,-0.96846,0.03450,0.50563
no_tcp,BENDING,0.92300,0.00000,-31.70200,-68.37216,0.00000,-30.27811,0.00000,-0.96840,0.03450,0.50386
no_tcp,BENDING,0.92400,0.00000,-31.74443,-68.46031,0.00000,-30.31397,0.00000,-0.96834,0.03450,0.50210
no_tcp,BENDING,0.92500,0.00000,-31.78685,-68.54828,0.00000,-30.34983,0.00000,-0.96828,0.03450,0.50034
no_tcp,BENDING,0.92600,0.00000,-31.82928,-68.63607,0.00000,-30.38569,0.00000,-0.96821,0.03450,0.49858
no_tcp,BENDING,0.92700,0.00000,-31.87171,-68.72367,0.00000,-30.42155,0.00000,-0.96814,0.03450,0.49683
no_tcp,BENDING,0.92800,0.00000,-31.91413,-68.81110,0.00000,-30.45741,0.00000,-0.96806,0.03450,0.49508
no_tcp,BENDING,0.92900,0.00000,-31.95656,-68.89835,0.00000,-30.49327,0.00000,-0.96798,0.03450,0.49333
no_tcp,BENDING,0.93000,0.00000,-31.99898,-68.98542,0.00000,-30.52914,0.00000,-0.96790,0.03450,0.49158
no_tcp,BENDING,0.93100,0.00000,-32.04141,-69.07231,0.00000,-30.56500,0.00000,-0.96782,0.03450,0.48984
no_tcp,BENDING,0.93200,0.00000,-32.08384,-69.15902,0.00000,-30.60086,0.00000,-0.96773,0.03450,0.48810
no_tcp,BENDING,0.93300,0.00000,-32.12626,-69.24554,0.00000,-30.63672,0.00000,-0.96764,0.03450,0.48637
no_tcp,BENDING,0.93400,0.00000,-32.16869,-69.33189,0.00000,-30.67258,0.00000,-0.96755,0.03450,0.48463
no_tcp,BENDING,0.93500,0.00000,-32.21112,-69.41806,0.00000,-30.70844,0.00000,-0.96745,0.03450,0.48290
no_tcp,BENDING,0.93600,0.00000,-32.25354,-69.50405,0.00000,-30.74430,0.00000,-0.96735,0.03450,0.48117
no_tcp,BENDING,0.93700,0.00000,-32.29597,-69.58986,0.00000,-30.78017,0.00000,-0.96725,0.03450,0.47945
no_tcp,BENDING,0.93800,0.00000,-32.33840,-69.67549,0.00000,-30.81603,0.00000,-0.96714,0.03450,0.47773
no_tcp,BENDING,0.93900,0.00000,-32.38082,-69.76094,0.00000,-30.85189,0.00000,-0.96704,0.03450,0.47601
no_tcp,BENDING,0.94000,0.00000,-32.42325,-69.84620,0.00000,-30.88775,0.00000,-0.96692,0.03450,0.47429
no_tcp,BENDING,0.94100,0.00000,-32.46568,-69.93129,0.00000,-30.92361,0.00000,-0.96681,0.03450,0.47258
no_tcp,BENDING,0.94200,0.00000,-32.50810,-70.01620,0.00000,-30.95947,0.00000,-0.96669,0.03450,0.47087
no_tcp,BENDING,0.94300,0.00000,-32.55053,-70.10093,0.00000,-30.99533,0.00000,-0.96657,0.03450,0.46916
no_tcp,BENDING,0.94400,0.00000,-32.59295,-70.18548,0.00000,-31.03120,0.00000,-0.96645,0.03450,0.46746
no_tcp,BENDING,0.94500,0.00000,-32.63538,-70.26985,0.00000,-31.06706,0.00000,-0.96632,0.03450,0.46576
no_tcp,BENDING,0.94600,0.00000,-32.67781,-70.35403,0.00000,-31.10292,0.00000,-0.96619,0.03450,0.46406
no_tcp,BENDING,0.94700,0.00000,-32.72023,-70.43804,0.00000,-31.13878,0.00000,-0.96606,0.03450,0.46236
no_tcp,BENDING,0.94800,0.00000,-32.76266,-70.52187,0.00000,-31.17464,0.00000,-0.96592,0.03450,0.46067
no_tcp,BENDING,0.94900,0.00000,-32.80509,-70.60552,0.00000,-31.21050,0.00000,-0.96579,0.03450,0.45898
no_tcp,BENDING,0.95000,0.00000,-32.84751,-70.68899,0.00000,-31.24636,0.00000,-0.96565,0.03450,0.45730
no_tcp,BENDING,0.95100,0.00000,-32.88994,-70.77228,0.00000,-31.28223,0.00000,-0.96550,0.03450,0.45561
no_tcp,BENDING,0.95200,0.00000,-32.93237,-70.85539,0.00000,-31.31809,0.00000,-0.96536,0.03450,0.45393
no_tcp,BENDING,0.95300,0.00000,-32.97479,-70.93831,0.00000,-31.35395,0.00000,-0.96521,0.03450,0.45225
no_tcp,BENDING,0.95400,0.00000,-33.01722,-71.02106,0.00000,-31.38981,0.00000,-0.96506,0.03450,0.45058
no_tcp,BENDING,0.95500,0.00000,-33.05964,-71.10363,0.00000,-31.42567,0.00000,-0.96490,0.03450,0.44891
no_tcp,BENDING,0.95600,0.00000,-33.10207,-71.18602,0.00000,-31.46153,0.00000,-0.96474,0.03450,0.44724
no_tcp,BENDING,0.95700,0.00000,-33.14450,-71.26823,0.00000,-31.49739,0.00000,-0.96458,0.03450,0.44558
no_tcp,BENDING,0.95800,0.00000,-33.18692,-71.35026,0.00000,-31.53326,0.00000,-0.96442,0.03450,0.44391
no_tcp,BENDING,0.95900,0.00000,-33.22935,-71.43210,0.00000,-31.56912,0.00000,-0.96426,0.03450,0.44226
no_tcp,BENDING,0.96000,0.00000,-33.27178,-71.51377,0.00000,-31.60498,0.00000,-0.96409,0.03450,0.44060
no_tcp,BENDING,0.96100,0.00000,-33.31420,-71.59526,0.00000,-31.64084,0.00000,-0.96392,0.03450,0.43895
no_tcp,BENDING,0.96200,0.00000,-33.35663,-71.67657,0.00000,-31.67670,0.00000,-0.96374,0.03450,0.43730
no_tcp,BENDING,0.96300,0.00000,-33.39906,-71.75770,0.00000,-31.71256,0.00000,-0.96357,0.03450,0.43565
no_tcp,BENDING,0.96400,0.00000,-33.44148,-71.83865,0.00000,-31.74842,0.00000,-0.96339,0.03450,0.43401
no_tcp,BENDING,0.96500,0.00000,-33.48391,-71.91941,0.00000,-31.78429,0.00000,-0.96321,0.03450,0.43236
no_tcp,BENDING,0.96600,0.00000,-33.52634,-72.00000,0.00000,-31.82015,0.00000,-0.96302,0.03450,0.43073
no_tcp,BENDING,0.96700,0.00000,-33.56876,-72.08041,0.00000,-31.85601,0.00000,-0.96284,0.03450,0.42909
no_tcp,BENDING,0.96800,0.00000,-33.61119,-72.16064,0.00000,-31.89187,0.00000,-0.96265,0.03450,0.42746
no_tcp,BENDING,0.96900,0.00000,-33.65361,-72.24069,0.00000,-31.92773,0.00000,-0.96246,0.03450,0.42583
no_tcp,BENDING,0.97000,0.00000,-33.69604,-72.32056,0.00000,-31.96359,0.00000,-0.96226,0.03450,0.42421
no_tcp,BENDING,0.97100,0.00000,-33.73847,-72.40025,0.00000,-31.99946,0.00000,-0.96207,0.03450,0.42258
no_tcp,BENDING,0.97200,0.00000,-33.78089,-72.47975,0.00000,-32.03532,0.00000,-0.96187,0.03450,0.42096
no_tcp,BENDING,0.97300,0.00000,-33.82332,-72.55908,0.00000,-32.07118,0.00000,-0.96167,0.03450,0.41935
no_tcp,BENDING,0.97400,0.00000,-33.86575,-72.63823,0.00000,-32.10704,0.00000,-0.96146,0.03450,0.41773
no_tcp,BENDING,0.97500,0.00000,-33.90817,-72.71720,0.00000,-32.14290,0.00000,-0.96126,0.03450,0.41612
no_tcp,BENDING,0.97600,0.00000,-33.95060,-72.79599,0.00000,-32.17876,0.00000,-0.96105,0.03450,0.41452
no_tcp,BENDING,0.97700,0.00000,-33.99303,-72.87460,0.00000,-32.21462,0.00000,-0.96084,0.03450,0.41291
no_tcp,BENDING,0.97800,0.00000,-34.03545,-72.95302,0.00000,-32.25049,0.00000,-0.96063,0.03450,0.41131
no_tcp,BENDING,0.97900,0.00000,-34.07788,-73.03127,0.00000,-32.28635,0.00000,-0.96041,0.03450,0.40971
no_tcp,BENDING,0.98000,0.00000,-34.12031,-73.10934,0.00000,-32.32221,0.00000,-0.96019,0.03450,0.40812
no_tcp,BENDING,0.98100,0.00000,-34.16273,-73.18723,0.00000,-32.35807,0.00000,-0.95997,0.03450,0.40652
no_tcp,BENDING,0.98200,0.00000,-34.20516,-73.26494,0.00000,-32.39393,0.00000,-0.95975,0.03450,0.40494
no_tcp,BENDING,0.98300,0.00000,-34.24758,-73.34247,0.00000,-32.42979,0.00000,-0.95953,0.03450,0.40335
no_tcp,BENDING,0.98400,0.00000,-34.29001,-73.41982,0.00000,-32.46565,0.00000,-0.95930,0.03450,0.40177
no_tcp,BENDING,0.98500,0.00000,-34.33244,-73.49698,0.00000,-32.50152,0.00000,-0.95907,0.03450,0.40019
no_tcp,BENDING,0.98600,0.00000,-34.37486,-73.57397,0.00000,-32.53738,0.00000,-0.95884,0.03450,0.39861
no_tcp,BENDING,0.98700,0.00000,-34.41729,-73.65078,0.00000,-32.57324,0.00000,-0.95860,0.03450,0.39704
no_tcp,BENDING,0.98800,0.00000,-34.45972,-73.72741,0.00000,-32.60910,0.00000,-0.95837,0.03450,0.39547
no_tcp,BENDING,0.98900,0.00000,-34.50214,-73.80386,0.00000,-32.64496,0.00000,-0.95813,0.03450,0.39390
