GriTRini/uon_rt/demo/real/tcp_test/real_robot_joint_log.csv
Time,Step,J1,J2,J3,J4,J5,J6,TCP_X,TCP_Y,TCP_Z
0.00000,Pose_Setup,48.64062,-1.30811,90.04442,0.03326,89.95486,-0.00829,0.33581,0.43377,0.66370
0.00100,Pose_Setup,48.64062,-1.30811,90.04442,0.03326,89.95486,-0.00829,0.33581,0.43377,0.66370
0.00200,Pose_Setup,48.64062,-1.30811,90.04442,0.03326,89.95486,-0.00829,0.33581,0.43377,0.66370
0.00300,Pose_Setup,48.64062,-1.30811,90.04442,0.03326,89.95486,-0.00829,0.33581,0.43377,0.66371
0.00400,Pose_Setup,48.64062,-1.30811,90.04442,0.03326,89.95486,-0.00829,0.33581,0.43377,0.66371
0.00500,Pose_Setup,48.64062,-1.30811,90.04442,0.03326,89.95486,-0.00829,0.33581,0.43376,0.66372
0.00600,Pose_Setup,48.64062,-1.30811,90.04442,0.03326,89.95486,-0.00829,0.33581,0.43376,0.66373
0.00700,Pose_Setup,48.64062,-1.30811,90.04442,0.03326,89.95486,-0.00829,0.33581,0.43376,0.66374
0.00800,Pose_Setup,48.64062,-1.30811,90.04442,0.03326,89.95486,-0.00829,0.33581,0.43376,0.66375
0.00900,Pose_Setup,48.64062,-1.30811,90.04442,0.03326,89.95486,-0.00829,0.33581,0.43376,0.66377
0.01000,Pose_Setup,48.64062,-1.30811,90.04442,0.03326,89.95486,-0.00829,0.33581,0.43376,0.66379
0.01100,Pose_Setup,48.64062,-1.30811,90.04430,0.03326,89.95501,-0.00829,0.33581,0.43376,0.66380
0.01200,Pose_Setup,48.64062,-1.30811,90.04418,0.03326,89.95501,-0.00829,0.33581,0.43376,0.66382
0.01300,Pose_Setup,48.64062,-1.30811,90.04418,0.03326,89.95501,-0.00829,0.33581,0.43376,0.66385
0.01400,Pose_Setup,48.64062,-1.30811,90.04406,0.03326,89.95516,-0.00829,0.33581,0.43376,0.66387
0.01500,Pose_Setup,48.64062,-1.30811,90.04382,0.03326,89.95516,-0.00829,0.33581,0.43376,0.66390
0.01600,Pose_Setup,48.64062,-1.30811,90.04371,0.03326,89.95531,-0.00829,0.33581,0.43376,0.66392
0.01700,Pose_Setup,48.64062,-1.30811,90.04335,0.03326,89.95546,-0.00829,0.33581,0.43376,0.66395
0.01800,Pose_Setup,48.64062,-1.30811,90.04300,0.03326,89.95560,-0.00829,0.33581,0.43376,0.66397
0.01900,Pose_Setup,48.64062,-1.30811,90.04193,0.03326,89.95590,-0.00829,0.33581,0.43376,0.66400
0.02000,Pose_Setup,48.64062,-1.30811,90.04110,0.03326,89.95605,-0.00829,0.33581,0.43376,0.66402
0.02100,Pose_Setup,48.64062,-1.30811,90.04110,0.03326,89.95605,-0.00829,0.33581,0.43376,0.66404
0.02200,Pose_Setup,48.64062,-1.30811,90.04028,0.03326,89.95634,-0.00829,0.33581,0.43376,0.66405
0.02300,Pose_Setup,48.64062,-1.30811,90.03921,0.03326,89.95664,-0.00829,0.33581,0.43376,0.66407
0.02400,Pose_Setup,48.64062,-1.30811,90.03814,0.03326,89.95708,-0.00829,0.33581,0.43376,0.66408
0.02500,Pose_Setup,48.64062,-1.30811,90.03684,0.03326,89.95753,-0.00829,0.33581,0.43376,0.66410
0.02600,Pose_Setup,48.64062,-1.30811,90.03565,0.03326,89.95812,-0.00829,0.33581,0.43376,0.66411
0.02700,Pose_Setup,48.64062,-1.30811,90.03436,0.03326,89.95886,-0.00829,0.33581,0.43376,0.66411
0.02800,Pose_Setup,48.64062,-1.30811,90.03316,0.03326,89.95960,-0.00829,0.33581,0.43376,0.66412
0.02900,Pose_Setup,48.64062,-1.30811,90.03198,0.03326,89.96064,-0.00829,0.33580,0.43376,0.66413
0.03000,Pose_Setup,48.64062,-1.30811,90.03091,0.03326,89.96167,-0.00829,0.33580,0.43376,0.66413
0.03100,Pose_Setup,48.64062,-1.30799,90.02985,0.03326,89.96286,-0.00829,0.33580,0.43376,0.66413
0.03200,Pose_Setup,48.64062,-1.30799,90.02891,0.03326,89.96404,-0.00829,0.33580,0.43376,0.66413
0.03300,Pose_Setup,48.64062,-1.30799,90.02808,0.03326,89.96538,-0.00829,0.33580,0.43376,0.66413
0.03400,Pose_Setup,48.64062,-1.30799,90.02724,0.03326,89.96656,-0.00829,0.33580,0.43376,0.66413
0.03500,Pose_Setup,48.64062,-1.30799,90.02654,0.03326,89.96774,-0.00829,0.33580,0.43376,0.66413
0.03600,Pose_Setup,48.64062,-1.30799,90.02594,0.03326,89.96878,-0.00829,0.33580,0.43376,0.66413
0.03700,Pose_Setup,48.64062,-1.30799,90.02547,0.03326,89.96982,-0.00829,0.33580,0.43376,0.66413
0.03800,Pose_Setup,48.64062,-1.30799,90.02512,0.03326,89.97070,-0.00829,0.33580,0.43376,0.66413
0.03900,Pose_Setup,48.64062,-1.30799,90.02476,0.03326,89.97159,-0.00829,0.33580,0.43376,0.66413
0.04000,Pose_Setup,48.64062,-1.30799,90.02441,0.03326,89.97218,-0.00829,0.33580,0.43376,0.66413
0.04100,Pose_Setup,48.64062,-1.30799,90.02428,0.03326,89.97263,-0.00829,0.33580,0.43376,0.66413
0.04200,Pose_Setup,48.64062,-1.30799,90.02405,0.03326,89.97307,-0.00829,0.33580,0.43376,0.66413
0.04300,Pose_Setup,48.64062,-1.30799,90.02346,0.03326,89.97396,-0.00829,0.33580,0.43376,0.66413
0.04400,Pose_Setup,48.64062,-1.30799,90.02310,0.03326,89.97426,-0.00829,0.33580,0.43376,0.66413
0.04500,Pose_Setup,48.64062,-1.30799,90.02274,0.03326,89.97470,-0.00829,0.33580,0.43376,0.66413
0.04600,Pose_Setup,48.64050,-1.30799,90.02239,0.03326,89.97500,-0.00829,0.33580,0.43376,0.66413
0.04700,Pose_Setup,48.64050,-1.30799,90.02239,0.03326,89.97500,-0.00829,0.33580,0.43376,0.66413
0.04800,Pose_Setup,48.64050,-1.30799,90.02192,0.03326,89.97529,-0.00829,0.33580,0.43376,0.66413
0.04900,Pose_Setup,48.64050,-1.30799,90.02156,0.03326,89.97574,-0.00829,0.33580,0.43376,0.66413
0.05000,Pose_Setup,48.64050,-1.30799,90.02121,0.03326,89.97603,-0.00829,0.33580,0.43376,0.66413
0.05100,Pose_Setup,48.64050,-1.30799,90.02074,0.03326,89.97633,-0.00829,0.33580,0.43376,0.66413
0.05200,Pose_Setup,48.64050,-1.30799,90.02038,0.03326,89.97662,-0.00829,0.33580,0.43376,0.66413
0.05300,Pose_Setup,48.64050,-1.30799,90.02014,0.03341,89.97692,-0.00829,0.33580,0.43376,0.66413
0.05400,Pose_Setup,48.64050,-1.30799,90.01978,0.03341,89.97722,-0.00829,0.33580,0.43376,0.66413
0.05500,Pose_Setup,48.64050,-1.30799,90.01943,0.03341,89.97752,-0.00829,0.33580,0.43376,0.66413
0.05600,Pose_Setup,48.64050,-1.30799,90.01920,0.03341,89.97766,-0.00829,0.33580,0.43376,0.66413
0.05700,Pose_Setup,48.64050,-1.30799,90.01896,0.03341,89.97796,-0.00829,0.33580,0.43376,0.66413
0.05800,Pose_Setup,48.64050,-1.30799,90.01872,0.03341,89.97826,-0.00829,0.33580,0.43376,0.66413
0.05900,Pose_Setup,48.64050,-1.30799,90.01860,0.03341,89.97855,-0.00829,0.33580,0.43376,0.66413
0.06000,Pose_Setup,48.64050,-1.30799,90.01836,0.03341,89.97884,-0.00829,0.33580,0.43376,0.66413
0.06100,Pose_Setup,48.64050,-1.30811,90.01825,0.03341,89.97900,-0.00829,0.33580,0.43376,0.66413
0.06200,Pose_Setup,48.64050,-1.30811,90.01813,0.03341,89.97929,-0.00829,0.33580,0.43376,0.66413
0.06300,Pose_Setup,48.64050,-1.30811,90.01801,0.03341,89.97944,-0.00829,0.33580,0.43376,0.66413
0.06400,Pose_Setup,48.64050,-1.30811,90.01777,0.03341,89.97974,-0.00829,0.33580,0.43376,0.66413
0.06500,Pose_Setup,48.64050,-1.30811,90.01777,0.03341,89.98003,-0.00829,0.33580,0.43376,0.66413
0.06600,Pose_Setup,48.64062,-1.30823,90.01765,0.03341,89.98018,-0.00829,0.33580,0.43376,0.66413
0.06700,Pose_Setup,48.64062,-1.30823,90.01753,0.03341,89.98048,-0.00829,0.33580,0.43376,0.66413
0.06800,Pose_Setup,48.64062,-1.30823,90.01753,0.03341,89.98062,-0.00829,0.33580,0.43376,0.66413
0.06900,Pose_Setup,48.64062,-1.30835,90.01742,0.03341,89.98092,-0.00829,0.33580,0.43376,0.66413
0.07000,Pose_Setup,48.64062,-1.30835,90.01742,0.03341,89.98106,-0.00829,0.33580,0.43376,0.66413
0.07100,Pose_Setup,48.64062,-1.30847,90.01742,0.03341,89.98136,-0.00829,0.33580,0.43376,0.66413
0.07200,Pose_Setup,48.64062,-1.30847,90.01742,0.03326,89.98151,-0.00829,0.33580,0.43376,0.66413
0.07300,Pose_Setup,48.64062,-1.30847,90.01730,0.03326,89.98180,-0.00829,0.33580,0.43376,0.66413
0.07400,Pose_Setup,48.64062,-1.30859,90.01730,0.03326,89.98196,-0.00829,0.33580,0.43376,0.66413
0.07500,Pose_Setup,48.64062,-1.30859,90.01730,0.03326,89.98240,-0.00829,0.33580,0.43376,0.66413
0.07600,Pose_Setup,48.64062,-1.30859,90.01730,0.03326,89.98240,-0.00829,0.33580,0.43376,0.66413
0.07700,Pose_Setup,48.64062,-1.30859,90.01730,0.03326,89.98270,-0.00829,0.33580,0.43376,0.66413
0.07800,Pose_Setup,48.64062,-1.30859,90.01718,0.03326,89.98284,-0.00829,0.33580,0.43376,0.66413
0.07900,Pose_Setup,48.64062,-1.30870,90.01718,0.03326,89.98299,-0.00829,0.33580,0.43376,0.66413
0.08000,Pose_Setup,48.64062,-1.30870,90.01718,0.03326,89.98328,-0.00829,0.33580,0.43376,0.66413
0.08100,Pose_Setup,48.64062,-1.30870,90.01706,0.03326,89.98344,-0.00829,0.33580,0.43376,0.66413
0.08200,Pose_Setup,48.64062,-1.30870,90.01706,0.03326,89.98358,-0.00829,0.33580,0.43376,0.66413
0.08300,Pose_Setup,48.64062,-1.30870,90.01694,0.03326,89.98388,-0.00829,0.33580,0.43376,0.66413
0.08400,Pose_Setup,48.64062,-1.30870,90.01694,0.03326,89.98402,-0.00829,0.33580,0.43376,0.66413
0.08500,Pose_Setup,48.64062,-1.30870,90.01682,0.03326,89.98418,-0.00829,0.33580,0.43376,0.66413
0.08600,Pose_Setup,48.64062,-1.30859,90.01671,0.03326,89.98432,-0.00829,0.33580,0.43376,0.66413
0.08700,Pose_Setup,48.64062,-1.30859,90.01659,0.03326,89.98447,-0.00829,0.33580,0.43376,0.66413
0.08800,Pose_Setup,48.64062,-1.30859,90.01647,0.03326,89.98462,-0.00829,0.33580,0.43376,0.66413
0.08900,Pose_Setup,48.64062,-1.30859,90.01635,0.03326,89.98476,-0.00829,0.33580,0.43376,0.66413
0.09000,Pose_Setup,48.64062,-1.30859,90.01624,0.03326,89.98492,-0.00829,0.33580,0.43376,0.66413
0.09100,Pose_Setup,48.64062,-1.30859,90.01611,0.03326,89.98521,-0.00829,0.33580,0.43376,0.66413
0.09200,Pose_Setup,48.64062,-1.30859,90.01600,0.03326,89.98536,-0.00829,0.33580,0.43376,0.66413
0.09300,Pose_Setup,48.64062,-1.30859,90.01576,0.03326,89.98550,-0.00829,0.33580,0.43376,0.66413
0.09400,Pose_Setup,48.64062,-1.30859,90.01576,0.03326,89.98566,-0.00829,0.33580,0.43376,0.66413
0.09500,Pose_Setup,48.64062,-1.30859,90.01564,0.03326,89.98580,-0.00829,0.33580,0.43376,0.66413
0.09600,Pose_Setup,48.64062,-1.30847,90.01553,0.03326,89.98595,-0.00829,0.33580,0.43376,0.66413
0.09700,Pose_Setup,48.64062,-1.30847,90.01540,0.03326,89.98624,-0.00829,0.33580,0.43376,0.66413
0.09800,Pose_Setup,48.64062,-1.30847,90.01529,0.03326,89.98640,-0.00829,0.33580,0.43376,0.66413
0.09900,Pose_Setup,48.64062,-1.30847,90.01517,0.03326,89.98669,-0.00829,0.33580,0.43376,0.66413
0.10000,Pose_Setup,48.64062,-1.30847,90.01517,0.03326,89.98684,-0.00829,0.33580,0.43376,0.66413
0.10100,Pose_Setup,48.64062,-1.30847,90.01505,0.03326,89.98698,-0.00829,0.33580,0.43376,0.66413
0.10200,Pose_Setup,48.64062,-1.30835,90.01505,0.03326,89.98714,-0.00829,0.33580,0.43376,0.66413
0.10300,Pose_Setup,48.64062,-1.30835,90.01505,0.03326,89.98714,-0.00829,0.33580,0.43376,0.66413
0.10400,Pose_Setup,48.64062,-1.30835,90.01505,0.03326,89.98728,-0.00829,0.33580,0.43376,0.66413
0.10500,Pose_Setup,48.64062,-1.30835,90.01505,0.03326,89.98758,-0.00829,0.33580,0.43376,0.66413
0.10600,Pose_Setup,48.64062,-1.30835,90.01505,0.03326,89.98772,-0.00829,0.33580,0.43376,0.66413
0.10700,Pose_Setup,48.64062,-1.30835,90.01505,0.03326,89.98788,-0.00829,0.33580,0.43376,0.66413
0.10800,Pose_Setup,48.64062,-1.30835,90.01505,0.03326,89.98802,-0.00829,0.33580,0.43376,0.66413
0.10900,Pose_Setup,48.64062,-1.30835,90.01505,0.03326,89.98817,-0.00829,0.33580,0.43376,0.66413
0.11000,Pose_Setup,48.64062,-1.30835,90.01505,0.03326,89.98832,-0.00829,0.33580,0.43376,0.66413
0.11100,Pose_Setup,48.64062,-1.30835,90.01505,0.03326,89.98846,-0.00829,0.33580,0.43376,0.66413
0.11200,Pose_Setup,48.64062,-1.30835,90.01505,0.03326,89.98862,-0.00829,0.33580,0.43376,0.66413
0.11300,Pose_Setup,48.64062,-1.30835,90.01505,0.03326,89.98862,-0.00829,0.33580,0.43376,0.66413
0.11400,Pose_Setup,48.64062,-1.30835,90.01505,0.03326,89.98891,-0.00829,0.33580,0.43376,0.66413
0.11500,Pose_Setup,48.64062,-1.30835,90.01505,0.03326,89.98906,-0.00829,0.33580,0.43376,0.66413
0.11600,Pose_Setup,48.64062,-1.30835,90.01505,0.03326,89.98920,-0.00829,0.33580,0.43376,0.66413
0.11700,Pose_Setup,48.64062,-1.30835,90.01505,0.03326,89.98936,-0.00829,0.33580,0.43376,0.66413
0.11800,Pose_Setup,48.64062,-1.30835,90.01505,0.03326,89.98950,-0.00829,0.33580,0.43376,0.66413
0.11900,Pose_Setup,48.64062,-1.30835,90.01505,0.03326,89.98965,-0.00829,0.33580,0.43376,0.66413
0.12000,Pose_Setup,48.64062,-1.30835,90.01505,0.03326,89.98994,-0.00829,0.33580,0.43376,0.66413
0.12100,Pose_Setup,48.64062,-1.30835,90.01505,0.03326,89.99010,-0.00829,0.33580,0.43376,0.66413
0.12200,Pose_Setup,48.64062,-1.30835,90.01505,0.03326,89.99024,-0.00829,0.33580,0.43376,0.66413
0.12300,Pose_Setup,48.64062,-1.30835,90.01505,0.03326,89.99039,-0.00829,0.33580,0.43376,0.66413
0.12400,Pose_Setup,48.64062,-1.30835,90.01505,0.03326,89.99054,-0.00829,0.33580,0.43376,0.66413
0.12500,Pose_Setup,48.64062,-1.30835,90.01505,0.03326,89.99068,-0.00829,0.33580,0.43376,0.66413
0.12600,Pose_Setup,48.64062,-1.30835,90.01505,0.03326,89.99084,-0.00829,0.33580,0.43376,0.66413
0.12700,Pose_Setup,48.64062,-1.30835,90.01505,0.03326,89.99098,-0.00829,0.33580,0.43376,0.66413
0.12800,Pose_Setup,48.64062,-1.30835,90.01505,0.03326,89.99113,-0.00829,0.33580,0.43376,0.66413
0.12900,Pose_Setup,48.64062,-1.30835,90.01505,0.03326,89.99128,-0.00829,0.33580,0.43376,0.66413
0.13000,Pose_Setup,48.64062,-1.30835,90.01493,0.03326,89.99128,-0.00829,0.33580,0.43376,0.66413
0.13100,Pose_Setup,48.64062,-1.30835,90.01493,0.03326,89.99142,-0.00829,0.33580,0.43376,0.66413
0.13200,Pose_Setup,48.64062,-1.30835,90.01493,0.03326,89.99158,-0.00829,0.33580,0.43376,0.66413
0.13300,Pose_Setup,48.64062,-1.30835,90.01493,0.03326,89.99172,-0.00829,0.33580,0.43376,0.66413
0.13400,Pose_Setup,48.64062,-1.30835,90.01481,0.03326,89.99187,-0.00829,0.33580,0.43376,0.66413
0.13500,Pose_Setup,48.64062,-1.30835,90.01481,0.03326,89.99202,-0.00829,0.33580,0.43376,0.66413
0.13600,Pose_Setup,48.64062,-1.30835,90.01469,0.03326,89.99216,-0.00829,0.33580,0.43376,0.66413
0.13700,Pose_Setup,48.64062,-1.30835,90.01457,0.03326,89.99232,-0.00829,0.33580,0.43376,0.66413
0.13800,Pose_Setup,48.64062,-1.30835,90.01446,0.03326,89.99246,-0.00829,0.33580,0.43376,0.66413
0.13900,Pose_Setup,48.64062,-1.30835,90.01434,0.03326,89.99261,-0.00829,0.33580,0.43376,0.66413
0.14000,Pose_Setup,48.64062,-1.30835,90.01422,0.03326,89.99276,-0.00829,0.33580,0.43376,0.66413
0.14100,Pose_Setup,48.64062,-1.30835,90.01410,0.03326,89.99290,-0.00829,0.33580,0.43376,0.66413
0.14200,Pose_Setup,48.64062,-1.30835,90.01410,0.03326,89.99290,-0.00829,0.33580,0.43376,0.66413
0.14300,Pose_Setup,48.64062,-1.30835,90.01398,0.03326,89.99306,-0.00829,0.33580,0.43376,0.66413
0.14400,Pose_Setup,48.64062,-1.30835,90.01386,0.03326,89.99320,-0.00829,0.33580,0.43376,0.66413
0.14500,Pose_Setup,48.64062,-1.30835,90.01386,0.03326,89.99335,-0.00829,0.33580,0.43376,0.66413
0.14600,Pose_Setup,48.64062,-1.30835,90.01375,0.03326,89.99350,-0.00829,0.33580,0.43376,0.66413
0.14700,Pose_Setup,48.64062,-1.30835,90.01363,0.03326,89.99350,-0.00829,0.33580,0.43376,0.66413
0.14800,Pose_Setup,48.64062,-1.30835,90.01351,0.03326,89.99364,-0.00829,0.33580,0.43376,0.66413
0.14900,Pose_Setup,48.64062,-1.30835,90.01351,0.03326,89.99380,-0.00829,0.33580,0.43376,0.66413
0.15000,Pose_Setup,48.64062,-1.30835,90.01339,0.03326,89.99394,-0.00829,0.33580,0.43376,0.66413
0.15100,Pose_Setup,48.64062,-1.30835,90.01328,0.03326,89.99409,-0.00829,0.33580,0.43376,0.66413
0.15200,Pose_Setup,48.64062,-1.30835,90.01328,0.03326,89.99409,-0.00829,0.33580,0.43376,0.66413
0.15300,Pose_Setup,48.64062,-1.30835,90.01315,0.03326,89.99424,-0.00829,0.33580,0.43376,0.66413
0.15400,Pose_Setup,48.64062,-1.30847,90.01315,0.03326,89.99438,-0.00829,0.33580,0.43376,0.66413
0.15500,Pose_Setup,48.64062,-1.30847,90.01304,0.03326,89.99454,-0.00829,0.33580,0.43376,0.66413
0.15600,Pose_Setup,48.64062,-1.30847,90.01304,0.03326,89.99468,-0.00829,0.33580,0.43376,0.66413
0.15700,Pose_Setup,48.64062,-1.30847,90.01292,0.03326,89.99468,-0.00829,0.33580,0.43376,0.66413
0.15800,Pose_Setup,48.64062,-1.30847,90.01292,0.03326,89.99483,-0.00829,0.33580,0.43376,0.66413
0.15900,Pose_Setup,48.64062,-1.30847,90.01292,0.03326,89.99498,-0.00829,0.33580,0.43376,0.66413
0.16000,Pose_Setup,48.64062,-1.30847,90.01280,0.03326,89.99512,-0.00829,0.33580,0.43376,0.66413
0.16100,Pose_Setup,48.64062,-1.30847,90.01280,0.03326,89.99512,-0.00829,0.33580,0.43376,0.66413
0.16200,Pose_Setup,48.64062,-1.30847,90.01280,0.03326,89.99528,-0.00829,0.33580,0.43376,0.66413
0.16300,Pose_Setup,48.64062,-1.30847,90.01268,0.03326,89.99542,-0.00829,0.33580,0.43376,0.66413
0.16400,Pose_Setup,48.64062,-1.30847,90.01268,0.03326,89.99542,-0.00829,0.33580,0.43376,0.66413
0.16500,Pose_Setup,48.64062,-1.30847,90.01257,0.03326,89.99557,-0.00829,0.33580,0.43376,0.66413
0.16600,Pose_Setup,48.64062,-1.30847,90.01257,0.03326,89.99572,-0.00829,0.33580,0.43376,0.66413
0.16700,Pose_Setup,48.64062,-1.30847,90.01244,0.03326,89.99586,-0.00829,0.33580,0.43376,0.66413
0.16800,Pose_Setup,48.64062,-1.30847,90.01244,0.03326,89.99602,-0.00829,0.33580,0.43376,0.66413
0.16900,Pose_Setup,48.64062,-1.30847,90.01232,0.03326,89.99602,-0.00829,0.33580,0.43376,0.66413
0.17000,Pose_Setup,48.64062,-1.30847,90.01232,0.03326,89.99602,-0.00829,0.33580,0.43376,0.66413
0.17100,Pose_Setup,48.64062,-1.30847,90.01232,0.03326,89.99616,-0.00829,0.33580,0.43376,0.66413
0.17200,Pose_Setup,48.64062,-1.30847,90.01232,0.03326,89.99616,-0.00829,0.33580,0.43376,0.66413
0.17300,Pose_Setup,48.64062,-1.30847,90.01221,0.03326,89.99632,-0.00829,0.33580,0.43376,0.66413
0.17400,Pose_Setup,48.64062,-1.30847,90.01221,0.03326,89.99632,-0.00829,0.33580,0.43376,0.66413
0.17500,Pose_Setup,48.64062,-1.30847,90.01208,0.03326,89.99646,-0.00829,0.33580,0.43376,0.66413
0.17600,Pose_Setup,48.64062,-1.30847,90.01208,0.03326,89.99660,-0.00829,0.33580,0.43376,0.66413
0.17700,Pose_Setup,48.64062,-1.30847,90.01197,0.03326,89.99660,-0.00829,0.33580,0.43376,0.66413
0.17800,Pose_Setup,48.64062,-1.30847,90.01197,0.03326,89.99676,-0.00829,0.33580,0.43376,0.66413
0.17900,Pose_Setup,48.64062,-1.30847,90.01185,0.03326,89.99690,-0.00829,0.33580,0.43376,0.66413
0.18000,Pose_Setup,48.64062,-1.30847,90.01185,0.03326,89.99690,-0.00829,0.33580,0.43376,0.66413
0.18100,Pose_Setup,48.64062,-1.30835,90.01185,0.03326,89.99706,-0.00829,0.33580,0.43376,0.66413
0.18200,Pose_Setup,48.64062,-1.30835,90.01173,0.03326,89.99706,-0.00829,0.33580,0.43376,0.66413
0.18300,Pose_Setup,48.64062,-1.30835,90.01173,0.03326,89.99720,-0.00829,0.33580,0.43376,0.66413
0.18400,Pose_Setup,48.64062,-1.30835,90.01161,0.03326,89.99720,-0.00829,0.33580,0.43376,0.66413
0.18500,Pose_Setup,48.64062,-1.30835,90.01161,0.03326,89.99734,-0.00829,0.33580,0.43376,0.66413
0.18600,Pose_Setup,48.64062,-1.30835,90.01161,0.03326,89.99734,-0.00829,0.33580,0.43376,0.66413
0.18700,Pose_Setup,48.64062,-1.30835,90.01161,0.03326,89.99750,-0.00829,0.33580,0.43376,0.66413
0.18800,Pose_Setup,48.64062,-1.30835,90.01150,0.03326,89.99750,-0.00829,0.33580,0.43376,0.66413
0.18900,Pose_Setup,48.64062,-1.30835,90.01150,0.03326,89.99764,-0.00829,0.33580,0.43376,0.66413
0.19000,Pose_Setup,48.64062,-1.30835,90.01150,0.03326,89.99764,-0.00829,0.33580,0.43376,0.66413
0.19100,Pose_Setup,48.64062,-1.30835,90.01150,0.03326,89.99764,-0.00829,0.33580,0.43376,0.66413
0.19200,Pose_Setup,48.64062,-1.30835,90.01150,0.03326,89.99780,-0.00829,0.33580,0.43376,0.66413
0.19300,Pose_Setup,48.64062,-1.30835,90.01150,0.03326,89.99780,-0.00829,0.33580,0.43376,0.66413
0.19400,Pose_Setup,48.64062,-1.30835,90.01138,0.03326,89.99794,-0.00829,0.33580,0.43376,0.66413
0.19500,Pose_Setup,48.64062,-1.30835,90.01138,0.03326,89.99794,-0.00829,0.33580,0.43376,0.66413
0.19600,Pose_Setup,48.64062,-1.30835,90.01138,0.03326,89.99809,-0.00829,0.33580,0.43376,0.66413
0.19700,Pose_Setup,48.64062,-1.30835,90.01138,0.03326,89.99809,-0.00829,0.33580,0.43376,0.66413
0.19800,Pose_Setup,48.64062,-1.30835,90.01138,0.03326,89.99809,-0.00829,0.33580,0.43376,0.66413
0.19900,Pose_Setup,48.64062,-1.30835,90.01138,0.03326,89.99824,-0.00829,0.33580,0.43376,0.66413
0.20000,Pose_Setup,48.64062,-1.30835,90.01138,0.03326,89.99824,-0.00829,0.33580,0.43376,0.66413
0.20100,Pose_Setup,48.64062,-1.30835,90.01138,0.03326,89.99824,-0.00829,0.33580,0.43376,0.66413
0.20200,Pose_Setup,48.64062,-1.30835,90.01138,0.03326,89.99838,-0.00829,0.33580,0.43376,0.66413
0.20300,Pose_Setup,48.64062,-1.30835,90.01138,0.03326,89.99838,-0.00829,0.33580,0.43376,0.66413
0.20400,Pose_Setup,48.64062,-1.30835,90.01138,0.03326,89.99838,-0.00829,0.33580,0.43376,0.66413
0.20500,Pose_Setup,48.64062,-1.30835,90.01138,0.03326,89.99854,-0.00829,0.33580,0.43376,0.66413
0.20600,Pose_Setup,48.64062,-1.30835,90.01138,0.03326,89.99854,-0.00829,0.33580,0.43376,0.66413
0.20700,Pose_Setup,48.64062,-1.30835,90.01138,0.03326,89.99854,-0.00829,0.33580,0.43376,0.66413
0.20800,Pose_Setup,48.64062,-1.30835,90.01138,0.03326,89.99854,-0.00829,0.33580,0.43376,0.66413
0.20900,Pose_Setup,48.64062,-1.30835,90.01126,0.03326,89.99868,-0.00829,0.33580,0.43376,0.66413
0.21000,Pose_Setup,48.64062,-1.30835,90.01126,0.03326,89.99868,-0.00829,0.33580,0.43376,0.66413
0.21100,Pose_Setup,48.64062,-1.30835,90.01126,0.03326,89.99868,-0.00829,0.33580,0.43376,0.66413
0.21200,Pose_Setup,48.64062,-1.30835,90.01126,0.03326,89.99868,-0.00829,0.33580,0.43376,0.66413
0.21300,Pose_Setup,48.64062,-1.30835,90.01126,0.03326,89.99883,-0.00829,0.33580,0.43376,0.66413
0.21400,Pose_Setup,48.64062,-1.30835,90.01126,0.03326,89.99883,-0.00829,0.33580,0.43376,0.66413
0.21500,Pose_Setup,48.64062,-1.30835,90.01126,0.03326,89.99883,-0.00829,0.33580,0.43376,0.66413
0.21600,Pose_Setup,48.64062,-1.30835,90.01114,0.03326,89.99883,-0.00829,0.33580,0.43376,0.66413
0.21700,Pose_Setup,48.64062,-1.30835,90.01114,0.03326,89.99883,-0.00829,0.33580,0.43376,0.66413
0.21800,Pose_Setup,48.64062,-1.30835,90.01114,0.03326,89.99898,-0.00829,0.33580,0.43376,0.66413
0.21900,Pose_Setup,48.64062,-1.30835,90.01114,0.03326,89.99898,-0.00829,0.33580,0.43376,0.66413
0.22000,Pose_Setup,48.64062,-1.30835,90.01102,0.03326,89.99898,-0.00829,0.33580,0.43376,0.66413
0.22100,Pose_Setup,48.64062,-1.30835,90.01102,0.03326,89.99898,-0.00829,0.33580,0.43376,0.66413
0.22200,Pose_Setup,48.64062,-1.30835,90.01090,0.03326,89.99898,-0.00829,0.33580,0.43376,0.66413
0.22300,Pose_Setup,48.64062,-1.30835,90.01090,0.03326,89.99912,-0.00829,0.33580,0.43376,0.66413
0.22400,Pose_Setup,48.64062,-1.30835,90.01090,0.03326,89.99912,-0.00829,0.33580,0.43376,0.66413
0.22500,Pose_Setup,48.64062,-1.30835,90.01079,0.03326,89.99912,-0.00829,0.33580,0.43376,0.66413
0.22600,Pose_Setup,48.64062,-1.30835,90.01067,0.03326,89.99912,-0.00829,0.33580,0.43376,0.66413
0.22700,Pose_Setup,48.64062,-1.30835,90.01067,0.03326,89.99912,-0.00829,0.33580,0.43376,0.66413
0.22800,Pose_Setup,48.64062,-1.30835,90.01055,0.03326,89.99912,-0.00829,0.33580,0.43376,0.66413
0.22900,Pose_Setup,48.64062,-1.30835,90.01055,0.03326,89.99928,-0.00829,0.33580,0.43376,0.66413
0.23000,Pose_Setup,48.64062,-1.30835,90.01043,0.03326,89.99928,-0.00829,0.33580,0.43376,0.66413
0.23100,Pose_Setup,48.64062,-1.30835,90.01043,0.03326,89.99928,-0.00829,0.33580,0.43376,0.66413
0.23200,Pose_Setup,48.64062,-1.30835,90.01031,0.03326,89.99928,-0.00829,0.33580,0.43376,0.66413
0.23300,Pose_Setup,48.64062,-1.30835,90.01031,0.03326,89.99928,-0.00829,0.33580,0.43376,0.66413
0.23400,Pose_Setup,48.64062,-1.30835,90.01019,0.03326,89.99928,-0.00829,0.33580,0.43376,0.66413
0.23500,Pose_Setup,48.64062,-1.30835,90.01019,0.03326,89.99928,-0.00829,0.33580,0.43376,0.66413
0.23600,Pose_Setup,48.64062,-1.30835,90.01008,0.03326,89.99942,-0.00829,0.33580,0.43376,0.66413
0.23700,Pose_Setup,48.64062,-1.30835,90.00996,0.03326,89.99942,-0.00829,0.33580,0.43376,0.66413
0.23800,Pose_Setup,48.64062,-1.30835,90.00996,0.03326,89.99942,-0.00829,0.33580,0.43376,0.66413
0.23900,Pose_Setup,48.64062,-1.30835,90.00984,0.03326,89.99942,-0.00829,0.33580,0.43376,0.66413
0.24000,Pose_Setup,48.64062,-1.30835,90.00984,0.03326,89.99942,-0.00829,0.33580,0.43376,0.66413
0.24100,Pose_Setup,48.64062,-1.30835,90.00972,0.03326,89.99942,-0.00829,0.33580,0.43376,0.66413
0.24200,Pose_Setup,48.64062,-1.30835,90.00972,0.03326,89.99957,-0.00829,0.33580,0.43376,0.66413
0.24300,Pose_Setup,48.64062,-1.30835,90.00960,0.03326,89.99957,-0.00829,0.33580,0.43376,0.66413
0.24400,Pose_Setup,48.64062,-1.30835,90.00960,0.03326,89.99957,-0.00829,0.33580,0.43376,0.66413
0.24500,Pose_Setup,48.64062,-1.30835,90.00960,0.03326,89.99957,-0.00829,0.33580,0.43376,0.66413
0.24600,Pose_Setup,48.64062,-1.30835,90.00948,0.03326,89.99957,-0.00829,0.33580,0.43376,0.66413
0.24700,Pose_Setup,48.64062,-1.30835,90.00948,0.03326,89.99957,-0.00829,0.33580,0.43376,0.66413
0.24800,Pose_Setup,48.64062,-1.30835,90.00936,0.03326,89.99957,-0.00829,0.33580,0.43376,0.66413
0.24900,Pose_Setup,48.64062,-1.30835,90.00936,0.03326,89.99957,-0.00829,0.33580,0.43376,0.66413
0.25000,Pose_Setup,48.64062,-1.30835,90.00936,0.03326,89.99957,-0.00829,0.33580,0.43376,0.66413
0.25100,Pose_Setup,48.64062,-1.30835,90.00925,0.03326,89.99972,-0.00829,0.33580,0.43376,0.66413
0.25200,Pose_Setup,48.64062,-1.30835,90.00925,0.03326,89.99972,-0.00829,0.33580,0.43376,0.66413
0.25300,Pose_Setup,48.64062,-1.30835,90.00925,0.03326,89.99972,-0.00829,0.33580,0.43376,0.66413
0.25400,Pose_Setup,48.64062,-1.30835,90.00925,0.03326,89.99972,-0.00829,0.33580,0.43376,0.66413
0.25500,Pose_Setup,48.64062,-1.30835,90.00912,0.03326,89.99972,-0.00829,0.33580,0.43376,0.66413
0.25600,Pose_Setup,48.64062,-1.30835,90.00912,0.03326,89.99972,-0.00829,0.33580,0.43376,0.66413
0.25700,Pose_Setup,48.64062,-1.30835,90.00901,0.03326,89.99972,-0.00829,0.33580,0.43376,0.66413
0.25800,Pose_Setup,48.64062,-1.30835,90.00901,0.03326,89.99972,-0.00829,0.33580,0.43376,0.66413
0.25900,Pose_Setup,48.64062,-1.30835,90.00901,0.03326,89.99972,-0.00829,0.33580,0.43376,0.66413
0.26000,Pose_Setup,48.64062,-1.30835,90.00889,0.03326,89.99986,-0.00829,0.33580,0.43376,0.66413
0.26100,Pose_Setup,48.64062,-1.30835,90.00889,0.03326,89.99986,-0.00829,0.33580,0.43376,0.66413
0.26200,Pose_Setup,48.64062,-1.30835,90.00889,0.03326,89.99986,-0.00829,0.33580,0.43376,0.66413
0.26300,Pose_Setup,48.64062,-1.30835,90.00877,0.03326,89.99986,-0.00829,0.33580,0.43376,0.66413
0.26400,Pose_Setup,48.64062,-1.30835,90.00877,0.03326,89.99986,-0.00829,0.33580,0.43376,0.66413
0.26500,Pose_Setup,48.64062,-1.30835,90.00877,0.03326,89.99986,-0.00829,0.33580,0.43376,0.66413
0.26600,Pose_Setup,48.64062,-1.30835,90.00865,0.03326,89.99986,-0.00829,0.33580,0.43376,0.66413
0.26700,Pose_Setup,48.64062,-1.30835,90.00865,0.03326,89.99986,-0.00829,0.33580,0.43376,0.66413
0.26800,Pose_Setup,48.64062,-1.30835,90.00865,0.03326,89.99986,-0.00829,0.33580,0.43376,0.66413
0.26900,Pose_Setup,48.64062,-1.30835,90.00854,0.03326,89.99986,-0.00829,0.33580,0.43376,0.66413
0.27000,Pose_Setup,48.64062,-1.30835,90.00854,0.03326,89.99986,-0.00829,0.33580,0.43376,0.66413
0.27100,Pose_Setup,48.64062,-1.30835,90.00854,0.03326,89.99986,-0.00829,0.33580,0.43376,0.66413
0.27200,Pose_Setup,48.64062,-1.30835,90.00854,0.03326,89.99986,-0.00829,0.33580,0.43376,0.66413
0.27300,Pose_Setup,48.64062,-1.30835,90.00854,0.03326,90.00002,-0.00829,0.33580,0.43376,0.66413
0.27400,Pose_Setup,48.64062,-1.30835,90.00842,0.03326,90.00002,-0.00829,0.33580,0.43376,0.66413
0.27500,Pose_Setup,48.64062,-1.30835,90.00842,0.03326,90.00002,-0.00829,0.33580,0.43376,0.66413
0.27600,Pose_Setup,48.64062,-1.30835,90.00842,0.03326,90.00002,-0.00829,0.33580,0.43376,0.66413
0.27700,Pose_Setup,48.64062,-1.30835,90.00842,0.03326,90.00002,-0.00829,0.33580,0.43376,0.66413
0.27800,Pose_Setup,48.64062,-1.30835,90.00842,0.03326,90.00002,-0.00829,0.33580,0.43376,0.66413
0.27900,Pose_Setup,48.64062,-1.30835,90.00830,0.03326,90.00002,-0.00829,0.33580,0.43376,0.66413
0.28000,Pose_Setup,48.64062,-1.30835,90.00830,0.03326,90.00002,-0.00829,0.33580,0.43376,0.66413
0.28100,Pose_Setup,48.64062,-1.30835,90.00830,0.03326,90.00002,-0.00829,0.33580,0.43376,0.66413
0.28200,Pose_Setup,48.64062,-1.30835,90.00830,0.03326,90.00002,-0.00829,0.33580,0.43376,0.66413
0.28300,Pose_Setup,48.64062,-1.30835,90.00830,0.03326,90.00002,-0.00829,0.33580,0.43376,0.66413
0.28400,Pose_Setup,48.64062,-1.30835,90.00818,0.03326,90.00002,-0.00829,0.33580,0.43376,0.66413
0.28500,Pose_Setup,48.64062,-1.30835,90.00818,0.03326,90.00002,-0.00829,0.33580,0.43376,0.66413
0.28600,Pose_Setup,48.64062,-1.30835,90.00818,0.03326,90.00002,-0.00829,0.33580,0.43376,0.66413
0.28700,Pose_Setup,48.64062,-1.30835,90.00818,0.03326,90.00002,-0.00829,0.33580,0.43376,0.66413
0.28800,Pose_Setup,48.64062,-1.30835,90.00818,0.03326,90.00002,-0.00829,0.33580,0.43376,0.66413
0.28900,Pose_Setup,48.64062,-1.30835,90.00818,0.03326,90.00016,-0.00829,0.33580,0.43376,0.66413
0.29000,Pose_Setup,48.64062,-1.30835,90.00806,0.03326,90.00016,-0.00829,0.33580,0.43376,0.66413
0.29100,Pose_Setup,48.64062,-1.30835,90.00806,0.03326,90.00016,-0.00829,0.33580,0.43376,0.66413
0.29200,Pose_Setup,48.64062,-1.30835,90.00806,0.03326,90.00016,-0.00829,0.33580,0.43376,0.66413
0.29300,Pose_Setup,48.64062,-1.30835,90.00806,0.03326,90.00016,-0.00829,0.33580,0.43376,0.66413
0.29400,Pose_Setup,48.64062,-1.30835,90.00806,0.03326,90.00016,-0.00829,0.33580,0.43376,0.66413
0.29500,Pose_Setup,48.64062,-1.30835,90.00794,0.03326,90.00016,-0.00829,0.33580,0.43376,0.66413
0.29600,Pose_Setup,48.64062,-1.30835,90.00794,0.03326,90.00016,-0.00829,0.33580,0.43376,0.66413
0.29700,Pose_Setup,48.64062,-1.30835,90.00794,0.03326,90.00016,-0.00829,0.33580,0.43376,0.66413
0.29800,Pose_Setup,48.64062,-1.30835,90.00794,0.03326,90.00016,-0.00829,0.33580,0.43376,0.66413
0.29900,Pose_Setup,48.64062,-1.30835,90.00794,0.03326,90.00016,-0.00829,0.33580,0.43376,0.66413
0.30000,Pose_Setup,48.64062,-1.30835,90.00783,0.03326,90.00016,-0.00829,0.33580,0.43376,0.66413
0.30100,Pose_Setup,48.64050,-1.30835,90.00783,0.03326,90.00016,-0.00829,0.33580,0.43376,0.66413
0.30200,Pose_Setup,48.64050,-1.30835,90.00783,0.03326,90.00016,-0.00829,0.33580,0.43376,0.66413
0.30300,Pose_Setup,48.64050,-1.30835,90.00771,0.03326,90.00016,-0.00829,0.33580,0.43376,0.66413
0.30400,Pose_Setup,48.64050,-1.30835,90.00771,0.03326,90.00016,-0.00829,0.33580,0.43376,0.66413
0.30500,Pose_Setup,48.64050,-1.30835,90.00771,0.03326,90.00016,-0.00829,0.33580,0.43376,0.66413
0.30600,Pose_Setup,48.64050,-1.30835,90.00771,0.03326,90.00031,-0.00829,0.33580,0.43376,0.66413
0.30700,Pose_Setup,48.64050,-1.30835,90.00759,0.03326,90.00031,-0.00829,0.33580,0.43376,0.66413
0.30800,Pose_Setup,48.64050,-1.30835,90.00759,0.03326,90.00031,-0.00829,0.33580,0.43376,0.66413
0.30900,Pose_Setup,48.64050,-1.30835,90.00747,0.03326,90.00031,-0.00829,0.33580,0.43376,0.66413
0.31000,Pose_Setup,48.64050,-1.30835,90.00747,0.03326,90.00031,-0.00829,0.33580,0.43376,0.66413
0.31100,Pose_Setup,48.64050,-1.30835,90.00747,0.03326,90.00031,-0.00829,0.33580,0.43376,0.66413
0.31200,Pose_Setup,48.64050,-1.30835,90.00747,0.03326,90.00031,-0.00829,0.33580,0.43376,0.66413
0.31300,Pose_Setup,48.64050,-1.30835,90.00735,0.03326,90.00031,-0.00829,0.33580,0.43376,0.66413
0.31400,Pose_Setup,48.64050,-1.30835,90.00735,0.03326,90.00031,-0.00829,0.33580,0.43376,0.66413
0.31500,Pose_Setup,48.64050,-1.30835,90.00723,0.03326,90.00031,-0.00829,0.33580,0.43376,0.66413
0.31600,Pose_Setup,48.64050,-1.30835,90.00723,0.03326,90.00031,-0.00829,0.33580,0.43376,0.66413
0.31700,Pose_Setup,48.64050,-1.30835,90.00723,0.03326,90.00031,-0.00829,0.33580,0.43376,0.66413
0.31800,Pose_Setup,48.64050,-1.30835,90.00712,0.03326,90.00031,-0.00829,0.33580,0.43376,0.66413
0.31900,Pose_Setup,48.64050,-1.30835,90.00712,0.03326,90.00031,-0.00829,0.33580,0.43376,0.66413
0.32000,Pose_Setup,48.64050,-1.30835,90.00700,0.03326,90.00031,-0.00829,0.33580,0.43376,0.66413
0.32100,Pose_Setup,48.64050,-1.30835,90.00700,0.03326,90.00031,-0.00829,0.33580,0.43376,0.66413
0.32200,Pose_Setup,48.64050,-1.30835,90.00700,0.03326,90.00031,-0.00829,0.33580,0.43376,0.66413
0.32300,Pose_Setup,48.64050,-1.30835,90.00688,0.03326,90.00031,-0.00829,0.33580,0.43376,0.66413
0.32400,Pose_Setup,48.64050,-1.30835,90.00688,0.03326,90.00031,-0.00829,0.33580,0.43376,0.66413
0.32500,Pose_Setup,48.64050,-1.30835,90.00688,0.03326,90.00031,-0.00829,0.33580,0.43376,0.66413
0.32600,Pose_Setup,48.64050,-1.30835,90.00676,0.03326,90.00031,-0.00829,0.33580,0.43376,0.66413
0.32700,Pose_Setup,48.64050,-1.30835,90.00676,0.03326,90.00031,-0.00829,0.33580,0.43376,0.66413
0.32800,Pose_Setup,48.64050,-1.30835,90.00664,0.03326,90.00031,-0.00829,0.33580,0.43376,0.66413
0.32900,Pose_Setup,48.64050,-1.30835,90.00664,0.03326,90.00031,-0.00829,0.33580,0.43376,0.66413
0.33000,Pose_Setup,48.64050,-1.30835,90.00664,0.03326,90.00031,-0.00829,0.33580,0.43376,0.66413
0.33100,Pose_Setup,48.64050,-1.30835,90.00652,0.03326,90.00031,-0.00829,0.33580,0.43376,0.66413
0.33200,Pose_Setup,48.64050,-1.30835,90.00652,0.03326,90.00031,-0.00829,0.33580,0.43376,0.66413
0.33300,Pose_Setup,48.64050,-1.30835,90.00652,0.03326,90.00031,-0.00829,0.33580,0.43376,0.66413
0.33400,Pose_Setup,48.64050,-1.30835,90.00640,0.03326,90.00046,-0.00829,0.33580,0.43376,0.66413
0.33500,Pose_Setup,48.64050,-1.30835,90.00640,0.03326,90.00046,-0.00829,0.33580,0.43376,0.66413
0.33600,Pose_Setup,48.64050,-1.30835,90.00629,0.03326,90.00046,-0.00829,0.33580,0.43376,0.66413
0.33700,Pose_Setup,48.64050,-1.30835,90.00629,0.03326,90.00046,-0.00829,0.33580,0.43376,0.66413
0.33800,Pose_Setup,48.64050,-1.30835,90.00629,0.03326,90.00046,-0.00829,0.33580,0.43376,0.66413
0.33900,Pose_Setup,48.64050,-1.30835,90.00616,0.03326,90.00046,-0.00829,0.33580,0.43376,0.66413
0.34000,Pose_Setup,48.64062,-1.30835,90.00616,0.03326,90.00046,-0.00829,0.33580,0.43376,0.66413
0.34100,Pose_Setup,48.64062,-1.30835,90.00616,0.03326,90.00046,-0.00829,0.33580,0.43376,0.66413
0.34200,Pose_Setup,48.64062,-1.30835,90.00605,0.03326,90.00046,-0.00829,0.33580,0.43376,0.66413
0.34300,Pose_Setup,48.64062,-1.30835,90.00605,0.03326,90.00046,-0.00829,0.33580,0.43376,0.66413
0.34400,Pose_Setup,48.64062,-1.30835,90.00605,0.03326,90.00046,-0.00829,0.33580,0.43376,0.66413
0.34500,Pose_Setup,48.64062,-1.30835,90.00593,0.03326,90.00046,-0.00829,0.33580,0.43376,0.66413
0.34600,Pose_Setup,48.64062,-1.30835,90.00593,0.03326,90.00046,-0.00829,0.33580,0.43376,0.66413
0.34700,Pose_Setup,48.64062,-1.30835,90.00593,0.03326,90.00046,-0.00829,0.33580,0.43376,0.66413
0.34800,Pose_Setup,48.64062,-1.30835,90.00581,0.03326,90.00046,-0.00829,0.33580,0.43376,0.66413
0.34900,Pose_Setup,48.64062,-1.30835,90.00581,0.03326,90.00046,-0.00829,0.33580,0.43376,0.66413
0.35000,Pose_Setup,48.64062,-1.30835,90.00581,0.03326,90.00046,-0.00829,0.33580,0.43376,0.66413
0.35100,Pose_Setup,48.64062,-1.30835,90.00569,0.03326,90.00046,-0.00829,0.33580,0.43376,0.66413
0.35200,Pose_Setup,48.64062,-1.30835,90.00569,0.03326,90.00046,-0.00829,0.33580,0.43376,0.66413
0.35300,Pose_Setup,48.64062,-1.30835,90.00569,0.03326,90.00046,-0.00829,0.33580,0.43376,0.66413
0.35400,Pose_Setup,48.64062,-1.30835,90.00569,0.03326,90.00046,-0.00829,0.33580,0.43376,0.66413
0.35500,Pose_Setup,48.64062,-1.30835,90.00558,0.03326,90.00046,-0.00829,0.33580,0.43376,0.66413
0.35600,Pose_Setup,48.64062,-1.30835,90.00558,0.03326,90.00046,-0.00829,0.33580,0.43376,0.66413
0.35700,Pose_Setup,48.64062,-1.30835,90.00558,0.03326,90.00046,-0.00829,0.33580,0.43376,0.66413
0.35800,Pose_Setup,48.64062,-1.30835,90.00558,0.03326,90.00046,-0.00829,0.33580,0.43376,0.66413
0.35900,Pose_Setup,48.64062,-1.30835,90.00546,0.03326,90.00046,-0.00829,0.33580,0.43376,0.66413
0.36000,Pose_Setup,48.64062,-1.30835,90.00546,0.03326,90.00046,-0.00829,0.33580,0.43376,0.66413
0.36100,Pose_Setup,48.64062,-1.30835,90.00546,0.03326,90.00046,-0.00829,0.33580,0.43376,0.66413
0.36200,Pose_Setup,48.64062,-1.30835,90.00546,0.03326,90.00046,-0.00829,0.33580,0.43376,0.66413
0.36300,Pose_Setup,48.64062,-1.30835,90.00546,0.03326,90.00046,-0.00829,0.33580,0.43376,0.66413
0.36400,Pose_Setup,48.64062,-1.30835,90.00534,0.03326,90.00046,-0.00829,0.33580,0.43376,0.66413
0.36500,Pose_Setup,48.64062,-1.30835,90.00534,0.03326,90.00046,-0.00829,0.33580,0.43376,0.66413
0.36600,Pose_Setup,48.64062,-1.30835,90.00534,0.03326,90.00060,-0.00829,0.33580,0.43376,0.66413
0.36700,Pose_Setup,48.64062,-1.30835,90.00534,0.03326,90.00060,-0.00829,0.33580,0.43376,0.66413
0.36800,Pose_Setup,48.64062,-1.30835,90.00534,0.03326,90.00060,-0.00829,0.33580,0.43376,0.66413
0.36900,Pose_Setup,48.64062,-1.30835,90.00534,0.03326,90.00060,-0.00829,0.33580,0.43376,0.66413
0.37000,Pose_Setup,48.64062,-1.30835,90.00522,0.03326,90.00060,-0.00829,0.33580,0.43376,0.66413
0.37100,Pose_Setup,48.64062,-1.30835,90.00522,0.03326,90.00060,-0.00829,0.33580,0.43376,0.66413
0.37200,Pose_Setup,48.64062,-1.30835,90.00522,0.03326,90.00060,-0.00829,0.33580,0.43376,0.66413
0.37300,Pose_Setup,48.64062,-1.30835,90.00522,0.03326,90.00060,-0.00829,0.33580,0.43376,0.66413
0.37400,Pose_Setup,48.64062,-1.30835,90.00522,0.03326,90.00060,-0.00829,0.33580,0.43376,0.66413
0.37500,Pose_Setup,48.64062,-1.30835,90.00522,0.03326,90.00060,-0.00829,0.33580,0.43376,0.66413
0.37600,Pose_Setup,48.64062,-1.30835,90.00510,0.03326,90.00060,-0.00829,0.33580,0.43376,0.66413
0.37700,Pose_Setup,48.64062,-1.30835,90.00510,0.03326,90.00060,-0.00829,0.33580,0.43376,0.66413
0.37800,Pose_Setup,48.64062,-1.30835,90.00510,0.03326,90.00060,-0.00829,0.33580,0.43376,0.66413
0.37900,Pose_Setup,48.64062,-1.30835,90.00510,0.03326,90.00060,-0.00829,0.33580,0.43376,0.66413
0.38000,Pose_Setup,48.64062,-1.30835,90.00510,0.03326,90.00060,-0.00829,0.33580,0.43376,0.66413
0.38100,Pose_Setup,48.64062,-1.30835,90.00510,0.03326,90.00060,-0.00829,0.33580,0.43376,0.66413
0.38200,Pose_Setup,48.64062,-1.30835,90.00498,0.03326,90.00060,-0.00829,0.33580,0.43376,0.66413
0.38300,Pose_Setup,48.64062,-1.30835,90.00498,0.03326,90.00060,-0.00829,0.33580,0.43376,0.66413
0.38400,Pose_Setup,48.64062,-1.30835,90.00498,0.03326,90.00060,-0.00829,0.33580,0.43376,0.66413
0.38500,Pose_Setup,48.64062,-1.30835,90.00498,0.03326,90.00060,-0.00829,0.33580,0.43376,0.66413
0.38600,Pose_Setup,48.64062,-1.30835,90.00498,0.03326,90.00060,-0.00829,0.33580,0.43376,0.66413
0.38700,Pose_Setup,48.64062,-1.30835,90.00487,0.03326,90.00060,-0.00829,0.33580,0.43376,0.66413
0.38800,Pose_Setup,48.64062,-1.30835,90.00487,0.03326,90.00060,-0.00829,0.33580,0.43376,0.66413
0.38900,Pose_Setup,48.64062,-1.30835,90.00487,0.03326,90.00060,-0.00829,0.33580,0.43376,0.66413
0.39000,Pose_Setup,48.64062,-1.30835,90.00475,0.03326,90.00060,-0.00829,0.33580,0.43376,0.66413
0.39100,Pose_Setup,48.64062,-1.30835,90.00475,0.03326,90.00060,-0.00829,0.33580,0.43376,0.66413
0.39200,Pose_Setup,48.64062,-1.30835,90.00475,0.03326,90.00060,-0.00829,0.33580,0.43376,0.66413
0.39300,Pose_Setup,48.64062,-1.30835,90.00463,0.03326,90.00060,-0.00829,0.33580,0.43376,0.66413
0.39400,Pose_Setup,48.64062,-1.30835,90.00463,0.03326,90.00060,-0.00829,0.33580,0.43376,0.66413
0.39500,Pose_Setup,48.64062,-1.30835,90.00463,0.03326,90.00060,-0.00829,0.33580,0.43376,0.66413
0.39600,Pose_Setup,48.64062,-1.30835,90.00463,0.03326,90.00060,-0.00829,0.33580,0.43376,0.66413
0.39700,Pose_Setup,48.64062,-1.30835,90.00451,0.03326,90.00060,-0.00829,0.33580,0.43376,0.66413
0.39800,Pose_Setup,48.64062,-1.30835,90.00451,0.03326,90.00060,-0.00829,0.33580,0.43376,0.66413
0.39900,Pose_Setup,48.64062,-1.30835,90.00451,0.03326,90.00060,-0.00829,0.33580,0.43376,0.66413
0.40000,Pose_Setup,48.64062,-1.30835,90.00439,0.03326,90.00060,-0.00829,0.33580,0.43376,0.66413
0.40100,Pose_Setup,48.64062,-1.30835,90.00439,0.03326,90.00060,-0.00829,0.33580,0.43376,0.66413
0.40200,Pose_Setup,48.64062,-1.30835,90.00439,0.03326,90.00060,-0.00829,0.33580,0.43376,0.66413
0.40300,Pose_Setup,48.64062,-1.30835,90.00427,0.03326,90.00060,-0.00829,0.33580,0.43376,0.66413
0.40400,Pose_Setup,48.64062,-1.30835,90.00427,0.03326,90.00060,-0.00829,0.33580,0.43376,0.66413
0.40500,Pose_Setup,48.64062,-1.30835,90.00427,0.03326,90.00060,-0.00829,0.33580,0.43376,0.66413
0.40600,Pose_Setup,48.64062,-1.30835,90.00427,0.03326,90.00060,-0.00829,0.33580,0.43376,0.66413
0.40700,Pose_Setup,48.64062,-1.30835,90.00416,0.03326,90.00060,-0.00829,0.33580,0.43376,0.66413
0.40800,Pose_Setup,48.64062,-1.30835,90.00416,0.03326,90.00060,-0.00829,0.33580,0.43376,0.66413
0.40900,Pose_Setup,48.64062,-1.30835,90.00416,0.03326,90.00060,-0.00829,0.33580,0.43376,0.66413
0.41000,Pose_Setup,48.64062,-1.30835,90.00416,0.03326,90.00060,-0.00829,0.33580,0.43376,0.66413
0.41100,Pose_Setup,48.64062,-1.30835,90.00404,0.03326,90.00060,-0.00829,0.33580,0.43376,0.66413
0.41200,Pose_Setup,48.64062,-1.30835,90.00404,0.03326,90.00060,-0.00829,0.33580,0.43376,0.66413
0.41300,Pose_Setup,48.64062,-1.30835,90.00404,0.03326,90.00060,-0.00829,0.33580,0.43376,0.66413
0.41400,Pose_Setup,48.64062,-1.30835,90.00404,0.03326,90.00060,-0.00829,0.33580,0.43376,0.66413
0.41500,Pose_Setup,48.64062,-1.30835,90.00391,0.03326,90.00076,-0.00829,0.33580,0.43376,0.66413
0.41600,Pose_Setup,48.64062,-1.30835,90.00391,0.03326,90.00076,-0.00829,0.33580,0.43376,0.66413
0.41700,Pose_Setup,48.64062,-1.30835,90.00391,0.03326,90.00076,-0.00829,0.33580,0.43376,0.66413
0.41800,Pose_Setup,48.64062,-1.30835,90.00391,0.03326,90.00076,-0.00829,0.33580,0.43376,0.66413
0.41900,Pose_Setup,48.64062,-1.30835,90.00391,0.03326,90.00076,-0.00829,0.33580,0.43376,0.66413
0.42000,Pose_Setup,48.64062,-1.30835,90.00380,0.03326,90.00076,-0.00829,0.33580,0.43376,0.66413
0.42100,Pose_Setup,48.64062,-1.30835,90.00380,0.03326,90.00076,-0.00829,0.33580,0.43376,0.66413
0.42200,Pose_Setup,48.64062,-1.30835,90.00380,0.03326,90.00076,-0.00829,0.33580,0.43376,0.66413
0.42300,Pose_Setup,48.64062,-1.30835,90.00380,0.03326,90.00076,-0.00829,0.33580,0.43376,0.66413
0.42400,Pose_Setup,48.64062,-1.30835,90.00368,0.03326,90.00076,-0.00829,0.33580,0.43376,0.66413
0.42500,Pose_Setup,48.64062,-1.30835,90.00368,0.03326,90.00076,-0.00829,0.33580,0.43376,0.66413
0.42600,Pose_Setup,48.64062,-1.30835,90.00368,0.03326,90.00076,-0.00829,0.33580,0.43376,0.66413
0.42700,Pose_Setup,48.64062,-1.30835,90.00368,0.03326,90.00076,-0.00829,0.33580,0.43376,0.66413
0.42800,Pose_Setup,48.64062,-1.30835,90.00368,0.03326,90.00076,-0.00829,0.33580,0.43376,0.66413
0.42900,Pose_Setup,48.64062,-1.30835,90.00356,0.03326,90.00076,-0.00829,0.33580,0.43376,0.66413
0.43000,Pose_Setup,48.64062,-1.30835,90.00356,0.03326,90.00076,-0.00829,0.33580,0.43376,0.66413
0.43100,Pose_Setup,48.64062,-1.30835,90.00356,0.03326,90.00076,-0.00829,0.33580,0.43376,0.66413
0.43200,Pose_Setup,48.64062,-1.30835,90.00356,0.03326,90.00076,-0.00829,0.33580,0.43376,0.66413
0.43300,Pose_Setup,48.64062,-1.30835,90.00356,0.03326,90.00076,-0.00829,0.33580,0.43376,0.66413
0.43400,Pose_Setup,48.64062,-1.30835,90.00344,0.03326,90.00076,-0.00829,0.33580,0.43376,0.66413
0.43500,Pose_Setup,48.64062,-1.30835,90.00344,0.03326,90.00076,-0.00829,0.33580,0.43376,0.66413
0.43600,Pose_Setup,48.64062,-1.30835,90.00344,0.03326,90.00076,-0.00829,0.33580,0.43376,0.66413
0.43700,Pose_Setup,48.64062,-1.30835,90.00344,0.03326,90.00076,-0.00829,0.33580,0.43376,0.66413
0.43800,Pose_Setup,48.64062,-1.30835,90.00333,0.03326,90.00076,-0.00829,0.33580,0.43376,0.66413
0.43900,Pose_Setup,48.64062,-1.30835,90.00333,0.03326,90.00076,-0.00829,0.33580,0.43376,0.66413
0.44000,Pose_Setup,48.64062,-1.30835,90.00333,0.03326,90.00076,-0.00829,0.33580,0.43376,0.66413
0.44100,Pose_Setup,48.64062,-1.30835,90.00333,0.03326,90.00076,-0.00829,0.33580,0.43376,0.66413
0.44200,Pose_Setup,48.64062,-1.30835,90.00333,0.03326,90.00076,-0.00829,0.33580,0.43376,0.66413
0.44300,Pose_Setup,48.64062,-1.30835,90.00320,0.03326,90.00076,-0.00829,0.33580,0.43376,0.66413
0.44400,Pose_Setup,48.64062,-1.30835,90.00320,0.03326,90.00076,-0.00829,0.33580,0.43376,0.66413
0.44500,Pose_Setup,48.64062,-1.30835,90.00320,0.03326,90.00076,-0.00829,0.33580,0.43376,0.66413
0.44600,Pose_Setup,48.64062,-1.30835,90.00320,0.03326,90.00076,-0.00829,0.33580,0.43376,0.66413
0.44700,Pose_Setup,48.64062,-1.30835,90.00320,0.03326,90.00076,-0.00829,0.33580,0.43376,0.66413
0.44800,Pose_Setup,48.64062,-1.30835,90.00309,0.03326,90.00076,-0.00829,0.33580,0.43376,0.66413
0.44900,Pose_Setup,48.64062,-1.30835,90.00309,0.03326,90.00076,-0.00829,0.33580,0.43376,0.66413
0.45000,Pose_Setup,48.64062,-1.30835,90.00309,0.03326,90.00076,-0.00829,0.33580,0.43376,0.66413
0.45100,Pose_Setup,48.64062,-1.30835,90.00309,0.03326,90.00076,-0.00829,0.33580,0.43376,0.66413
0.45200,Pose_Setup,48.64062,-1.30835,90.00309,0.03326,90.00076,-0.00829,0.33580,0.43376,0.66413
0.45300,Pose_Setup,48.64062,-1.30835,90.00297,0.03326,90.00076,-0.00829,0.33580,0.43376,0.66413
0.45400,Pose_Setup,48.64062,-1.30835,90.00297,0.03326,90.00076,-0.00829,0.33580,0.43376,0.66413
0.45500,Pose_Setup,48.64062,-1.30835,90.00297,0.03326,90.00076,-0.00829,0.33580,0.43376,0.66413
0.45600,Pose_Setup,48.64062,-1.30835,90.00297,0.03326,90.00076,-0.00829,0.33580,0.43376,0.66413
0.45700,Pose_Setup,48.64062,-1.30835,90.00297,0.03326,90.00076,-0.00829,0.33580,0.43376,0.66413
0.45800,Pose_Setup,48.64062,-1.30835,90.00285,0.03326,90.00076,-0.00829,0.33580,0.43376,0.66413
0.45900,Pose_Setup,48.64062,-1.30835,90.00285,0.03326,90.00076,-0.00829,0.33580,0.43376,0.66413
0.46000,Pose_Setup,48.64062,-1.30835,90.00285,0.03326,90.00076,-0.00829,0.33580,0.43376,0.66413
0.46100,Pose_Setup,48.64062,-1.30835,90.00285,0.03326,90.00076,-0.00829,0.33580,0.43376,0.66413
0.46200,Pose_Setup,48.64062,-1.30835,90.00285,0.03326,90.00076,-0.00829,0.33580,0.43376,0.66413
0.46300,Pose_Setup,48.64062,-1.30835,90.00273,0.03326,90.00076,-0.00829,0.33580,0.43376,0.66413
0.46400,Pose_Setup,48.64062,-1.30835,90.00273,0.03326,90.00076,-0.00829,0.33580,0.43376,0.66413
0.46500,Pose_Setup,48.64062,-1.30835,90.00273,0.03326,90.00076,-0.00829,0.33580,0.43376,0.66413
0.46600,Pose_Setup,48.64062,-1.30835,90.00273,0.03326,90.00076,-0.00829,0.33580,0.43376,0.66413
0.46700,Pose_Setup,48.64062,-1.30835,90.00273,0.03326,90.00076,-0.00829,0.33580,0.43376,0.66413
0.46800,Pose_Setup,48.64062,-1.30835,90.00273,0.03326,90.00076,-0.00829,0.33580,0.43376,0.66413
0.46900,Pose_Setup,48.64062,-1.30835,90.00262,0.03326,90.00076,-0.00829,0.33580,0.43376,0.66413
0.47000,Pose_Setup,48.64062,-1.30835,90.00262,0.03326,90.00076,-0.00829,0.33580,0.43376,0.66413
0.47100,Pose_Setup,48.64062,-1.30835,90.00262,0.03326,90.00076,-0.00829,0.33580,0.43376,0.66413
0.47200,Pose_Setup,48.64062,-1.30835,90.00262,0.03326,90.00076,-0.00829,0.33580,0.43376,0.66413
0.47300,Pose_Setup,48.64062,-1.30835,90.00262,0.03326,90.00076,-0.00829,0.33580,0.43376,0.66413
0.47400,Pose_Setup,48.64062,-1.30835,90.00262,0.03326,90.00076,-0.00829,0.33580,0.43376,0.66413
0.47500,Pose_Setup,48.64062,-1.30835,90.00249,0.03326,90.00076,-0.00829,0.33580,0.43376,0.66413
0.47600,Pose_Setup,48.64062,-1.30835,90.00249,0.03326,90.00076,-0.00829,0.33580,0.43376,0.66413
0.47700,Pose_Setup,48.64062,-1.30835,90.00249,0.03326,90.00076,-0.00829,0.33580,0.43376,0.66413
0.47800,Pose_Setup,48.64062,-1.30835,90.00249,0.03326,90.00076,-0.00829,0.33580,0.43376,0.66413
0.47900,Pose_Setup,48.64062,-1.30835,90.00238,0.03326,90.00076,-0.00829,0.33580,0.43376,0.66413
0.48000,Pose_Setup,48.64062,-1.30835,90.00238,0.03326,90.00076,-0.00829,0.33580,0.43376,0.66413
0.48100,Pose_Setup,48.64062,-1.30835,90.00238,0.03326,90.00076,-0.00829,0.33580,0.43376,0.66413
0.48200,Pose_Setup,48.64062,-1.30835,90.00238,0.03326,90.00076,-0.00829,0.33580,0.43376,0.66413
0.48300,Pose_Setup,48.64062,-1.30835,90.00238,0.03326,90.00076,-0.00829,0.33580,0.43376,0.66413
0.48400,Pose_Setup,48.64062,-1.30835,90.00238,0.03326,90.00076,-0.00829,0.33580,0.43376,0.66413
0.48500,Pose_Setup,48.64062,-1.30835,90.00238,0.03326,90.00076,-0.00829,0.33580,0.43376,0.66413
0.48600,Pose_Setup,48.64062,-1.30835,90.00226,0.03326,90.00076,-0.00829,0.33580,0.43376,0.66413
0.48700,Pose_Setup,48.64062,-1.30835,90.00226,0.03326,90.00076,-0.00829,0.33580,0.43376,0.66413
0.48800,Pose_Setup,48.64062,-1.30835,90.00226,0.03326,90.00076,-0.00829,0.33580,0.43376,0.66413
0.48900,Pose_Setup,48.64062,-1.30835,90.00226,0.03326,90.00076,-0.00829,0.33580,0.43376,0.66413
0.49000,Pose_Setup,48.64062,-1.30835,90.00226,0.03326,90.00076,-0.00829,0.33580,0.43376,0.66413
0.49100,Pose_Setup,48.64062,-1.30835,90.00226,0.03326,90.00076,-0.00829,0.33580,0.43376,0.66413
0.49200,Pose_Setup,48.64062,-1.30835,90.00214,0.03326,90.00076,-0.00829,0.33580,0.43376,0.66413
0.49300,Pose_Setup,48.64062,-1.30835,90.00214,0.03326,90.00076,-0.00829,0.33580,0.43376,0.66413
0.49400,Pose_Setup,48.64062,-1.30835,90.00214,0.03326,90.00076,-0.00829,0.33580,0.43376,0.66413
0.49500,Pose_Setup,48.64062,-1.30835,90.00214,0.03326,90.00090,-0.00829,0.33580,0.43376,0.66413
0.49600,Pose_Setup,48.64062,-1.30835,90.00214,0.03326,90.00090,-0.00829,0.33580,0.43376,0.66413
0.49700,Pose_Setup,48.64062,-1.30835,90.00214,0.03326,90.00090,-0.00829,0.33580,0.43376,0.66413
0.49800,Pose_Setup,48.64062,-1.30835,90.00214,0.03326,90.00090,-0.00829,0.33580,0.43376,0.66413
0.49900,Pose_Setup,48.64062,-1.30835,90.00202,0.03326,90.00090,-0.00829,0.33580,0.43376,0.66413
0.50000,Pose_Setup,48.64062,-1.30835,90.00202,0.03326,90.00090,-0.00829,0.33580,0.43376,0.66413
0.50100,Pose_Setup,48.64062,-1.30835,90.00202,0.03326,90.00090,-0.00829,0.33580,0.43376,0.66413
0.50200,Pose_Setup,48.64062,-1.30835,90.00202,0.03326,90.00090,-0.00829,0.33580,0.43376,0.66413
0.50300,Pose_Setup,48.64062,-1.30835,90.00202,0.03326,90.00090,-0.00829,0.33580,0.43376,0.66413
0.50400,Pose_Setup,48.64062,-1.30835,90.00202,0.03326,90.00090,-0.00829,0.33580,0.43376,0.66413
0.50500,Pose_Setup,48.64062,-1.30835,90.00202,0.03326,90.00090,-0.00829,0.33580,0.43376,0.66413
0.50600,Pose_Setup,48.64062,-1.30835,90.00202,0.03326,90.00090,-0.00829,0.33580,0.43376,0.66413
0.50700,Pose_Setup,48.64062,-1.30835,90.00202,0.03326,90.00090,-0.00829,0.33580,0.43376,0.66413
0.50800,Pose_Setup,48.64062,-1.30835,90.00191,0.03326,90.00090,-0.00829,0.33580,0.43376,0.66413
0.50900,Pose_Setup,48.64062,-1.30835,90.00191,0.03326,90.00090,-0.00829,0.33580,0.43376,0.66413
0.51000,Pose_Setup,48.64062,-1.30835,90.00191,0.03326,90.00090,-0.00829,0.33580,0.43376,0.66413
0.51100,Pose_Setup,48.64062,-1.30835,90.00191,0.03326,90.00090,-0.00829,0.33580,0.43376,0.66413
0.51200,Pose_Setup,48.64062,-1.30835,90.00191,0.03326,90.00090,-0.00829,0.33580,0.43376,0.66413
0.51300,Pose_Setup,48.64062,-1.30835,90.00191,0.03326,90.00090,-0.00829,0.33580,0.43376,0.66413
0.51400,Pose_Setup,48.64062,-1.30835,90.00179,0.03326,90.00090,-0.00829,0.33580,0.43376,0.66413
0.51500,Pose_Setup,48.64062,-1.30835,90.00179,0.03326,90.00090,-0.00829,0.33580,0.43376,0.66413
0.51600,Pose_Setup,48.64062,-1.30835,90.00179,0.03326,90.00090,-0.00829,0.33580,0.43376,0.66413
0.51700,Pose_Setup,48.64062,-1.30835,90.00179,0.03326,90.00090,-0.00829,0.33580,0.43376,0.66413
0.51800,Pose_Setup,48.64062,-1.30835,90.00179,0.03326,90.00090,-0.00829,0.33580,0.43376,0.66413
0.51900,Pose_Setup,48.64062,-1.30835,90.00179,0.03326,90.00090,-0.00829,0.33580,0.43376,0.66413
0.52000,Pose_Setup,48.64062,-1.30835,90.00179,0.03326,90.00090,-0.00829,0.33580,0.43376,0.66413
0.52100,Pose_Setup,48.64062,-1.30835,90.00179,0.03326,90.00090,-0.00829,0.33580,0.43376,0.66413
0.52200,Pose_Setup,48.64062,-1.30835,90.00167,0.03326,90.00090,-0.00829,0.33580,0.43376,0.66413
0.52300,Pose_Setup,48.64062,-1.30835,90.00167,0.03326,90.00090,-0.00829,0.33580,0.43376,0.66413
0.52400,Pose_Setup,48.64062,-1.30835,90.00167,0.03326,90.00090,-0.00829,0.33580,0.43376,0.66413
0.52500,Pose_Setup,48.64062,-1.30835,90.00167,0.03326,90.00090,-0.00829,0.33580,0.43376,0.66413
0.52600,Pose_Setup,48.64062,-1.30835,90.00167,0.03326,90.00090,-0.00829,0.33580,0.43376,0.66413
0.52700,Pose_Setup,48.64062,-1.30835,90.00167,0.03326,90.00090,-0.00829,0.33580,0.43376,0.66413
0.52800,Pose_Setup,48.64062,-1.30835,90.00155,0.03326,90.00090,-0.00829,0.33580,0.43376,0.66413
0.82800,WithTCP_Aligned_Down,48.64062,-1.30835,89.99942,0.03326,90.00105,-0.00829,0.51158,0.44936,0.40081
0.82900,WithTCP_Aligned_Down,48.64062,-1.30835,89.99942,0.03326,90.00105,-0.00829,0.51158,0.44936,0.40081
0.83000,WithTCP_Aligned_Down,48.64062,-1.30835,89.99942,0.03326,90.00105,-0.00829,0.51158,0.44936,0.40081
0.83100,WithTCP_Aligned_Down,48.64062,-1.30835,89.99942,0.03326,90.00105,-0.00829,0.51158,0.44936,0.40081
0.83200,WithTCP_Aligned_Down,48.64062,-1.30835,89.99942,0.03326,90.00105,-0.00829,0.51158,0.44936,0.40081
0.83300,WithTCP_Aligned_Down,48.64062,-1.30835,89.99942,0.03326,90.00105,-0.00829,0.51158,0.44936,0.40081
0.83400,WithTCP_Aligned_Down,48.64062,-1.30835,89.99942,0.03326,90.00105,-0.00829,0.51158,0.44936,0.40081
0.83500,WithTCP_Aligned_Down,48.64062,-1.30835,89.99942,0.03326,90.00105,-0.00829,0.51158,0.44936,0.40081
0.83600,WithTCP_Aligned_Down,48.64062,-1.30835,89.99942,0.03326,90.00105,-0.00829,0.51158,0.44936,0.40081
0.83700,WithTCP_Aligned_Down,48.64062,-1.30835,89.99942,0.03326,90.00105,-0.00829,0.51158,0.44936,0.40081
0.83800,WithTCP_Aligned_Down,48.64062,-1.30835,89.99942,0.03326,90.00105,-0.00829,0.51158,0.44936,0.40081
0.83900,WithTCP_Aligned_Down,48.64062,-1.30835,89.99942,0.03326,90.00105,-0.00829,0.51158,0.44936,0.40081
0.84000,WithTCP_Aligned_Down,48.64062,-1.30835,89.99942,0.03326,90.00105,-0.00829,0.51158,0.44936,0.40081
0.84100,WithTCP_Aligned_Down,48.64062,-1.30835,89.99942,0.03326,90.00105,-0.00829,0.51158,0.44936,0.40081
0.84200,WithTCP_Aligned_Down,48.64062,-1.30835,89.99942,0.03326,90.00105,-0.00829,0.51158,0.44936,0.40081
0.84300,WithTCP_Aligned_Down,48.64062,-1.30835,89.99942,0.03326,90.00105,-0.00829,0.51158,0.44936,0.40081
0.84400,WithTCP_Aligned_Down,48.64062,-1.30835,89.99942,0.03326,90.00105,-0.00829,0.51158,0.44936,0.40081
0.84500,WithTCP_Aligned_Down,48.64062,-1.30835,89.99942,0.03326,90.00105,-0.00829,0.51158,0.44936,0.40081
0.84600,WithTCP_Aligned_Down,48.64062,-1.30835,89.99942,0.03326,90.00105,-0.00829,0.51158,0.44936,0.40081
0.84700,WithTCP_Aligned_Down,48.64062,-1.30835,89.99942,0.03326,90.00105,-0.00829,0.51158,0.44936,0.40081
0.84800,WithTCP_Aligned_Down,48.64062,-1.30835,89.99942,0.03326,90.00105,-0.00829,0.51158,0.44936,0.40081
0.84900,WithTCP_Aligned_Down,48.64062,-1.30835,89.99942,0.03326,90.00105,-0.00829,0.51158,0.44936,0.40081
0.85000,WithTCP_Aligned_Down,48.64062,-1.30835,89.99942,0.03326,90.00105,-0.00829,0.51158,0.44936,0.40081
0.85100,WithTCP_Aligned_Down,48.64062,-1.30835,89.99942,0.03326,90.00105,-0.00829,0.51158,0.44936,0.40081
0.85200,WithTCP_Aligned_Down,48.64062,-1.30835,89.99942,0.03326,90.00105,-0.00829,0.51158,0.44936,0.40081
0.85300,WithTCP_Aligned_Down,48.64062,-1.30835,89.99942,0.03326,90.00105,-0.00829,0.51158,0.44936,0.40081
0.85400,WithTCP_Aligned_Down,48.64062,-1.30835,89.99942,0.03326,90.00105,-0.00829,0.51158,0.44936,0.40081
0.85500,WithTCP_Aligned_Down,48.64062,-1.30835,89.99942,0.03326,90.00105,-0.00829,0.51158,0.44936,0.40081
0.85600,WithTCP_Aligned_Down,48.64062,-1.30835,89.99942,0.03326,90.00105,-0.00829,0.51158,0.44936,0.40081
0.85700,WithTCP_Aligned_Down,48.64062,-1.30835,89.99942,0.03326,90.00105,-0.00829,0.51158,0.44936,0.40081
0.85800,WithTCP_Aligned_Down,48.64062,-1.30835,89.99942,0.03326,90.00105,-0.00829,0.51158,0.44936,0.40081
0.85900,WithTCP_Aligned_Down,48.64062,-1.30835,89.99942,0.03326,90.00105,-0.00829,0.51158,0.44936,0.40081
0.86000,WithTCP_Aligned_Down,48.64062,-1.30835,89.99942,0.03326,90.00105,-0.00829,0.51158,0.44936,0.40081
0.86100,WithTCP_Aligned_Down,48.64062,-1.30835,89.99942,0.03326,90.00105,-0.00829,0.51158,0.44936,0.40081
0.86200,WithTCP_Aligned_Down,48.64062,-1.30835,89.99942,0.03326,90.00105,-0.00829,0.51158,0.44936,0.40081
0.86300,WithTCP_Aligned_Down,48.64062,-1.30835,89.99942,0.03326,90.00105,-0.00829,0.51158,0.44936,0.40081
0.86400,WithTCP_Aligned_Down,48.64062,-1.30835,89.99942,0.03326,90.00105,-0.00829,0.51158,0.44936,0.40081
0.86500,WithTCP_Aligned_Down,48.64062,-1.30835,89.99942,0.03326,90.00105,-0.00829,0.51158,0.44936,0.40081
0.86600,WithTCP_Aligned_Down,48.64062,-1.30835,89.99942,0.03326,90.00105,-0.00829,0.51158,0.44936,0.40081
0.86700,WithTCP_Aligned_Down,48.64062,-1.30835,89.99942,0.03326,90.00105,-0.00829,0.51158,0.44936,0.40081
0.86800,WithTCP_Aligned_Down,48.64062,-1.30835,89.99942,0.03326,90.00105,-0.00829,0.51158,0.44936,0.40081
0.86900,WithTCP_Aligned_Down,48.64062,-1.30835,89.99942,0.03326,90.00105,-0.00829,0.51158,0.44936,0.40080
0.87000,WithTCP_Aligned_Down,48.64062,-1.30835,89.99942,0.03326,90.00105,-0.00829,0.51158,0.44936,0.40080
0.87100,WithTCP_Aligned_Down,48.64062,-1.30835,89.99942,0.03326,90.00105,-0.00829,0.51158,0.44936,0.40080
0.87200,WithTCP_Aligned_Down,48.64062,-1.30835,89.99942,0.03326,90.00105,-0.00829,0.51158,0.44936,0.40080
0.87300,WithTCP_Aligned_Down,48.64062,-1.30835,89.99942,0.03326,90.00105,-0.00829,0.51158,0.44936,0.40080
0.87400,WithTCP_Aligned_Down,48.64062,-1.30835,89.99942,0.03326,90.00105,-0.00829,0.51158,0.44936,0.40080
0.87500,WithTCP_Aligned_Down,48.64062,-1.30835,89.99942,0.03326,90.00105,-0.00829,0.51158,0.44936,0.40080
0.87600,WithTCP_Aligned_Down,48.64062,-1.30835,89.99942,0.03326,90.00105,-0.00829,0.51158,0.44936,0.40080
0.87700,WithTCP_Aligned_Down,48.64062,-1.30835,89.99942,0.03326,90.00105,-0.00829,0.51158,0.44936,0.40080
0.87800,WithTCP_Aligned_Down,48.64062,-1.30835,89.99942,0.03326,90.00105,-0.00829,0.51158,0.44936,0.40080
0.87900,WithTCP_Aligned_Down,48.64062,-1.30835,89.99942,0.03326,90.00105,-0.00829,0.51158,0.44936,0.40080
0.88000,WithTCP_Aligned_Down,48.64062,-1.30835,89.99942,0.03326,90.00105,-0.00829,0.51158,0.44936,0.40080
0.88100,WithTCP_Aligned_Down,48.64062,-1.30835,89.99942,0.03326,90.00105,-0.00829,0.51158,0.44936,0.40079
0.88200,WithTCP_Aligned_Down,48.64062,-1.30835,89.99942,0.03326,90.00105,-0.00829,0.51158,0.44936,0.40079
0.88300,WithTCP_Aligned_Down,48.64062,-1.30835,89.99942,0.03326,90.00105,-0.00829,0.51158,0.44936,0.40079
0.88400,WithTCP_Aligned_Down,48.64062,-1.30835,89.99942,0.03326,90.00105,-0.00829,0.51158,0.44936,0.40079
0.88500,WithTCP_Aligned_Down,48.64062,-1.30835,89.99942,0.03326,90.00105,-0.00829,0.51158,0.44936,0.40079
0.88600,WithTCP_Aligned_Down,48.64062,-1.30835,89.99942,0.03326,90.00105,-0.00829,0.51158,0.44936,0.40079
0.88700,WithTCP_Aligned_Down,48.64062,-1.30835,89.99942,0.03326,90.00105,-0.00829,0.51158,0.44936,0.40079
0.88800,WithTCP_Aligned_Down,48.64062,-1.30835,89.99942,0.03326,90.00105,-0.00829,0.51158,0.44936,0.40078
0.88900,WithTCP_Aligned_Down,48.64062,-1.30835,89.99942,0.03326,90.00105,-0.00829,0.51158,0.44936,0.40078
0.89000,WithTCP_Aligned_Down,48.64062,-1.30835,89.99942,0.03326,90.00105,-0.00829,0.51158,0.44936,0.40078
0.89100,WithTCP_Aligned_Down,48.64062,-1.30835,89.99942,0.03326,90.00105,-0.00829,0.51158,0.44936,0.40078
0.89200,WithTCP_Aligned_Down,48.64062,-1.30835,89.99942,0.03326,90.00105,-0.00829,0.51158,0.44936,0.40078
0.89300,WithTCP_Aligned_Down,48.64062,-1.30835,89.99942,0.03326,90.00105,-0.00829,0.51158,0.44936,0.40077
0.89400,WithTCP_Aligned_Down,48.64062,-1.30835,89.99942,0.03326,90.00105,-0.00829,0.51158,0.44936,0.40077
0.89500,WithTCP_Aligned_Down,48.64062,-1.30835,89.99942,0.03326,90.00105,-0.00829,0.51158,0.44936,0.40077
0.89600,WithTCP_Aligned_Down,48.64062,-1.30835,89.99942,0.03326,90.00105,-0.00829,0.51158,0.44936,0.40077
0.89700,WithTCP_Aligned_Down,48.64062,-1.30835,89.99942,0.03326,90.00090,-0.00829,0.51158,0.44936,0.40077
0.89800,WithTCP_Aligned_Down,48.64062,-1.30835,89.99942,0.03326,90.00090,-0.00829,0.51158,0.44936,0.40076
0.89900,WithTCP_Aligned_Down,48.64062,-1.30835,89.99942,0.03326,90.00090,-0.00829,0.51158,0.44936,0.40076
0.90000,WithTCP_Aligned_Down,48.64062,-1.30835,89.99942,0.03326,90.00090,-0.00829,0.51158,0.44936,0.40076
0.90100,WithTCP_Aligned_Down,48.64062,-1.30835,89.99942,0.03326,90.00090,-0.00829,0.51158,0.44936,0.40076
0.90200,WithTCP_Aligned_Down,48.64062,-1.30835,89.99942,0.03326,90.00090,-0.00829,0.51158,0.44936,0.40075
0.90300,WithTCP_Aligned_Down,48.64062,-1.30835,89.99942,0.03326,90.00090,-0.00829,0.51158,0.44936,0.40075
0.90400,WithTCP_Aligned_Down,48.64062,-1.30835,89.99942,0.03326,90.00090,-0.00829,0.51158,0.44936,0.40075
0.90500,WithTCP_Aligned_Down,48.64062,-1.30835,89.99953,0.03326,90.00090,-0.00829,0.51158,0.44936,0.40074
0.90600,WithTCP_Aligned_Down,48.64050,-1.30835,89.99953,0.03326,90.00090,-0.00829,0.51158,0.44936,0.40074
0.90700,WithTCP_Aligned_Down,48.64050,-1.30835,89.99953,0.03326,90.00090,-0.00829,0.51158,0.44936,0.40074
0.90800,WithTCP_Aligned_Down,48.64050,-1.30835,89.99953,0.03326,90.00090,-0.00829,0.51158,0.44936,0.40073
0.90900,WithTCP_Aligned_Down,48.64050,-1.30835,89.99953,0.03326,90.00090,-0.00829,0.51158,0.44936,0.40073
0.91000,WithTCP_Aligned_Down,48.64050,-1.30835,89.99953,0.03326,90.00090,-0.00829,0.51158,0.44936,0.40073
0.91100,WithTCP_Aligned_Down,48.64050,-1.30835,89.99953,0.03326,90.00090,-0.00829,0.51158,0.44936,0.40072
0.91200,WithTCP_Aligned_Down,48.64050,-1.30835,89.99953,0.03326,90.00090,-0.00829,0.51158,0.44936,0.40072
0.91300,WithTCP_Aligned_Down,48.64050,-1.30835,89.99953,0.03326,90.00090,-0.00829,0.51158,0.44936,0.40071
0.91400,WithTCP_Aligned_Down,48.64050,-1.30835,89.99953,0.03326,90.00090,-0.00829,0.51159,0.44936,0.40071
0.91500,WithTCP_Aligned_Down,48.64050,-1.30835,89.99966,0.03326,90.00090,-0.00829,0.51159,0.44936,0.40070
0.91600,WithTCP_Aligned_Down,48.64050,-1.30835,89.99966,0.03326,90.00090,-0.00829,0.51159,0.44936,0.40070
0.91700,WithTCP_Aligned_Down,48.64050,-1.30835,89.99966,0.03326,90.00090,-0.00829,0.51159,0.44936,0.40070
0.91800,WithTCP_Aligned_Down,48.64050,-1.30835,89.99966,0.03326,90.00090,-0.00829,0.51159,0.44936,0.40069
0.91900,WithTCP_Aligned_Down,48.64050,-1.30835,89.99966,0.03326,90.00076,-0.00829,0.51159,0.44936,0.40069
0.92000,WithTCP_Aligned_Down,48.64050,-1.30835,89.99966,0.03326,90.00076,-0.00829,0.51159,0.44936,0.40068
0.92100,WithTCP_Aligned_Down,48.64050,-1.30835,89.99977,0.03326,90.00076,-0.00844,0.51159,0.44936,0.40068
0.92200,WithTCP_Aligned_Down,48.64050,-1.30835,89.99977,0.03326,90.00076,-0.00844,0.51159,0.44936,0.40067
0.92300,WithTCP_Aligned_Down,48.64050,-1.30835,89.99977,0.03326,90.00076,-0.00844,0.51159,0.44936,0.40066
0.92400,WithTCP_Aligned_Down,48.64050,-1.30835,89.99977,0.03326,90.00076,-0.00844,0.51159,0.44936,0.40066
0.92500,WithTCP_Aligned_Down,48.64050,-1.30835,89.99989,0.03326,90.00076,-0.00844,0.51159,0.44936,0.40065
0.92600,WithTCP_Aligned_Down,48.64050,-1.30835,89.99989,0.03326,90.00076,-0.00844,0.51159,0.44936,0.40065
0.92700,WithTCP_Aligned_Down,48.64050,-1.30835,90.00001,0.03326,90.00076,-0.00844,0.51159,0.44936,0.40064
0.92800,WithTCP_Aligned_Down,48.64050,-1.30835,90.00001,0.03326,90.00060,-0.00844,0.51159,0.44936,0.40063
0.92900,WithTCP_Aligned_Down,48.64050,-1.30835,90.00013,0.03326,90.00060,-0.00844,0.51159,0.44936,0.40063
0.93000,WithTCP_Aligned_Down,48.64050,-1.30835,90.00013,0.03326,90.00060,-0.00844,0.51159,0.44936,0.40062
0.93100,WithTCP_Aligned_Down,48.64050,-1.30835,90.00037,0.03326,90.00046,-0.00844,0.51159,0.44936,0.40061
0.93200,WithTCP_Aligned_Down,48.64050,-1.30835,90.00037,0.03326,90.00046,-0.00844,0.51159,0.44936,0.40061
0.93300,WithTCP_Aligned_Down,48.64050,-1.30835,90.00048,0.03326,90.00046,-0.00844,0.51159,0.44936,0.40060
0.93400,WithTCP_Aligned_Down,48.64050,-1.30835,90.00060,0.03326,90.00046,-0.00844,0.51159,0.44936,0.40059
0.93500,WithTCP_Aligned_Down,48.64050,-1.30835,90.00072,0.03326,90.00031,-0.00844,0.51159,0.44936,0.40059
0.93600,WithTCP_Aligned_Down,48.64050,-1.30835,90.00084,0.03326,90.00031,-0.00844,0.51159,0.44936,0.40058
0.93700,WithTCP_Aligned_Down,48.64050,-1.30835,90.00108,0.03326,90.00031,-0.00844,0.51159,0.44936,0.40057
0.93800,WithTCP_Aligned_Down,48.64050,-1.30835,90.00120,0.03326,90.00016,-0.00844,0.51159,0.44936,0.40056
0.93900,WithTCP_Aligned_Down,48.64050,-1.30835,90.00143,0.03326,90.00002,-0.00844,0.51159,0.44936,0.40055
0.94000,WithTCP_Aligned_Down,48.64050,-1.30835,90.00167,0.03326,90.00002,-0.00844,0.51159,0.44936,0.40055
0.94100,WithTCP_Aligned_Down,48.64050,-1.30835,90.00179,0.03326,89.99986,-0.00844,0.51159,0.44936,0.40054
0.94200,WithTCP_Aligned_Down,48.64050,-1.30835,90.00202,0.03326,89.99972,-0.00844,0.51159,0.44936,0.40053
0.94300,WithTCP_Aligned_Down,48.64050,-1.30835,90.00226,0.03326,89.99942,-0.00844,0.51159,0.44936,0.40052
0.94400,WithTCP_Aligned_Down,48.64038,-1.30835,90.00249,0.03326,89.99928,-0.00844,0.51159,0.44936,0.40051
0.94500,WithTCP_Aligned_Down,48.64038,-1.30835,90.00285,0.03341,89.99898,-0.00844,0.51159,0.44936,0.40050
0.94600,WithTCP_Aligned_Down,48.64038,-1.30835,90.00309,0.03341,89.99868,-0.00844,0.51159,0.44936,0.40049
0.94700,WithTCP_Aligned_Down,48.64038,-1.30835,90.00344,0.03341,89.99838,-0.00844,0.51159,0.44936,0.40048
0.94800,WithTCP_Aligned_Down,48.64038,-1.30835,90.00380,0.03341,89.99809,-0.00844,0.51159,0.44936,0.40047
0.94900,WithTCP_Aligned_Down,48.64038,-1.30835,90.00404,0.03341,89.99764,-0.00844,0.51159,0.44936,0.40046
0.95000,WithTCP_Aligned_Down,48.64038,-1.30835,90.00451,0.03341,89.99734,-0.00844,0.51159,0.44936,0.40045
0.95100,WithTCP_Aligned_Down,48.64038,-1.30835,90.00487,0.03341,89.99690,-0.00844,0.51159,0.44936,0.40044
0.95200,WithTCP_Aligned_Down,48.64038,-1.30835,90.00534,0.03341,89.99646,-0.00844,0.51159,0.44936,0.40043
0.95300,WithTCP_Aligned_Down,48.64038,-1.30835,90.00569,0.03341,89.99602,-0.00844,0.51159,0.44936,0.40042
0.95400,WithTCP_Aligned_Down,48.64038,-1.30835,90.00617,0.03341,89.99542,-0.00844,0.51159,0.44936,0.40041
0.95500,WithTCP_Aligned_Down,48.64038,-1.30835,90.00665,0.03341,89.99483,-0.00859,0.51159,0.44936,0.40040
0.95600,WithTCP_Aligned_Down,48.64038,-1.30835,90.00723,0.03341,89.99424,-0.00859,0.51159,0.44936,0.40039
0.95700,WithTCP_Aligned_Down,48.64038,-1.30835,90.00771,0.03341,89.99350,-0.00859,0.51159,0.44936,0.40037
0.95800,WithTCP_Aligned_Down,48.64026,-1.30835,90.00830,0.03341,89.99276,-0.00859,0.51159,0.44936,0.40036
0.95900,WithTCP_Aligned_Down,48.64026,-1.30835,90.00937,0.03341,89.99113,-0.00859,0.51159,0.44936,0.40035
0.96000,WithTCP_Aligned_Down,48.64026,-1.30835,90.00996,0.03341,89.99039,-0.00859,0.51159,0.44936,0.40034
0.96100,WithTCP_Aligned_Down,48.64026,-1.30847,90.01055,0.03341,89.98950,-0.00859,0.51159,0.44936,0.40033
0.96200,WithTCP_Aligned_Down,48.64026,-1.30847,90.01055,0.03341,89.98950,-0.00859,0.51159,0.44936,0.40031
0.96300,WithTCP_Aligned_Down,48.64026,-1.30847,90.01126,0.03341,89.98862,-0.00859,0.51159,0.44936,0.40030
0.96400,WithTCP_Aligned_Down,48.64026,-1.30847,90.01186,0.03341,89.98758,-0.00859,0.51159,0.44936,0.40029
0.96500,WithTCP_Aligned_Down,48.64014,-1.30847,90.01257,0.03341,89.98669,-0.00873,0.51159,0.44936,0.40027
0.96600,WithTCP_Aligned_Down,48.64014,-1.30847,90.01328,0.03341,89.98566,-0.00873,0.51159,0.44936,0.40026
0.96700,WithTCP_Aligned_Down,48.64014,-1.30847,90.01386,0.03341,89.98462,-0.00873,0.51159,0.44936,0.40024
0.96800,WithTCP_Aligned_Down,48.64014,-1.30847,90.01469,0.03341,89.98358,-0.00873,0.51159,0.44936,0.40023
0.96900,WithTCP_Aligned_Down,48.64014,-1.30847,90.01540,0.03341,89.98254,-0.00873,0.51159,0.44936,0.40022
0.97000,WithTCP_Aligned_Down,48.64003,-1.30847,90.01611,0.03341,89.98136,-0.00873,0.51159,0.44936,0.40020
0.97100,WithTCP_Aligned_Down,48.64003,-1.30847,90.01694,0.03341,89.98018,-0.00888,0.51159,0.44936,0.40019
0.97200,WithTCP_Aligned_Down,48.64003,-1.30847,90.01765,0.03341,89.97914,-0.00888,0.51159,0.44937,0.40017
0.97300,WithTCP_Aligned_Down,48.64003,-1.30847,90.01860,0.03341,89.97796,-0.00888,0.51159,0.44937,0.40015
0.97400,WithTCP_Aligned_Down,48.63991,-1.30847,90.01943,0.03341,89.97677,-0.00888,0.51159,0.44937,0.40014
0.97500,WithTCP_Aligned_Down,48.63991,-1.30847,90.02038,0.03341,89.97559,-0.00903,0.51159,0.44937,0.40012
0.97600,WithTCP_Aligned_Down,48.63991,-1.30847,90.02145,0.03341,89.97440,-0.00903,0.51159,0.44937,0.40011
0.97700,WithTCP_Aligned_Down,48.63979,-1.30847,90.02239,0.03341,89.97322,-0.00903,0.51159,0.44937,0.40009
0.97800,WithTCP_Aligned_Down,48.63979,-1.30847,90.02346,0.03341,89.97204,-0.00903,0.51159,0.44937,0.40007
0.97900,WithTCP_Aligned_Down,48.63979,-1.30847,90.02453,0.03341,89.97070,-0.00918,0.51159,0.44937,0.40006
0.98000,WithTCP_Aligned_Down,48.63967,-1.30847,90.02559,0.03341,89.96937,-0.00918,0.51159,0.44937,0.40004
0.98100,WithTCP_Aligned_Down,48.63967,-1.30847,90.02666,0.03341,89.96804,-0.00918,0.51159,0.44937,0.40002
0.98200,WithTCP_Aligned_Down,48.63955,-1.30847,90.02773,0.03341,89.96671,-0.00933,0.51159,0.44937,0.40000
0.98300,WithTCP_Aligned_Down,48.63955,-1.30847,90.02891,0.03341,89.96523,-0.00933,0.51159,0.44937,0.39999
0.98400,WithTCP_Aligned_Down,48.63943,-1.30847,90.03009,0.03341,89.96375,-0.00947,0.51159,0.44937,0.39997
0.98500,WithTCP_Aligned_Down,48.63932,-1.30847,90.03127,0.03341,89.96227,-0.00947,0.51159,0.44937,0.39995
0.98600,WithTCP_Aligned_Down,48.63932,-1.30847,90.03246,0.03341,89.96078,-0.00947,0.51159,0.44937,0.39993
0.98700,WithTCP_Aligned_Down,48.63920,-1.30847,90.03376,0.03341,89.95916,-0.00962,0.51159,0.44937,0.39991
0.98800,WithTCP_Aligned_Down,48.63908,-1.30847,90.03661,0.03341,89.95575,-0.00977,0.51159,0.44937,0.39989
0.98900,WithTCP_Aligned_Down,48.63896,-1.30847,90.03815,0.03341,89.95412,-0.00992,0.51159,0.44937,0.39987
0.99000,WithTCP_Aligned_Down,48.63884,-1.30847,90.03968,0.03341,89.95250,-0.00992,0.51159,0.44937,0.39985
0.99100,WithTCP_Aligned_Down,48.63873,-1.30847,90.04134,0.03341,89.95101,-0.01007,0.51160,0.44937,0.39983
0.99200,WithTCP_Aligned_Down,48.63861,-1.30847,90.04312,0.03341,89.94953,-0.01007,0.51160,0.44937,0.39981
0.99300,WithTCP_Aligned_Down,48.63861,-1.30847,90.04312,0.03341,89.94953,-0.01007,0.51160,0.44937,0.39979
0.99400,WithTCP_Aligned_Down,48.63861,-1.30847,90.04501,0.03341,89.94805,-0.01021,0.51160,0.44937,0.39977
0.99500,WithTCP_Aligned_Down,48.63848,-1.30847,90.04679,0.03341,89.94643,-0.01036,0.51160,0.44937,0.39975
0.99600,WithTCP_Aligned_Down,48.63837,-1.30847,90.04857,0.03341,89.94495,-0.01051,0.51160,0.44937,0.39973
0.99700,WithTCP_Aligned_Down,48.63825,-1.30847,90.05022,0.03341,89.94332,-0.01066,0.51160,0.44937,0.39970
0.99800,WithTCP_Aligned_Down,48.63813,-1.30847,90.05188,0.03341,89.94154,-0.01081,0.51160,0.44937,0.39968
0.99900,WithTCP_Aligned_Down,48.63789,-1.30847,90.05567,0.03341,89.93813,-0.01110,0.51160,0.44937,0.39966
1.00000,WithTCP_Aligned_Down,48.63778,-1.30847,90.05769,0.03341,89.93636,-0.01125,0.51160,0.44937,0.39964
1.00100,WithTCP_Aligned_Down,48.63754,-1.30847,90.05981,0.03341,89.93459,-0.01140,0.51160,0.44937,0.39961
1.00200,WithTCP_Aligned_Down,48.63742,-1.30847,90.06207,0.03341,89.93281,-0.01155,0.51160,0.44937,0.39959
1.00300,WithTCP_Aligned_Down,48.63730,-1.30859,90.06419,0.03341,89.93089,-0.01184,0.51160,0.44938,0.39957
1.00400,WithTCP_Aligned_Down,48.63730,-1.30859,90.06419,0.03341,89.93089,-0.01184,0.51160,0.44938,0.39954
1.00500,WithTCP_Aligned_Down,48.63718,-1.30859,90.06644,0.03341,89.92896,-0.01214,0.51160,0.44938,0.39952
1.00600,WithTCP_Aligned_Down,48.63707,-1.30859,90.06870,0.03341,89.92703,-0.01244,0.51160,0.44938,0.39949
1.00700,WithTCP_Aligned_Down,48.63683,-1.30859,90.07095,0.03356,89.92496,-0.01273,0.51160,0.44938,0.39947
1.00800,WithTCP_Aligned_Down,48.63671,-1.30859,90.07320,0.03356,89.92303,-0.01303,0.51160,0.44938,0.39944
1.00900,WithTCP_Aligned_Down,48.63647,-1.30859,90.07557,0.03356,89.92081,-0.01347,0.51160,0.44938,0.39942
1.01000,WithTCP_Aligned_Down,48.63636,-1.30859,90.07793,0.03356,89.91875,-0.01392,0.51160,0.44938,0.39939
1.01100,WithTCP_Aligned_Down,48.63624,-1.30859,90.08030,0.03356,89.91653,-0.01436,0.51160,0.44938,0.39937
1.01200,WithTCP_Aligned_Down,48.63600,-1.30859,90.08267,0.03356,89.91445,-0.01480,0.51160,0.44938,0.39934
1.01300,WithTCP_Aligned_Down,48.63588,-1.30859,90.08504,0.03356,89.91209,-0.01540,0.51160,0.44938,0.39931
1.01400,WithTCP_Aligned_Down,48.63564,-1.30859,90.08752,0.03356,89.90987,-0.01599,0.51160,0.44938,0.39929
1.01500,WithTCP_Aligned_Down,48.63552,-1.30859,90.09001,0.03356,89.90765,-0.01658,0.51161,0.44938,0.39926
1.01600,WithTCP_Aligned_Down,48.63529,-1.30859,90.09250,0.03356,89.90527,-0.01732,0.51161,0.44938,0.39923
1.01700,WithTCP_Aligned_Down,48.63517,-1.30859,90.09499,0.03356,89.90291,-0.01806,0.51161,0.44938,0.39920
1.01800,WithTCP_Aligned_Down,48.63505,-1.30859,90.09747,0.03356,89.90054,-0.01880,0.51161,0.44938,0.39917
1.01900,WithTCP_Aligned_Down,48.63493,-1.30859,90.10008,0.03356,89.89817,-0.01954,0.51161,0.44938,0.39915
1.02000,WithTCP_Aligned_Down,48.63470,-1.30859,90.10257,0.03356,89.89565,-0.02028,0.51161,0.44938,0.39912
1.02100,WithTCP_Aligned_Down,48.63446,-1.30859,90.10517,0.03356,89.89314,-0.02117,0.51161,0.44939,0.39909
1.02200,WithTCP_Aligned_Down,48.63411,-1.30859,90.10778,0.03356,89.89062,-0.02206,0.51161,0.44939,0.39906
1.02300,WithTCP_Aligned_Down,48.63399,-1.30859,90.11038,0.03356,89.88795,-0.02295,0.51161,0.44939,0.39903
1.02400,WithTCP_Aligned_Down,48.63375,-1.30859,90.11311,0.03356,89.88514,-0.02398,0.51161,0.44939,0.39900
1.02500,WithTCP_Aligned_Down,48.63363,-1.30859,90.11583,0.03356,89.88248,-0.02487,0.51161,0.44939,0.39897
1.02600,WithTCP_Aligned_Down,48.63340,-1.30859,90.11855,0.03356,89.87967,-0.02591,0.51161,0.44939,0.39894
1.02700,WithTCP_Aligned_Down,48.63292,-1.30859,90.12400,0.03356,89.87389,-0.02813,0.51161,0.44939,0.39891
1.02800,WithTCP_Aligned_Down,48.63268,-1.30859,90.12685,0.03371,89.87108,-0.02931,0.51161,0.44939,0.39887
1.02900,WithTCP_Aligned_Down,48.63245,-1.30859,90.12968,0.03371,89.86812,-0.03049,0.51161,0.44939,0.39884
1.03000,WithTCP_Aligned_Down,48.63221,-1.30871,90.13264,0.03371,89.86516,-0.03168,0.51161,0.44939,0.39881
1.03100,WithTCP_Aligned_Down,48.63197,-1.30871,90.13560,0.03371,89.86235,-0.03301,0.51161,0.44939,0.39878
1.03200,WithTCP_Aligned_Down,48.63174,-1.30871,90.13869,0.03371,89.85938,-0.03434,0.51162,0.44939,0.39874
1.03300,WithTCP_Aligned_Down,48.63174,-1.30871,90.13869,0.03371,89.85938,-0.03434,0.51162,0.44939,0.39871
1.03400,WithTCP_Aligned_Down,48.63150,-1.30871,90.14165,0.03371,89.85628,-0.03568,0.51162,0.44939,0.39868
1.03500,WithTCP_Aligned_Down,48.63115,-1.30871,90.14473,0.03371,89.85332,-0.03716,0.51162,0.44940,0.39864
1.03600,WithTCP_Aligned_Down,48.63091,-1.30871,90.14793,0.03371,89.85036,-0.03864,0.51162,0.44940,0.39861
1.03700,WithTCP_Aligned_Down,48.63067,-1.30871,90.15124,0.03371,89.84754,-0.04012,0.51162,0.44940,0.39858
1.03800,WithTCP_Aligned_Down,48.63032,-1.30871,90.15456,0.03371,89.84458,-0.04160,0.51162,0.44940,0.39854
1.03900,WithTCP_Aligned_Down,48.63008,-1.30871,90.15787,0.03385,89.84162,-0.04322,0.51162,0.44940,0.39851
1.04000,WithTCP_Aligned_Down,48.62972,-1.30859,90.16131,0.03385,89.83866,-0.04485,0.51162,0.44940,0.39847
1.04100,WithTCP_Aligned_Down,48.62949,-1.30859,90.16474,0.03385,89.83570,-0.04648,0.51162,0.44940,0.39843
1.04200,WithTCP_Aligned_Down,48.62913,-1.30859,90.16817,0.03385,89.83260,-0.04811,0.51162,0.44940,0.39840
1.04300,WithTCP_Aligned_Down,48.62889,-1.30859,90.17173,0.03385,89.82964,-0.04989,0.51162,0.44940,0.39836
1.04400,WithTCP_Aligned_Down,48.62854,-1.30859,90.17528,0.03385,89.82652,-0.05166,0.51162,0.44940,0.39832
1.04500,WithTCP_Aligned_Down,48.62830,-1.30859,90.17883,0.03400,89.82342,-0.05344,0.51163,0.44940,0.39829
1.04600,WithTCP_Aligned_Down,48.62795,-1.30859,90.18250,0.03400,89.82030,-0.05507,0.51163,0.44940,0.39825
1.04700,WithTCP_Aligned_Down,48.62759,-1.30859,90.18617,0.03400,89.81734,-0.05684,0.51163,0.44941,0.39821
1.04800,WithTCP_Aligned_Down,48.62724,-1.30859,90.18973,0.03400,89.81424,-0.05862,0.51163,0.44941,0.39817
1.04900,WithTCP_Aligned_Down,48.62688,-1.30859,90.19328,0.03415,89.81113,-0.06040,0.51163,0.44941,0.39814
1.05000,WithTCP_Aligned_Down,48.62653,-1.30859,90.19695,0.03415,89.80802,-0.06232,0.51163,0.44941,0.39810
1.05100,WithTCP_Aligned_Down,48.62617,-1.30859,90.20050,0.03415,89.80491,-0.06410,0.51163,0.44941,0.39806
1.05200,WithTCP_Aligned_Down,48.62546,-1.30859,90.20785,0.03430,89.79855,-0.06795,0.51163,0.44941,0.39802
1.05300,WithTCP_Aligned_Down,48.62511,-1.30859,90.21163,0.03430,89.79544,-0.06987,0.51163,0.44941,0.39798
1.05400,WithTCP_Aligned_Down,48.62475,-1.30859,90.21519,0.03430,89.79218,-0.07179,0.51163,0.44941,0.39794
1.05500,WithTCP_Aligned_Down,48.62428,-1.30859,90.21886,0.03444,89.78893,-0.07372,0.51164,0.44941,0.39790
1.05600,WithTCP_Aligned_Down,48.62392,-1.30859,90.22265,0.03444,89.78552,-0.07564,0.51164,0.44941,0.39786
1.05700,WithTCP_Aligned_Down,48.62357,-1.30859,90.22644,0.03444,89.78212,-0.07771,0.51164,0.44942,0.39781
1.05800,WithTCP_Aligned_Down,48.62309,-1.30859,90.23022,0.03444,89.77871,-0.07979,0.51164,0.44942,0.39777
1.05900,WithTCP_Aligned_Down,48.62274,-1.30870,90.23414,0.03459,89.77531,-0.08201,0.51164,0.44942,0.39773
1.06000,WithTCP_Aligned_Down,48.62274,-1.30870,90.23414,0.03459,89.77531,-0.08201,0.51164,0.44942,0.39769
1.06100,WithTCP_Aligned_Down,48.62226,-1.30870,90.23804,0.03459,89.77175,-0.08408,0.51164,0.44942,0.39765
1.06200,WithTCP_Aligned_Down,48.62191,-1.30870,90.24207,0.03459,89.76805,-0.08630,0.51164,0.44942,0.39760
1.06300,WithTCP_Aligned_Down,48.62143,-1.30870,90.24609,0.03474,89.76435,-0.08837,0.51164,0.44942,0.39756
1.06400,WithTCP_Aligned_Down,48.62096,-1.30870,90.25024,0.03474,89.76065,-0.09059,0.51164,0.44942,0.39752
1.06500,WithTCP_Aligned_Down,48.62061,-1.30870,90.25439,0.03489,89.75695,-0.09281,0.51165,0.44943,0.39747
1.06600,WithTCP_Aligned_Down,48.62013,-1.30870,90.25865,0.03489,89.75311,-0.09518,0.51165,0.44943,0.39743
1.06700,WithTCP_Aligned_Down,48.61966,-1.30870,90.26279,0.03489,89.74925,-0.09740,0.51165,0.44943,0.39738
1.06800,WithTCP_Aligned_Down,48.61918,-1.30870,90.26717,0.03504,89.74541,-0.09977,0.51165,0.44943,0.39734
1.06900,WithTCP_Aligned_Down,48.61871,-1.30870,90.27144,0.03504,89.74141,-0.10199,0.51165,0.44943,0.39729
1.07000,WithTCP_Aligned_Down,48.61824,-1.30870,90.27582,0.03518,89.73741,-0.10436,0.51165,0.44943,0.39724
1.07100,WithTCP_Aligned_Down,48.61776,-1.30870,90.28032,0.03533,89.73327,-0.10688,0.51165,0.44943,0.39720
1.07200,WithTCP_Aligned_Down,48.61729,-1.30870,90.28471,0.03533,89.72927,-0.10939,0.51165,0.44943,0.39715
1.07300,WithTCP_Aligned_Down,48.61670,-1.30870,90.28909,0.03548,89.72527,-0.11191,0.51166,0.44944,0.39711
1.07400,WithTCP_Aligned_Down,48.61622,-1.30870,90.29346,0.03563,89.72128,-0.11443,0.51166,0.44944,0.39706
1.07500,WithTCP_Aligned_Down,48.61575,-1.30870,90.29797,0.03578,89.71713,-0.11709,0.51166,0.44944,0.39701
1.07600,WithTCP_Aligned_Down,48.61516,-1.30870,90.30247,0.03592,89.71313,-0.11975,0.51166,0.44944,0.39696
1.07700,WithTCP_Aligned_Down,48.61469,-1.30870,90.30697,0.03607,89.70899,-0.12257,0.51166,0.44944,0.39691
1.07800,WithTCP_Aligned_Down,48.61421,-1.30870,90.31135,0.03622,89.70485,-0.12553,0.51166,0.44944,0.39686
1.07900,WithTCP_Aligned_Down,48.61362,-1.30870,90.31573,0.03637,89.70070,-0.12834,0.51166,0.44944,0.39682
1.08000,WithTCP_Aligned_Down,48.61303,-1.30870,90.32011,0.03652,89.69670,-0.13115,0.51166,0.44945,0.39677
1.08100,WithTCP_Aligned_Down,48.61196,-1.30870,90.32911,0.03681,89.68856,-0.13722,0.51167,0.44945,0.39672
1.08200,WithTCP_Aligned_Down,48.61137,-1.30870,90.33350,0.03696,89.68456,-0.14018,0.51167,0.44945,0.39667
1.08300,WithTCP_Aligned_Down,48.61077,-1.30870,90.33799,0.03711,89.68042,-0.14329,0.51167,0.44945,0.39662
1.08400,WithTCP_Aligned_Down,48.61018,-1.30870,90.34261,0.03726,89.67612,-0.14640,0.51167,0.44945,0.39656
1.08500,WithTCP_Aligned_Down,48.60959,-1.30870,90.34723,0.03740,89.67198,-0.14951,0.51167,0.44945,0.39651
1.08600,WithTCP_Aligned_Down,48.60900,-1.30870,90.35185,0.03770,89.66769,-0.15262,0.51167,0.44945,0.39646
1.08700,WithTCP_Aligned_Down,48.60841,-1.30870,90.35658,0.03785,89.66340,-0.15587,0.51168,0.44946,0.39641
1.08800,WithTCP_Aligned_Down,48.60781,-1.30870,90.36132,0.03800,89.65910,-0.15898,0.51168,0.44946,0.39636
1.08900,WithTCP_Aligned_Down,48.60781,-1.30870,90.36132,0.03800,89.65910,-0.15898,0.51168,0.44946,0.39630
1.09000,WithTCP_Aligned_Down,48.60711,-1.30870,90.36618,0.03829,89.65466,-0.16209,0.51168,0.44946,0.39625
1.09100,WithTCP_Aligned_Down,48.60651,-1.30870,90.37103,0.03844,89.65008,-0.16535,0.51168,0.44946,0.39620
1.09200,WithTCP_Aligned_Down,48.60580,-1.30870,90.37601,0.03874,89.64548,-0.16860,0.51168,0.44946,0.39614
1.09300,WithTCP_Aligned_Down,48.60521,-1.30870,90.38098,0.03888,89.64090,-0.17186,0.51168,0.44947,0.39609
1.09400,WithTCP_Aligned_Down,48.60450,-1.30870,90.38596,0.03918,89.63601,-0.17497,0.51169,0.44947,0.39603
1.09500,WithTCP_Aligned_Down,48.60391,-1.30870,90.39104,0.03933,89.63128,-0.17822,0.51169,0.44947,0.39598
1.09600,WithTCP_Aligned_Down,48.60320,-1.30870,90.39614,0.03962,89.62639,-0.18148,0.51169,0.44947,0.39592
1.09700,WithTCP_Aligned_Down,48.60260,-1.30870,90.40123,0.03977,89.62136,-0.18489,0.51169,0.44947,0.39587
1.09800,WithTCP_Aligned_Down,48.60189,-1.30870,90.40633,0.04007,89.61633,-0.18814,0.51169,0.44947,0.39581
1.09900,WithTCP_Aligned_Down,48.60118,-1.30870,90.41142,0.04036,89.61129,-0.19140,0.51169,0.44948,0.39576
1.10000,WithTCP_Aligned_Down,48.60048,-1.30870,90.41651,0.04066,89.60611,-0.19466,0.51170,0.44948,0.39570
1.10100,WithTCP_Aligned_Down,48.59976,-1.30870,90.42160,0.04096,89.60108,-0.19806,0.51170,0.44948,0.39564
1.10200,WithTCP_Aligned_Down,48.59905,-1.30870,90.42669,0.04125,89.59605,-0.20132,0.51170,0.44948,0.39559
1.10300,WithTCP_Aligned_Down,48.59834,-1.30870,90.43190,0.04155,89.59087,-0.20472,0.51170,0.44948,0.39553
1.10400,WithTCP_Aligned_Down,48.59763,-1.30870,90.43711,0.04184,89.58569,-0.20813,0.51170,0.44948,0.39547
1.10500,WithTCP_Aligned_Down,48.59680,-1.30870,90.44244,0.04229,89.58065,-0.21153,0.51170,0.44949,0.39541
1.10600,WithTCP_Aligned_Down,48.59609,-1.30870,90.44789,0.04258,89.57547,-0.21508,0.51171,0.44949,0.39535
1.10700,WithTCP_Aligned_Down,48.59443,-1.30870,90.45879,0.04318,89.56541,-0.22189,0.51171,0.44949,0.39529
1.10800,WithTCP_Aligned_Down,48.59372,-1.30870,90.46447,0.04362,89.56022,-0.22545,0.51171,0.44949,0.39523
1.10900,WithTCP_Aligned_Down,48.59290,-1.30870,90.47039,0.04392,89.55519,-0.22900,0.51171,0.44949,0.39517
1.11000,WithTCP_Aligned_Down,48.59206,-1.30858,90.47620,0.04436,89.55001,-0.23255,0.51171,0.44950,0.39511
1.11100,WithTCP_Aligned_Down,48.59135,-1.30858,90.48212,0.04466,89.54483,-0.23610,0.51172,0.44950,0.39505
1.11200,WithTCP_Aligned_Down,48.59053,-1.30858,90.48827,0.04510,89.53979,-0.23966,0.51172,0.44950,0.39499
1.11300,WithTCP_Aligned_Down,48.58970,-1.30858,90.49431,0.04540,89.53461,-0.24336,0.51172,0.44950,0.39493
1.11400,WithTCP_Aligned_Down,48.58887,-1.30858,90.50047,0.04584,89.52943,-0.24720,0.51172,0.44950,0.39487
1.11500,WithTCP_Aligned_Down,48.58792,-1.30858,90.50663,0.04628,89.52410,-0.25091,0.51172,0.44951,0.39480
1.11600,WithTCP_Aligned_Down,48.58709,-1.30858,90.51266,0.04673,89.51878,-0.25475,0.51173,0.44951,0.39474
1.11700,WithTCP_Aligned_Down,48.58626,-1.30858,90.51871,0.04717,89.51330,-0.25860,0.51173,0.44951,0.39468
1.11800,WithTCP_Aligned_Down,48.58532,-1.30858,90.52475,0.04776,89.50782,-0.26260,0.51173,0.44951,0.39462
1.11900,WithTCP_Aligned_Down,48.58532,-1.30858,90.52475,0.04776,89.50782,-0.26260,0.51173,0.44951,0.39455
1.12000,WithTCP_Aligned_Down,48.58449,-1.30858,90.53078,0.04821,89.50220,-0.26660,0.51173,0.44952,0.39449
1.12100,WithTCP_Aligned_Down,48.58354,-1.30858,90.53694,0.04865,89.49657,-0.27059,0.51174,0.44952,0.39442
1.12200,WithTCP_Aligned_Down,48.58271,-1.30858,90.54311,0.04910,89.49080,-0.27459,0.51174,0.44952,0.39436
1.12300,WithTCP_Aligned_Down,48.58176,-1.30858,90.54914,0.04969,89.48502,-0.27859,0.51174,0.44952,0.39429
1.12400,WithTCP_Aligned_Down,48.58081,-1.30858,90.55530,0.05013,89.47925,-0.28258,0.51174,0.44952,0.39423
1.12500,WithTCP_Aligned_Down,48.57987,-1.30858,90.56158,0.05072,89.47348,-0.28658,0.51175,0.44953,0.39416
1.12600,WithTCP_Aligned_Down,48.57892,-1.30858,90.56797,0.05117,89.46770,-0.29058,0.51175,0.44953,0.39410
1.12700,WithTCP_Aligned_Down,48.57797,-1.30858,90.57436,0.05176,89.46193,-0.29457,0.51175,0.44953,0.39403
1.12800,WithTCP_Aligned_Down,48.57703,-1.30858,90.58076,0.05220,89.45616,-0.29872,0.51175,0.44953,0.39396
1.12900,WithTCP_Aligned_Down,48.57608,-1.30858,90.58739,0.05280,89.45039,-0.30286,0.51175,0.44954,0.39390
1.13000,WithTCP_Aligned_Down,48.57513,-1.30858,90.59390,0.05324,89.44461,-0.30701,0.51176,0.44954,0.39383
1.13100,WithTCP_Aligned_Down,48.57418,-1.30858,90.60042,0.05383,89.43884,-0.31086,0.51176,0.44954,0.39376
1.13200,WithTCP_Aligned_Down,48.57324,-1.30858,90.60693,0.05442,89.43307,-0.31500,0.51176,0.44954,0.39369
1.13300,WithTCP_Aligned_Down,48.57217,-1.30858,90.61356,0.05487,89.42729,-0.31900,0.51176,0.44955,0.39362
1.13400,WithTCP_Aligned_Down,48.57111,-1.30858,90.61996,0.05546,89.42152,-0.32299,0.51177,0.44955,0.39355
1.13500,WithTCP_Aligned_Down,48.57016,-1.30858,90.62647,0.05605,89.41575,-0.32699,0.51177,0.44955,0.39348
1.13600,WithTCP_Aligned_Down,48.56815,-1.30846,90.63973,0.05709,89.40420,-0.33528,0.51177,0.44955,0.39341
1.13700,WithTCP_Aligned_Down,48.56708,-1.30846,90.64637,0.05768,89.39843,-0.33943,0.51177,0.44955,0.39334
1.13800,WithTCP_Aligned_Down,48.56601,-1.30846,90.65311,0.05827,89.39251,-0.34342,0.51178,0.44956,0.39327
1.13900,WithTCP_Aligned_Down,48.56507,-1.30846,90.65999,0.05886,89.38673,-0.34771,0.51178,0.44956,0.39320
1.14000,WithTCP_Aligned_Down,48.56400,-1.30846,90.66697,0.05931,89.38067,-0.35186,0.51178,0.44956,0.39313
1.14100,WithTCP_Aligned_Down,48.56293,-1.30846,90.67396,0.05990,89.37474,-0.35600,0.51178,0.44956,0.39306
1.14200,WithTCP_Aligned_Down,48.56187,-1.30846,90.68095,0.06049,89.36868,-0.36030,0.51179,0.44957,0.39299
1.14300,WithTCP_Aligned_Down,48.56068,-1.30846,90.68805,0.06094,89.36260,-0.36459,0.51179,0.44957,0.39291
1.14400,WithTCP_Aligned_Down,48.55962,-1.30845,90.69504,0.06153,89.35639,-0.36903,0.51179,0.44957,0.39284
1.14500,WithTCP_Aligned_Down,48.55855,-1.30834,90.70203,0.06212,89.35017,-0.37347,0.51179,0.44957,0.39277
1.14600,WithTCP_Aligned_Down,48.55737,-1.30834,90.70913,0.06271,89.34410,-0.37806,0.51180,0.44958,0.39270
1.14700,WithTCP_Aligned_Down,48.55630,-1.30834,90.71612,0.06316,89.33788,-0.38265,0.51180,0.44958,0.39262
1.14800,WithTCP_Aligned_Down,48.55512,-1.30834,90.72311,0.06375,89.33167,-0.38739,0.51180,0.44958,0.39255
1.14900,WithTCP_Aligned_Down,48.55512,-1.30834,90.72311,0.06375,89.33167,-0.38739,0.51180,0.44958,0.39247
1.15000,WithTCP_Aligned_Down,48.55405,-1.30834,90.73033,0.06434,89.32530,-0.39227,0.51181,0.44959,0.39240
1.15100,WithTCP_Aligned_Down,48.55287,-1.30822,90.73731,0.06493,89.31894,-0.39716,0.51181,0.44959,0.39232
1.15200,WithTCP_Aligned_Down,48.55180,-1.30822,90.74454,0.06553,89.31272,-0.40204,0.51181,0.44959,0.39225
1.15300,WithTCP_Aligned_Down,48.55062,-1.30822,90.75164,0.06612,89.30636,-0.40707,0.51181,0.44960,0.39217
1.15400,WithTCP_Aligned_Down,48.54943,-1.30822,90.75899,0.06671,89.30014,-0.41211,0.51182,0.44960,0.39210
1.15500,WithTCP_Aligned_Down,48.54825,-1.30810,90.76633,0.06715,89.29392,-0.41729,0.51182,0.44960,0.39202
1.15600,WithTCP_Aligned_Down,48.54707,-1.30810,90.77379,0.06775,89.28770,-0.42262,0.51182,0.44960,0.39194
1.15700,WithTCP_Aligned_Down,48.54588,-1.30798,90.78125,0.06834,89.28149,-0.42780,0.51183,0.44961,0.39186
1.15800,WithTCP_Aligned_Down,48.54470,-1.30798,90.78871,0.06893,89.27527,-0.43298,0.51183,0.44961,0.39179
1.15900,WithTCP_Aligned_Down,48.54340,-1.30798,90.79629,0.06952,89.26905,-0.43831,0.51183,0.44961,0.39171
1.16000,WithTCP_Aligned_Down,48.54221,-1.30786,90.80387,0.07011,89.26254,-0.44364,0.51183,0.44961,0.39163
1.16100,WithTCP_Aligned_Down,48.54103,-1.30786,90.81145,0.07071,89.25603,-0.44911,0.51184,0.44962,0.39155
1.16200,WithTCP_Aligned_Down,48.53972,-1.30774,90.81915,0.07130,89.24951,-0.45444,0.51184,0.44962,0.39147
1.16300,WithTCP_Aligned_Down,48.53854,-1.30762,90.82672,0.07189,89.24300,-0.45992,0.51184,0.44962,0.39139
1.16400,WithTCP_Aligned_Down,48.53593,-1.30750,90.84164,0.07307,89.22938,-0.47102,0.51185,0.44963,0.39131
1.16500,WithTCP_Aligned_Down,48.53475,-1.30750,90.84922,0.07352,89.22272,-0.47665,0.51185,0.44963,0.39123
1.16600,WithTCP_Aligned_Down,48.53357,-1.30750,90.85668,0.07411,89.21606,-0.48227,0.51185,0.44963,0.39115
1.16700,WithTCP_Aligned_Down,48.53226,-1.30738,90.86414,0.07470,89.20925,-0.48790,0.51186,0.44963,0.39107
1.16800,WithTCP_Aligned_Down,48.53096,-1.30738,90.87184,0.07529,89.20244,-0.49367,0.51186,0.44964,0.39099
1.16900,WithTCP_Aligned_Down,48.52966,-1.30726,90.87954,0.07589,89.19578,-0.49944,0.51186,0.44964,0.39091
1.17000,WithTCP_Aligned_Down,48.52835,-1.30726,90.88712,0.07633,89.18926,-0.50521,0.51186,0.44964,0.39083
1.17100,WithTCP_Aligned_Down,48.52705,-1.30714,90.89505,0.07692,89.18260,-0.51114,0.51187,0.44965,0.39075
1.17200,WithTCP_Aligned_Down,48.52705,-1.30714,90.89505,0.07692,89.18260,-0.51114,0.51187,0.44965,0.39066
1.17300,WithTCP_Aligned_Down,48.52575,-1.30703,90.90287,0.07751,89.17594,-0.51706,0.51187,0.44965,0.39058
1.17400,WithTCP_Aligned_Down,48.52445,-1.30691,90.91068,0.07811,89.16943,-0.52298,0.51188,0.44966,0.39050
1.17500,WithTCP_Aligned_Down,48.52314,-1.30691,90.91862,0.07870,89.16277,-0.52905,0.51188,0.44966,0.39041
1.17600,WithTCP_Aligned_Down,48.52172,-1.30679,90.92644,0.07914,89.15611,-0.53512,0.51188,0.44966,0.39033
1.17700,WithTCP_Aligned_Down,48.52042,-1.30667,90.93425,0.07973,89.14944,-0.54119,0.51189,0.44966,0.39025
1.17800,WithTCP_Aligned_Down,48.51900,-1.30655,90.94218,0.08033,89.14264,-0.54725,0.51189,0.44967,0.39016
1.17900,WithTCP_Aligned_Down,48.51758,-1.30643,90.95000,0.08092,89.13568,-0.55332,0.51189,0.44967,0.39008
1.18000,WithTCP_Aligned_Down,48.51616,-1.30631,90.95793,0.08151,89.12872,-0.55939,0.51190,0.44967,0.38999
1.18100,WithTCP_Aligned_Down,48.51485,-1.30619,90.96610,0.08195,89.12161,-0.56546,0.51190,0.44968,0.38991
1.18200,WithTCP_Aligned_Down,48.51344,-1.30619,90.97416,0.08255,89.11451,-0.57153,0.51190,0.44968,0.38982
1.18300,WithTCP_Aligned_Down,48.51189,-1.30607,90.98221,0.08299,89.10725,-0.57760,0.51191,0.44968,0.38973
1.18400,WithTCP_Aligned_Down,48.51048,-1.30595,90.99050,0.08358,89.10015,-0.58367,0.51191,0.44969,0.38965
1.18500,WithTCP_Aligned_Down,48.50751,-1.30572,91.00708,0.08462,89.08579,-0.59595,0.51191,0.44969,0.38956
1.18600,WithTCP_Aligned_Down,48.50597,-1.30560,91.01537,0.08521,89.07854,-0.60217,0.51192,0.44969,0.38947
1.18700,WithTCP_Aligned_Down,48.50455,-1.30548,91.02354,0.08580,89.07143,-0.60839,0.51192,0.44970,0.38939
1.18800,WithTCP_Aligned_Down,48.50301,-1.30536,91.03159,0.08625,89.06418,-0.61461,0.51192,0.44970,0.38930
1.18900,WithTCP_Aligned_Down,48.50147,-1.30524,91.03988,0.08684,89.05708,-0.62097,0.51193,0.44970,0.38921
1.19000,WithTCP_Aligned_Down,48.49994,-1.30512,91.04805,0.08743,89.04997,-0.62734,0.51193,0.44971,0.38912
1.19100,WithTCP_Aligned_Down,48.49839,-1.30500,91.05634,0.08802,89.04286,-0.63370,0.51193,0.44971,0.38903
1.19200,WithTCP_Aligned_Down,48.49686,-1.30489,91.06487,0.08861,89.03590,-0.64021,0.51194,0.44971,0.38894
1.19300,WithTCP_Aligned_Down,48.49532,-1.30477,91.07351,0.08921,89.02880,-0.64673,0.51194,0.44972,0.38885
1.19400,WithTCP_Aligned_Down,48.49377,-1.30465,91.08204,0.08980,89.02170,-0.65324,0.51195,0.44972,0.38876
1.19500,WithTCP_Aligned_Down,48.49212,-1.30453,91.09068,0.09039,89.01460,-0.65990,0.51195,0.44972,0.38867
1.19600,WithTCP_Aligned_Down,48.49046,-1.30429,91.09956,0.09098,89.00748,-0.66642,0.51195,0.44973,0.38858
1.19700,WithTCP_Aligned_Down,48.48880,-1.30417,91.10833,0.09172,89.00008,-0.67308,0.51196,0.44973,0.38849
1.19800,WithTCP_Aligned_Down,48.48880,-1.30417,91.10833,0.09172,89.00008,-0.67308,0.51196,0.44973,0.38840
1.19900,WithTCP_Aligned_Down,48.48714,-1.30405,91.11697,0.09232,88.99268,-0.67974,0.51196,0.44974,0.38831
1.20000,WithTCP_Aligned_Down,48.48549,-1.30393,91.12562,0.09291,88.98543,-0.68640,0.51197,0.44974,0.38822
1.20100,WithTCP_Aligned_Down,48.48383,-1.30382,91.13450,0.09350,88.97803,-0.69306,0.51197,0.44974,0.38813
1.20200,WithTCP_Aligned_Down,48.48217,-1.30370,91.14326,0.09409,88.97077,-0.69972,0.51198,0.44975,0.38803
1.20300,WithTCP_Aligned_Down,48.48051,-1.30358,91.15215,0.09483,88.96337,-0.70653,0.51198,0.44975,0.38794
1.20400,WithTCP_Aligned_Down,48.47874,-1.30334,91.16114,0.09542,88.95612,-0.71334,0.51198,0.44975,0.38785
1.20500,WithTCP_Aligned_Down,48.47708,-1.30322,91.17003,0.09616,88.94887,-0.72030,0.51199,0.44976,0.38775
1.20600,WithTCP_Aligned_Down,48.47530,-1.30298,91.17891,0.09676,88.94161,-0.72725,0.51199,0.44976,0.38766
1.20700,WithTCP_Aligned_Down,48.47353,-1.30287,91.18779,0.09750,88.93436,-0.73421,0.51200,0.44976,0.38757
1.20800,WithTCP_Aligned_Down,48.47175,-1.30275,91.19667,0.09824,88.92711,-0.74117,0.51200,0.44977,0.38747
1.20900,WithTCP_Aligned_Down,48.47009,-1.30251,91.20579,0.09883,88.91985,-0.74842,0.51200,0.44977,0.38738
1.21000,WithTCP_Aligned_Down,48.46832,-1.30239,91.21467,0.09957,88.91260,-0.75538,0.51201,0.44977,0.38728
1.21100,WithTCP_Aligned_Down,48.46654,-1.30227,91.22367,0.10016,88.90535,-0.76263,0.51201,0.44978,0.38719
1.21200,WithTCP_Aligned_Down,48.46465,-1.30215,91.23255,0.10075,88.89809,-0.76989,0.51202,0.44978,0.38709
1.21300,WithTCP_Aligned_Down,48.46097,-1.30168,91.25066,0.10208,88.88343,-0.78484,0.51202,0.44979,0.38700
1.21400,WithTCP_Aligned_Down,48.45908,-1.30156,91.25967,0.10282,88.87604,-0.79239,0.51202,0.44979,0.38690
1.21500,WithTCP_Aligned_Down,48.45730,-1.30132,91.26867,0.10342,88.86848,-0.79979,0.51203,0.44979,0.38680
1.21600,WithTCP_Aligned_Down,48.45541,-1.30120,91.27791,0.10416,88.86079,-0.80748,0.51203,0.44980,0.38671
1.21700,WithTCP_Aligned_Down,48.45363,-1.30108,91.28667,0.10475,88.85339,-0.81489,0.51204,0.44980,0.38661
1.21800,WithTCP_Aligned_Down,48.45280,-1.30108,91.29425,0.10519,88.84673,-0.82169,0.51204,0.44980,0.38651
1.21900,WithTCP_Aligned_Down,48.45280,-1.30120,91.30076,0.10564,88.84110,-0.82762,0.51204,0.44981,0.38641
1.22000,WithTCP_Aligned_Down,48.45197,-1.30108,91.30763,0.10608,88.83518,-0.83369,0.51205,0.44981,0.38632
1.22100,WithTCP_Aligned_Down,48.44984,-1.30084,91.31509,0.10652,88.82882,-0.84020,0.51205,0.44981,0.38622
1.22200,WithTCP_Aligned_Down,48.44688,-1.30049,91.32326,0.10697,88.82215,-0.84686,0.51206,0.44982,0.38612
1.22300,WithTCP_Aligned_Down,48.44439,-1.30013,91.33179,0.10756,88.81519,-0.85382,0.51206,0.44982,0.38602
1.22400,WithTCP_Aligned_Down,48.44238,-1.29990,91.34067,0.10815,88.80824,-0.86092,0.51207,0.44983,0.38592
1.22500,WithTCP_Aligned_Down,48.44061,-1.29966,91.34991,0.10860,88.80099,-0.86847,0.51207,0.44983,0.38582
1.22600,WithTCP_Aligned_Down,48.43883,-1.29954,91.35926,0.10919,88.79343,-0.87602,0.51207,0.44983,0.38572
1.22700,WithTCP_Aligned_Down,48.43694,-1.29930,91.36897,0.10963,88.78574,-0.88387,0.51208,0.44984,0.38562
1.22800,WithTCP_Aligned_Down,48.43468,-1.29906,91.37868,0.11008,88.77804,-0.89201,0.51208,0.44984,0.38552
1.22900,WithTCP_Aligned_Down,48.43468,-1.29906,91.37868,0.11008,88.77804,-0.89201,0.51209,0.44984,0.38542
1.23000,WithTCP_Aligned_Down,48.43255,-1.29883,91.38875,0.11067,88.77035,-0.90030,0.51209,0.44985,0.38532
1.23100,WithTCP_Aligned_Down,48.43030,-1.29859,91.39870,0.11126,88.76250,-0.90873,0.51210,0.44985,0.38522
1.23200,WithTCP_Aligned_Down,48.42829,-1.29823,91.40864,0.11185,88.75465,-0.91717,0.51210,0.44986,0.38512
1.23300,WithTCP_Aligned_Down,48.42414,-1.29788,91.42830,0.11319,88.73852,-0.93449,0.51211,0.44986,0.38501
1.23400,WithTCP_Aligned_Down,48.42225,-1.29764,91.43789,0.11393,88.73023,-0.94322,0.51211,0.44986,0.38491
1.23500,WithTCP_Aligned_Down,48.42024,-1.29740,91.44749,0.11467,88.72194,-0.95196,0.51211,0.44987,0.38481
1.23600,WithTCP_Aligned_Down,48.41811,-1.29705,91.45708,0.11541,88.71365,-0.96069,0.51212,0.44987,0.38471
1.23700,WithTCP_Aligned_Down,48.41586,-1.29681,91.46667,0.11615,88.70536,-0.96957,0.51212,0.44988,0.38460
1.23800,WithTCP_Aligned_Down,48.41360,-1.29645,91.47626,0.11689,88.69707,-0.97860,0.51213,0.44988,0.38450
1.23900,WithTCP_Aligned_Down,48.41147,-1.29622,91.48597,0.11748,88.68878,-0.98778,0.51213,0.44988,0.38440
1.24000,WithTCP_Aligned_Down,48.40934,-1.29598,91.49568,0.11822,88.68064,-0.99696,0.51214,0.44989,0.38429
1.24100,WithTCP_Aligned_Down,48.40709,-1.29574,91.50527,0.11896,88.67235,-1.00614,0.51214,0.44989,0.38419
1.24200,WithTCP_Aligned_Down,48.40484,-1.29538,91.51486,0.11970,88.66421,-1.01576,0.51215,0.44990,0.38408
1.24300,WithTCP_Aligned_Down,48.40259,-1.29503,91.52434,0.12044,88.65591,-1.02508,0.51215,0.44990,0.38398
1.24400,WithTCP_Aligned_Down,48.40034,-1.29467,91.53381,0.12133,88.64793,-1.03456,0.51216,0.44990,0.38387
1.24500,WithTCP_Aligned_Down,48.39821,-1.29444,91.54328,0.12207,88.63963,-1.04403,0.51216,0.44991,0.38377
1.24600,WithTCP_Aligned_Down,48.39596,-1.29408,91.55288,0.12310,88.63149,-1.05350,0.51217,0.44991,0.38366
1.24700,WithTCP_Aligned_Down,48.39371,-1.29384,91.56258,0.12399,88.62321,-1.06298,0.51217,0.44992,0.38356
1.24800,WithTCP_Aligned_Down,48.39134,-1.29349,91.57230,0.12488,88.61491,-1.07245,0.51218,0.44992,0.38345
1.24900,WithTCP_Aligned_Down,48.39134,-1.29349,91.57230,0.12488,88.61491,-1.07245,0.51218,0.44992,0.38334
1.25000,WithTCP_Aligned_Down,48.38909,-1.29325,91.58201,0.12577,88.60633,-1.08193,0.51219,0.44993,0.38324
1.25100,WithTCP_Aligned_Down,48.38672,-1.29289,91.59184,0.12665,88.59789,-1.09155,0.51219,0.44993,0.38313
1.25200,WithTCP_Aligned_Down,48.38435,-1.29265,91.60155,0.12754,88.58960,-1.10117,0.51220,0.44994,0.38302
1.25300,WithTCP_Aligned_Down,48.38199,-1.29230,91.61126,0.12828,88.58116,-1.11094,0.51220,0.44994,0.38291
1.25400,WithTCP_Aligned_Down,48.37962,-1.29206,91.62109,0.12917,88.57288,-1.12071,0.51221,0.44994,0.38281
1.25500,WithTCP_Aligned_Down,48.37725,-1.29171,91.63091,0.12991,88.56458,-1.13063,0.51221,0.44995,0.38270
1.25600,WithTCP_Aligned_Down,48.37488,-1.29147,91.64074,0.13080,88.55630,-1.14040,0.51222,0.44995,0.38259
1.25700,WithTCP_Aligned_Down,48.37251,-1.29111,91.65057,0.13154,88.54800,-1.15031,0.51222,0.44996,0.38248
1.25800,WithTCP_Aligned_Down,48.37014,-1.29087,91.66052,0.13243,88.53986,-1.16038,0.51223,0.44996,0.38237
1.25900,WithTCP_Aligned_Down,48.36529,-1.29028,91.68077,0.13406,88.52343,-1.18036,0.51223,0.44996,0.38226
1.26000,WithTCP_Aligned_Down,48.36292,-1.28992,91.69096,0.13494,88.51514,-1.19058,0.51224,0.44997,0.38215
1.26100,WithTCP_Aligned_Down,48.36055,-1.28969,91.70126,0.13583,88.50700,-1.20064,0.51224,0.44997,0.38204
1.26200,WithTCP_Aligned_Down,48.35807,-1.28933,91.71168,0.13672,88.49857,-1.21086,0.51225,0.44998,0.38193
1.26300,WithTCP_Aligned_Down,48.35570,-1.28909,91.72210,0.13746,88.48983,-1.22122,0.51225,0.44998,0.38182
1.26400,WithTCP_Aligned_Down,48.35321,-1.28874,91.73264,0.13835,88.48139,-1.23143,0.51226,0.44998,0.38171
1.26500,WithTCP_Aligned_Down,48.35072,-1.28838,91.74306,0.13909,88.47295,-1.24179,0.51226,0.44999,0.38160
1.26600,WithTCP_Aligned_Down,48.34835,-1.28814,91.75348,0.13998,88.46437,-1.25230,0.51227,0.44999,0.38149
1.26700,WithTCP_Aligned_Down,48.34575,-1.28779,91.76378,0.14072,88.45593,-1.26281,0.51227,0.45000,0.38138
1.26800,WithTCP_Aligned_Down,48.34326,-1.28743,91.77432,0.14161,88.44720,-1.27332,0.51228,0.45000,0.38127
1.26900,WithTCP_Aligned_Down,48.34077,-1.28719,91.78474,0.14235,88.43891,-1.28413,0.51228,0.45001,0.38116
1.27000,WithTCP_Aligned_Down,48.33829,-1.28684,91.79528,0.14323,88.43047,-1.29479,0.51229,0.45001,0.38105
1.27100,WithTCP_Aligned_Down,48.33580,-1.28648,91.80582,0.14412,88.42188,-1.30559,0.51229,0.45001,0.38093
1.27200,WithTCP_Aligned_Down,48.33580,-1.28648,91.80582,0.14412,88.42188,-1.30559,0.51230,0.45002,0.38082
1.27300,WithTCP_Aligned_Down,48.33320,-1.28613,91.81636,0.14501,88.41360,-1.31640,0.51231,0.45002,0.38071
1.27400,WithTCP_Aligned_Down,48.33059,-1.28577,91.82677,0.14590,88.40501,-1.32735,0.51231,0.45003,0.38060
1.27500,WithTCP_Aligned_Down,48.32799,-1.28541,91.83720,0.14679,88.39657,-1.33831,0.51232,0.45003,0.38048
1.27600,WithTCP_Aligned_Down,48.32550,-1.28506,91.84750,0.14782,88.38799,-1.34926,0.51232,0.45004,0.38037
1.27700,WithTCP_Aligned_Down,48.32290,-1.28470,91.85780,0.14871,88.37940,-1.36021,0.51233,0.45004,0.38026
1.27800,WithTCP_Aligned_Down,48.32029,-1.28435,91.86823,0.14975,88.37081,-1.37132,0.51233,0.45004,0.38014
1.27900,WithTCP_Aligned_Down,48.31757,-1.28399,91.87865,0.15063,88.36223,-1.38242,0.51234,0.45005,0.38003
1.28000,WithTCP_Aligned_Down,48.31496,-1.28363,91.88907,0.15152,88.35379,-1.39367,0.51234,0.45005,0.37991
1.28100,WithTCP_Aligned_Down,48.31224,-1.28316,91.89960,0.15256,88.34535,-1.40521,0.51235,0.45006,0.37980
1.28200,WithTCP_Aligned_Down,48.30951,-1.28280,91.91014,0.15345,88.33691,-1.41661,0.51236,0.45006,0.37968
1.28300,WithTCP_Aligned_Down,48.30418,-1.28197,91.93098,0.15537,88.31960,-1.43970,0.51236,0.45007,0.37957
1.28400,WithTCP_Aligned_Down,48.30146,-1.28150,91.94153,0.15626,88.31071,-1.45125,0.51237,0.45007,0.37945
1.28500,WithTCP_Aligned_Down,48.29862,-1.28114,91.95194,0.15715,88.30228,-1.46280,0.51237,0.45007,0.37934
1.28600,WithTCP_Aligned_Down,48.29578,-1.28067,91.96260,0.15818,88.29384,-1.47449,0.51238,0.45008,0.37922
1.28700,WithTCP_Aligned_Down,48.29305,-1.28019,91.97326,0.15907,88.28526,-1.48618,0.51238,0.45008,0.37910
1.28800,WithTCP_Aligned_Down,48.29021,-1.27972,91.98404,0.15996,88.27696,-1.49788,0.51239,0.45009,0.37899
1.28900,WithTCP_Aligned_Down,48.28737,-1.27924,91.99470,0.16100,88.26868,-1.50972,0.51240,0.45009,0.37887
1.29000,WithTCP_Aligned_Down,48.28453,-1.27889,92.00547,0.16188,88.26054,-1.52186,0.51240,0.45010,0.37875
