GriTRini/uon_rt/demo/api/tcp_test/tcp_sequence_test_log.csv
Time,Step,J1,J2,J3,J4,J5,J6,TCP_X,TCP_Y,TCP_Z
0.00000,Pose_Setup,37.93097,26.65787,89.96828,-26.10654,90.05040,-150.28340,0.58660,0.43340,0.35898
0.00100,Pose_Setup,37.93097,26.65787,89.96828,-26.10654,90.05040,-150.28340,0.58660,0.43340,0.35899
0.00200,Pose_Setup,37.93097,26.65787,89.96828,-26.10654,90.05040,-150.28340,0.58660,0.43340,0.35899
0.00300,Pose_Setup,37.93097,26.65787,89.96828,-26.10654,90.05040,-150.28340,0.58660,0.43339,0.35899
0.00400,Pose_Setup,37.93097,26.65787,89.96827,-26.10654,90.05040,-150.28340,0.58660,0.43339,0.35899
0.00500,Pose_Setup,37.93097,26.65787,89.96828,-26.10654,90.05040,-150.28340,0.58660,0.43338,0.35900
0.00600,Pose_Setup,37.93097,26.65787,89.96828,-26.10654,90.05040,-150.28340,0.58660,0.43338,0.35901
0.00700,Pose_Setup,37.93097,26.65787,89.96828,-26.10654,90.05040,-150.28340,0.58661,0.43337,0.35902
0.00800,Pose_Setup,37.93097,26.65787,89.96828,-26.10654,90.05040,-150.28340,0.58661,0.43336,0.35903
0.00900,Pose_Setup,37.93097,26.65787,89.96828,-26.10654,90.05040,-150.28340,0.58661,0.43335,0.35904
0.01000,Pose_Setup,37.93097,26.65775,89.96828,-26.10639,90.05040,-150.28340,0.58661,0.43334,0.35905
0.01100,Pose_Setup,37.93074,26.65763,89.96828,-26.10639,90.05040,-150.28340,0.58661,0.43333,0.35906
0.01200,Pose_Setup,37.93050,26.65739,89.96828,-26.10624,90.05040,-150.28325,0.58662,0.43331,0.35908
0.01300,Pose_Setup,37.93015,26.65703,89.96828,-26.10625,90.05040,-150.28325,0.58662,0.43330,0.35910
0.01400,Pose_Setup,37.93015,26.65703,89.96828,-26.10625,90.05040,-150.28325,0.58662,0.43328,0.35911
0.01500,Pose_Setup,37.92967,26.65656,89.96828,-26.10610,90.05040,-150.28325,0.58662,0.43326,0.35913
0.01600,Pose_Setup,37.92920,26.65608,89.96828,-26.10610,90.05040,-150.28310,0.58663,0.43324,0.35915
0.01700,Pose_Setup,37.92860,26.65549,89.96828,-26.10595,90.05040,-150.28296,0.58663,0.43322,0.35918
0.01800,Pose_Setup,37.92789,26.65490,89.96828,-26.10580,90.05040,-150.28265,0.58664,0.43320,0.35920
0.01900,Pose_Setup,37.92612,26.65323,89.96828,-26.10506,90.05040,-150.28207,0.58664,0.43318,0.35922
0.02000,Pose_Setup,37.92505,26.65228,89.96829,-26.10462,90.05040,-150.28148,0.58664,0.43316,0.35925
0.02100,Pose_Setup,37.92387,26.65133,89.96829,-26.10388,90.05040,-150.28088,0.58665,0.43313,0.35928
0.02200,Pose_Setup,37.92257,26.65014,89.96829,-26.10285,90.05040,-150.28014,0.58665,0.43310,0.35930
0.02300,Pose_Setup,37.92115,26.64884,89.96829,-26.10167,90.05040,-150.27896,0.58666,0.43308,0.35933
0.02400,Pose_Setup,37.91961,26.64753,89.96830,-26.10019,90.05040,-150.27763,0.58666,0.43305,0.35937
0.02500,Pose_Setup,37.91795,26.64599,89.96842,-26.09841,90.05040,-150.27600,0.58667,0.43302,0.35940
0.02600,Pose_Setup,37.91617,26.64445,89.96842,-26.09634,90.05040,-150.27408,0.58668,0.43299,0.35943
0.02700,Pose_Setup,37.91428,26.64267,89.96842,-26.09383,90.05040,-150.27185,0.58668,0.43296,0.35947
0.02800,Pose_Setup,37.91226,26.64089,89.96843,-26.09101,90.05040,-150.26904,0.58669,0.43292,0.35950
0.02900,Pose_Setup,37.91013,26.63899,89.96843,-26.08791,90.05040,-150.26593,0.58669,0.43289,0.35954
0.03000,Pose_Setup,37.90788,26.63697,89.96843,-26.08436,90.05040,-150.26253,0.58670,0.43285,0.35958
0.03100,Pose_Setup,37.90551,26.63483,89.96856,-26.08051,90.05040,-150.25868,0.58671,0.43281,0.35962
0.03200,Pose_Setup,37.90551,26.63483,89.96856,-26.08051,90.05040,-150.25868,0.58672,0.43278,0.35966
0.03300,Pose_Setup,37.90303,26.63258,89.96856,-26.07622,90.05040,-150.25453,0.58672,0.43274,0.35971
0.03400,Pose_Setup,37.90030,26.63021,89.96857,-26.07163,90.05040,-150.24980,0.58673,0.43270,0.35975
0.03500,Pose_Setup,37.89758,26.62783,89.96868,-26.06660,90.05040,-150.24477,0.58674,0.43265,0.35980
0.03600,Pose_Setup,37.89474,26.62534,89.96869,-26.06128,90.05040,-150.23944,0.58675,0.43261,0.35985
0.03700,Pose_Setup,37.89178,26.62273,89.96881,-26.05565,90.05040,-150.23366,0.58675,0.43257,0.35990
0.03800,Pose_Setup,37.88870,26.61988,89.96881,-26.04959,90.05040,-150.22745,0.58676,0.43252,0.35995
0.03900,Pose_Setup,37.88218,26.61419,89.96906,-26.03656,90.05040,-150.21368,0.58677,0.43247,0.36000
0.04000,Pose_Setup,37.88218,26.61419,89.96906,-26.03656,90.05040,-150.21368,0.58678,0.43243,0.36005
0.04100,Pose_Setup,37.87555,26.60790,89.96942,-26.02236,90.05040,-150.19873,0.58679,0.43238,0.36010
0.04200,Pose_Setup,37.87188,26.60458,89.96954,-26.01496,90.05040,-150.19073,0.58680,0.43233,0.36016
0.04300,Pose_Setup,37.86821,26.60125,89.96978,-26.00712,90.05040,-150.18259,0.58681,0.43227,0.36022
0.04400,Pose_Setup,37.86430,26.59769,89.97002,-25.99927,90.05040,-150.17401,0.58682,0.43222,0.36027
0.04500,Pose_Setup,37.86028,26.59402,89.97038,-25.99113,90.05041,-150.16542,0.58683,0.43217,0.36033
0.04600,Pose_Setup,37.85637,26.59010,89.97063,-25.98270,90.05041,-150.15639,0.58684,0.43211,0.36039
0.04700,Pose_Setup,37.85210,26.58607,89.97099,-25.97397,90.05041,-150.14706,0.58685,0.43206,0.36046
0.04800,Pose_Setup,37.84784,26.58203,89.97123,-25.96509,90.05041,-150.13759,0.58686,0.43200,0.36052
0.04900,Pose_Setup,37.84334,26.57776,89.97159,-25.95606,90.05041,-150.12767,0.58687,0.43194,0.36058
0.05000,Pose_Setup,37.83884,26.57337,89.97183,-25.94645,90.05041,-150.11761,0.58688,0.43188,0.36065
0.05100,Pose_Setup,37.83422,26.56887,89.97219,-25.93683,90.05041,-150.10710,0.58689,0.43182,0.36072
0.05200,Pose_Setup,37.82949,26.56412,89.97243,-25.92706,90.05041,-150.09615,0.58690,0.43175,0.36079
0.05300,Pose_Setup,37.82439,26.55914,89.97279,-25.91670,90.05041,-150.08504,0.58692,0.43169,0.36086
0.05400,Pose_Setup,37.81942,26.55428,89.97304,-25.90634,90.05041,-150.07350,0.58693,0.43163,0.36093
0.05500,Pose_Setup,37.81421,26.54941,89.97328,-25.89569,90.05041,-150.06180,0.58694,0.43156,0.36100
0.05600,Pose_Setup,37.80900,26.54443,89.97353,-25.88474,90.05041,-150.04982,0.58695,0.43149,0.36108
0.05700,Pose_Setup,37.80343,26.53909,89.97376,-25.87349,90.05041,-150.03738,0.58697,0.43142,0.36115
0.05800,Pose_Setup,37.79787,26.53340,89.97401,-25.86225,90.05041,-150.02480,0.58698,0.43135,0.36123
0.05900,Pose_Setup,37.79206,26.52794,89.97425,-25.85056,90.05041,-150.01207,0.58699,0.43128,0.36131
0.06000,Pose_Setup,37.79206,26.52794,89.97425,-25.85056,90.05041,-150.01207,0.58700,0.43121,0.36139
0.06100,Pose_Setup,37.78626,26.52237,89.97449,-25.83887,90.05041,-149.99904,0.58702,0.43114,0.36147
0.06200,Pose_Setup,37.78022,26.51679,89.97474,-25.82673,90.05041,-149.98587,0.58703,0.43106,0.36155
0.06300,Pose_Setup,37.77419,26.51110,89.97498,-25.81445,90.05041,-149.97240,0.58705,0.43099,0.36163
0.06400,Pose_Setup,37.76779,26.50529,89.97523,-25.80202,90.05041,-149.95863,0.58706,0.43091,0.36172
0.06500,Pose_Setup,37.76139,26.49924,89.97535,-25.78929,90.05041,-149.94441,0.58707,0.43083,0.36180
0.06600,Pose_Setup,37.75476,26.49294,89.97560,-25.77628,90.05042,-149.93021,0.58709,0.43075,0.36189
0.06700,Pose_Setup,37.74138,26.47979,89.97597,-25.74949,90.05042,-149.90060,0.58710,0.43067,0.36198
0.06800,Pose_Setup,37.73451,26.47290,89.97620,-25.73572,90.05042,-149.88550,0.58712,0.43059,0.36207
0.06900,Pose_Setup,37.72741,26.46591,89.97633,-25.72196,90.05042,-149.87041,0.58713,0.43051,0.36216
0.07000,Pose_Setup,37.72030,26.45867,89.97646,-25.70805,90.05042,-149.85501,0.58715,0.43042,0.36226
0.07100,Pose_Setup,37.71284,26.45132,89.97670,-25.69385,90.05042,-149.83932,0.58716,0.43034,0.36235
0.07200,Pose_Setup,37.70527,26.44373,89.97671,-25.67920,90.05042,-149.82318,0.58718,0.43025,0.36245
0.07300,Pose_Setup,37.69769,26.43614,89.97684,-25.66440,90.05042,-149.80690,0.58719,0.43016,0.36254
0.07400,Pose_Setup,37.69011,26.42855,89.97696,-25.64901,90.05042,-149.79033,0.58721,0.43007,0.36264
0.07500,Pose_Setup,37.68229,26.42084,89.97697,-25.63362,90.05042,-149.77359,0.58723,0.42998,0.36274
0.07600,Pose_Setup,37.67435,26.41301,89.97710,-25.61808,90.05042,-149.75658,0.58724,0.42989,0.36284
0.07700,Pose_Setup,37.66618,26.40495,89.97710,-25.60225,90.05042,-149.73911,0.58726,0.42980,0.36294
0.07800,Pose_Setup,37.65789,26.39676,89.97723,-25.58641,90.05042,-149.72150,0.58728,0.42970,0.36305
0.07900,Pose_Setup,37.64960,26.38834,89.97724,-25.57028,90.05042,-149.70343,0.58729,0.42961,0.36315
0.08000,Pose_Setup,37.64120,26.37980,89.97725,-25.55386,90.05027,-149.68494,0.58731,0.42951,0.36326
0.08100,Pose_Setup,37.63255,26.37101,89.97726,-25.53699,90.05027,-149.66643,0.58733,0.42941,0.36337
0.08200,Pose_Setup,37.62391,26.36225,89.97726,-25.51997,90.05027,-149.64748,0.58735,0.42931,0.36348
0.08300,Pose_Setup,37.61515,26.35324,89.97716,-25.50266,90.05027,-149.62823,0.58737,0.42921,0.36359
0.08400,Pose_Setup,37.60626,26.34411,89.97717,-25.48534,90.05027,-149.60869,0.58738,0.42911,0.36370
0.08500,Pose_Setup,37.59715,26.33486,89.97717,-25.46788,90.05027,-149.58900,0.58740,0.42901,0.36381
0.08600,Pose_Setup,37.58791,26.32561,89.97718,-25.44997,90.05027,-149.56917,0.58742,0.42890,0.36393
0.08700,Pose_Setup,37.57843,26.31612,89.97720,-25.43177,90.05028,-149.54889,0.58745,0.42879,0.36405
0.08800,Pose_Setup,37.57843,26.31612,89.97720,-25.43177,90.05028,-149.54889,0.58747,0.42868,0.36416
0.08900,Pose_Setup,37.56896,26.30675,89.97720,-25.41342,90.05028,-149.52832,0.58749,0.42857,0.36428
0.09000,Pose_Setup,37.55937,26.29714,89.97710,-25.39492,90.05028,-149.50745,0.58751,0.42846,0.36441
0.09100,Pose_Setup,37.54990,26.28753,89.97710,-25.37613,90.05028,-149.48642,0.58753,0.42835,0.36453
0.09200,Pose_Setup,37.54030,26.27781,89.97711,-25.35719,90.05028,-149.46510,0.58756,0.42824,0.36465
0.09300,Pose_Setup,37.53047,26.26785,89.97712,-25.33825,90.05028,-149.44365,0.58758,0.42812,0.36478
0.09400,Pose_Setup,37.52053,26.25775,89.97702,-25.31946,90.05028,-149.42189,0.58760,0.42800,0.36491
0.09500,Pose_Setup,37.50004,26.23666,89.97704,-25.28172,90.05028,-149.37762,0.58763,0.42788,0.36504
0.09600,Pose_Setup,37.48962,26.22599,89.97693,-25.26292,90.05028,-149.35527,0.58765,0.42776,0.36517
0.09700,Pose_Setup,37.47908,26.21519,89.97694,-25.24398,90.05028,-149.33263,0.58768,0.42764,0.36530
0.09800,Pose_Setup,37.46830,26.20440,89.97683,-25.22489,90.05028,-149.30968,0.58771,0.42752,0.36543
0.09900,Pose_Setup,37.45741,26.19325,89.97684,-25.20595,90.05029,-149.28630,0.58773,0.42739,0.36557
0.10000,Pose_Setup,37.44616,26.18175,89.97673,-25.18715,90.05029,-149.26231,0.58776,0.42727,0.36571
0.10100,Pose_Setup,37.43503,26.17036,89.97662,-25.16836,90.05029,-149.23833,0.58779,0.42714,0.36584
0.10200,Pose_Setup,37.42402,26.15933,89.97663,-25.14972,90.05029,-149.21391,0.58782,0.42701,0.36598
0.10300,Pose_Setup,37.41300,26.14807,89.97652,-25.13122,90.05029,-149.18948,0.58785,0.42688,0.36613
0.10400,Pose_Setup,37.40163,26.13668,89.97653,-25.11287,90.05029,-149.16461,0.58788,0.42675,0.36627
0.10500,Pose_Setup,37.39014,26.12494,89.97643,-25.09467,90.05029,-149.13960,0.58790,0.42661,0.36641
0.10600,Pose_Setup,37.37842,26.11320,89.97644,-25.07632,90.05029,-149.11458,0.58793,0.42648,0.36656
0.10700,Pose_Setup,37.36658,26.10121,89.97646,-25.05783,90.05029,-149.08897,0.58797,0.42634,0.36671
0.10800,Pose_Setup,37.35462,26.08936,89.97634,-25.03947,90.05029,-149.06337,0.58800,0.42620,0.36685
0.10900,Pose_Setup,37.34266,26.07727,89.97636,-25.02083,90.05029,-149.03761,0.58803,0.42606,0.36701
0.11000,Pose_Setup,37.33070,26.06517,89.97636,-25.00233,90.05029,-149.01155,0.58806,0.42592,0.36716
0.11100,Pose_Setup,37.33070,26.06517,89.97636,-25.00233,90.05029,-149.01155,0.58809,0.42578,0.36731
0.11200,Pose_Setup,37.31850,26.05270,89.97639,-24.98384,90.05029,-148.98506,0.58813,0.42563,0.36747
0.11300,Pose_Setup,37.30606,26.04015,89.97639,-24.96548,90.05029,-148.95842,0.58816,0.42549,0.36762
0.11400,Pose_Setup,37.29340,26.02746,89.97640,-24.94713,90.05029,-148.93147,0.58819,0.42534,0.36778
0.11500,Pose_Setup,37.28061,26.01451,89.97643,-24.92864,90.05029,-148.90395,0.58823,0.42519,0.36794
0.11600,Pose_Setup,37.26781,26.00196,89.97643,-24.91028,90.05029,-148.87640,0.58826,0.42504,0.36810
0.11700,Pose_Setup,37.25515,25.98915,89.97644,-24.89223,90.05029,-148.84872,0.58830,0.42489,0.36826
0.11800,Pose_Setup,37.24224,25.97622,89.97645,-24.87403,90.05029,-148.82060,0.58833,0.42473,0.36843
0.11900,Pose_Setup,37.22909,25.96282,89.97646,-24.85568,90.05029,-148.79189,0.58837,0.42458,0.36859
0.12000,Pose_Setup,37.21606,25.94952,89.97660,-24.83748,90.05030,-148.76332,0.58841,0.42442,0.36876
0.12100,Pose_Setup,37.20280,25.93588,89.97662,-24.81914,90.05030,-148.73445,0.58845,0.42426,0.36893
0.12200,Pose_Setup,37.18930,25.92214,89.97662,-24.80093,90.05030,-148.70529,0.58848,0.42410,0.36910
0.12300,Pose_Setup,37.16230,25.89487,89.97664,-24.76452,90.05030,-148.64622,0.58852,0.42394,0.36927
0.12400,Pose_Setup,37.14869,25.88135,89.97665,-24.74632,90.05030,-148.61647,0.58856,0.42378,0.36944
0.12500,Pose_Setup,37.13471,25.86735,89.97666,-24.72812,90.05030,-148.58614,0.58860,0.42362,0.36962
0.12600,Pose_Setup,37.12050,25.85277,89.97679,-24.70977,90.05030,-148.55563,0.58864,0.42345,0.36979
0.12700,Pose_Setup,37.10629,25.83818,89.97681,-24.69157,90.05030,-148.52499,0.58868,0.42328,0.36997
0.12800,Pose_Setup,37.09232,25.82383,89.97682,-24.67352,90.05031,-148.49391,0.58872,0.42311,0.37015
0.12900,Pose_Setup,37.07822,25.80972,89.97683,-24.65547,90.05031,-148.46268,0.58876,0.42294,0.37033
0.13000,Pose_Setup,37.06390,25.79536,89.97684,-24.63741,90.05031,-148.43144,0.58880,0.42277,0.37051
0.13100,Pose_Setup,37.04945,25.78090,89.97686,-24.61921,90.05031,-148.39977,0.58884,0.42260,0.37070
0.13200,Pose_Setup,37.03476,25.76583,89.97688,-24.60116,90.05031,-148.36794,0.58888,0.42242,0.37088
0.13300,Pose_Setup,37.01996,25.75065,89.97688,-24.58325,90.05031,-148.33597,0.58893,0.42225,0.37107
0.13400,Pose_Setup,37.00504,25.73559,89.97690,-24.56535,90.05031,-148.30370,0.58897,0.42207,0.37126
0.13500,Pose_Setup,36.99000,25.72029,89.97691,-24.54729,90.05031,-148.27113,0.58901,0.42189,0.37145
0.13600,Pose_Setup,36.97472,25.70511,89.97693,-24.52909,90.05031,-148.23842,0.58906,0.42171,0.37164
0.13700,Pose_Setup,36.95956,25.69003,89.97695,-24.51090,90.05032,-148.20540,0.58910,0.42153,0.37183
0.13800,Pose_Setup,36.94429,25.67451,89.97695,-24.49269,90.05032,-148.17195,0.58915,0.42134,0.37203
0.13900,Pose_Setup,36.92878,25.65886,89.97697,-24.47464,90.05032,-148.13835,0.58919,0.42116,0.37222
0.14000,Pose_Setup,36.92878,25.65886,89.97697,-24.47464,90.05032,-148.13835,0.58924,0.42097,0.37242
0.14100,Pose_Setup,36.91314,25.64320,89.97698,-24.45659,90.05032,-148.10460,0.58928,0.42078,0.37262
0.14200,Pose_Setup,36.89728,25.62719,89.97700,-24.43868,90.05032,-148.07040,0.58933,0.42059,0.37282
0.14300,Pose_Setup,36.88129,25.61106,89.97701,-24.42078,90.05032,-148.03606,0.58938,0.42040,0.37302
0.14400,Pose_Setup,36.86507,25.59491,89.97704,-24.40273,90.05032,-148.00128,0.58942,0.42021,0.37322
0.14500,Pose_Setup,36.84872,25.57854,89.97705,-24.38468,90.05032,-147.96605,0.58947,0.42001,0.37343
0.14600,Pose_Setup,36.83250,25.56218,89.97707,-24.36662,90.05032,-147.93082,0.58952,0.41982,0.37363
0.14700,Pose_Setup,36.81616,25.54595,89.97707,-24.34871,90.05032,-147.89543,0.58957,0.41962,0.37384
0.14800,Pose_Setup,36.79970,25.52924,89.97709,-24.33066,90.05032,-147.85962,0.58961,0.41942,0.37405
0.14900,Pose_Setup,36.78300,25.51251,89.97710,-24.31261,90.05032,-147.82379,0.58966,0.41922,0.37426
0.15000,Pose_Setup,36.76595,25.49553,89.97713,-24.29441,90.05032,-147.78738,0.58971,0.41902,0.37447
0.15100,Pose_Setup,36.74842,25.47821,89.97714,-24.27621,90.05032,-147.75067,0.58976,0.41881,0.37469
0.15200,Pose_Setup,36.73078,25.46068,89.97714,-24.25786,90.05032,-147.71367,0.58981,0.41861,0.37490
0.15300,Pose_Setup,36.71337,25.44325,89.97716,-24.23966,90.05033,-147.67621,0.58986,0.41840,0.37512
0.15400,Pose_Setup,36.67915,25.40898,89.97719,-24.20325,90.05033,-147.60130,0.58992,0.41819,0.37534
0.15500,Pose_Setup,36.66138,25.39142,89.97720,-24.18520,90.05033,-147.56342,0.58997,0.41798,0.37556
0.15600,Pose_Setup,36.64326,25.37328,89.97722,-24.16730,90.05033,-147.52507,0.59002,0.41777,0.37578
0.15700,Pose_Setup,36.62514,25.35513,89.97723,-24.14939,90.05033,-147.48674,0.59007,0.41756,0.37600
0.15800,Pose_Setup,36.60714,25.33711,89.97725,-24.13134,90.05033,-147.44795,0.59012,0.41734,0.37623
0.15900,Pose_Setup,36.58926,25.31908,89.97726,-24.11329,90.05034,-147.40932,0.59018,0.41713,0.37645
0.16000,Pose_Setup,36.57138,25.30117,89.97728,-24.09523,90.05034,-147.37009,0.59023,0.41691,0.37668
0.16100,Pose_Setup,36.55315,25.28314,89.97729,-24.07733,90.05034,-147.33087,0.59028,0.41669,0.37691
0.16200,Pose_Setup,36.53467,25.26488,89.97731,-24.05943,90.05034,-147.29164,0.59034,0.41647,0.37714
0.16300,Pose_Setup,36.51596,25.24611,89.97734,-24.04138,90.05034,-147.25212,0.59039,0.41625,0.37737
0.16400,Pose_Setup,36.49713,25.22717,89.97734,-24.02332,90.05034,-147.21245,0.59045,0.41602,0.37760
0.16500,Pose_Setup,36.47854,25.20819,89.97736,-24.00527,90.05034,-147.17262,0.59050,0.41580,0.37783
0.16600,Pose_Setup,36.47854,25.20819,89.97736,-24.00527,90.05034,-147.17262,0.59056,0.41557,0.37806
0.16700,Pose_Setup,36.44088,25.17036,89.97739,-23.96902,90.05035,-147.09210,0.59062,0.41535,0.37829
0.16800,Pose_Setup,36.44088,25.17036,89.97739,-23.96902,90.05035,-147.09210,0.59068,0.41512,0.37852
0.16900,Pose_Setup,36.42170,25.15115,89.97741,-23.95111,90.05035,-147.05124,0.59073,0.41489,0.37875
0.17000,Pose_Setup,36.40192,25.13143,89.97744,-23.93321,90.05035,-147.01024,0.59079,0.41466,0.37898
0.17100,Pose_Setup,36.38214,25.11163,89.97746,-23.91531,90.05035,-146.96924,0.59085,0.41443,0.37921
0.17200,Pose_Setup,36.36249,25.09209,89.97746,-23.89725,90.05035,-146.92780,0.59092,0.41419,0.37944
0.17300,Pose_Setup,36.34307,25.07288,89.97748,-23.87920,90.05035,-146.88620,0.59098,0.41396,0.37967
0.17400,Pose_Setup,36.32329,25.05115,89.97867,-23.86151,90.05044,-146.84401,0.59104,0.41372,0.37990
0.17500,Pose_Setup,36.30351,25.03160,89.97867,-23.84360,90.05044,-146.80182,0.59110,0.41348,0.38013
0.17600,Pose_Setup,36.28315,25.01402,89.97753,-23.82519,90.05035,-146.75934,0.59117,0.41325,0.38036
0.17700,Pose_Setup,36.26230,24.99387,89.97755,-23.80714,90.05035,-146.71642,0.59123,0.41301,0.38059
0.17800,Pose_Setup,36.24158,24.97406,89.97756,-23.78894,90.05035,-146.67334,0.59130,0.41277,0.38082
0.17900,Pose_Setup,36.19788,24.93259,89.97758,-23.75386,90.05035,-146.58319,0.59136,0.41252,0.38105
0.18000,Pose_Setup,36.19788,24.93259,89.97758,-23.75386,90.05035,-146.58319,0.59143,0.41228,0.38128
0.18100,Pose_Setup,36.14874,24.88682,89.97749,-23.72146,90.05021,-146.48222,0.59150,0.41203,0.38152
0.18200,Pose_Setup,36.12766,24.86701,89.97751,-23.70459,90.05022,-146.43146,0.59157,0.41179,0.38175
0.18300,Pose_Setup,36.10812,24.84875,89.97752,-23.68728,90.05022,-146.38171,0.59163,0.41154,0.38198
0.18400,Pose_Setup,36.08870,24.83060,89.97754,-23.66982,90.05022,-146.33258,0.59170,0.41129,0.38221
0.18500,Pose_Setup,36.06809,24.81151,89.97756,-23.65191,90.05022,-146.28432,0.59177,0.41104,0.38244
0.18600,Pose_Setup,36.04618,24.79158,89.97758,-23.63386,90.05022,-146.23651,0.59185,0.41079,0.38267
0.18700,Pose_Setup,36.02392,24.77142,89.97759,-23.61581,90.05022,-146.18900,0.59192,0.41054,0.38290
0.18800,Pose_Setup,36.00201,24.75126,89.97761,-23.59776,90.05022,-146.14221,0.59199,0.41029,0.38313
0.18900,Pose_Setup,35.98082,24.73134,89.97750,-23.57970,90.05022,-146.09529,0.59206,0.41003,0.38336
0.19000,Pose_Setup,35.95997,24.71174,89.97753,-23.56180,90.05022,-146.04866,0.59214,0.40977,0.38359
0.19100,Pose_Setup,35.93878,24.69244,89.97742,-23.54375,90.05022,-146.00189,0.59221,0.40952,0.38382
0.19200,Pose_Setup,35.91687,24.67299,89.97732,-23.52569,90.05022,-145.95511,0.59229,0.40926,0.38405
0.19300,Pose_Setup,35.91687,24.67299,89.97732,-23.52569,90.05022,-145.95511,0.59236,0.40900,0.38428
0.19400,Pose_Setup,35.89460,24.65331,89.97733,-23.50734,90.05022,-145.90804,0.59244,0.40874,0.38451
0.19500,Pose_Setup,35.87210,24.63326,89.97723,-23.48914,90.05022,-145.86096,0.59252,0.40847,0.38474
0.19600,Pose_Setup,35.84961,24.61299,89.97713,-23.47109,90.05022,-145.81389,0.59259,0.40821,0.38497
0.19700,Pose_Setup,35.82663,24.59292,89.97716,-23.45275,90.05023,-145.76637,0.59267,0.40795,0.38519
0.19800,Pose_Setup,35.80378,24.57276,89.97705,-23.43455,90.05023,-145.71857,0.59275,0.40768,0.38542
0.19900,Pose_Setup,35.78104,24.55283,89.97695,-23.41620,90.05009,-145.67061,0.59283,0.40741,0.38565
0.20000,Pose_Setup,35.75842,24.53306,89.97683,-23.39755,90.05009,-145.62263,0.59291,0.40714,0.38588
0.20100,Pose_Setup,35.73580,24.51337,89.97662,-23.37920,90.05009,-145.57410,0.59299,0.40687,0.38611
0.20200,Pose_Setup,35.71307,24.49366,89.97640,-23.36071,90.05024,-145.52554,0.59308,0.40660,0.38634
0.20300,Pose_Setup,35.68950,24.47373,89.97618,-23.34251,90.05024,-145.47668,0.59316,0.40633,0.38657
0.20400,Pose_Setup,35.66546,24.45345,89.97596,-23.32431,90.05009,-145.42740,0.59324,0.40605,0.38680
0.20500,Pose_Setup,35.61762,24.41281,89.97539,-23.28746,90.05009,-145.32748,0.59332,0.40578,0.38703
0.20600,Pose_Setup,35.59429,24.39301,89.97517,-23.26911,90.05009,-145.27730,0.59341,0.40550,0.38726
0.20700,Pose_Setup,35.57061,24.37332,89.97495,-23.25076,90.05009,-145.22697,0.59349,0.40522,0.38749
0.20800,Pose_Setup,35.54621,24.35340,89.97473,-23.23241,90.05009,-145.17575,0.59358,0.40494,0.38772
0.20900,Pose_Setup,35.52134,24.33300,89.97451,-23.21406,90.05009,-145.12424,0.59367,0.40466,0.38795
0.21000,Pose_Setup,35.49636,24.31260,89.97428,-23.19556,90.05009,-145.07243,0.59375,0.40438,0.38818
0.21100,Pose_Setup,35.47184,24.29244,89.97407,-23.17722,90.05009,-145.02077,0.59384,0.40410,0.38841
0.21200,Pose_Setup,35.44780,24.27287,89.97384,-23.15872,90.05010,-144.96851,0.59393,0.40382,0.38864
0.21300,Pose_Setup,35.42412,24.25342,89.97350,-23.14052,90.05010,-144.91655,0.59402,0.40353,0.38887
0.21400,Pose_Setup,35.40043,24.23397,89.97327,-23.12217,90.05010,-144.86459,0.59411,0.40324,0.38910
0.21500,Pose_Setup,35.37628,24.21437,89.97307,-23.10398,90.05010,-144.81279,0.59420,0.40295,0.38933
0.21600,Pose_Setup,35.35141,24.19460,89.97283,-23.08577,90.05010,-144.76068,0.59429,0.40267,0.38956
0.21700,Pose_Setup,35.35141,24.19460,89.97283,-23.08577,90.05010,-144.76068,0.59438,0.40237,0.38979
0.21800,Pose_Setup,35.32607,24.17480,89.97262,-23.06772,90.05010,-144.70828,0.59448,0.40208,0.39002
0.21900,Pose_Setup,35.27538,24.13483,89.97229,-23.03161,90.05011,-144.60289,0.59457,0.40179,0.39025
0.22000,Pose_Setup,35.27538,24.13483,89.97229,-23.03161,90.05011,-144.60289,0.59466,0.40150,0.39048
0.22100,Pose_Setup,35.25016,24.11511,89.97220,-23.01356,90.05011,-144.54990,0.59476,0.40120,0.39070
0.22200,Pose_Setup,35.22458,24.09542,89.97210,-22.99536,90.05011,-144.49631,0.59485,0.40090,0.39093
0.22300,Pose_Setup,35.19888,24.07574,89.97199,-22.97716,90.05011,-144.44243,0.59495,0.40060,0.39116
0.22400,Pose_Setup,35.17330,24.05605,89.97189,-22.95911,90.05011,-144.38811,0.59504,0.40030,0.39139
0.22500,Pose_Setup,35.14737,24.03648,89.97179,-22.94135,90.05012,-144.33377,0.59514,0.40000,0.39162
0.22600,Pose_Setup,35.12155,24.01683,89.97167,-22.92344,90.05012,-144.27901,0.59524,0.39970,0.39185
0.22700,Pose_Setup,35.09479,23.99702,89.97169,-22.90554,90.05012,-144.22379,0.59534,0.39940,0.39208
0.22800,Pose_Setup,35.06791,23.97707,89.97172,-22.88749,90.05012,-144.16814,0.59544,0.39909,0.39231
0.22900,Pose_Setup,35.04115,23.95703,89.97161,-22.86944,90.04997,-144.11203,0.59553,0.39879,0.39254
0.23000,Pose_Setup,35.01426,23.93699,89.97163,-22.85153,90.04997,-144.05519,0.59563,0.39848,0.39277
0.23100,Pose_Setup,34.96074,23.89773,89.97178,-22.81543,90.04997,-143.94106,0.59574,0.39817,0.39300
0.23200,Pose_Setup,34.93409,23.87852,89.97179,-22.79737,90.04997,-143.88377,0.59584,0.39786,0.39323
0.23300,Pose_Setup,34.90697,23.85933,89.97179,-22.77917,90.04997,-143.82619,0.59594,0.39755,0.39345
0.23400,Pose_Setup,34.87938,23.83965,89.97182,-22.76112,90.04998,-143.76802,0.59604,0.39724,0.39368
0.23500,Pose_Setup,34.85131,23.81969,89.97195,-22.74292,90.04998,-143.70955,0.59614,0.39692,0.39391
0.23600,Pose_Setup,34.82337,23.79977,89.97197,-22.72502,90.04998,-143.65048,0.59625,0.39661,0.39414
0.23700,Pose_Setup,34.79542,23.77996,89.97198,-22.70696,90.04998,-143.59128,0.59635,0.39629,0.39437
0.23800,Pose_Setup,34.76771,23.76028,89.97212,-22.68891,90.04998,-143.53162,0.59646,0.39597,0.39460
0.23900,Pose_Setup,34.74012,23.74097,89.97212,-22.67100,90.04998,-143.47166,0.59656,0.39566,0.39483
0.24000,Pose_Setup,34.71288,23.72165,89.97215,-22.65310,90.04998,-143.41171,0.59667,0.39533,0.39506
0.24100,Pose_Setup,34.68481,23.70228,89.97228,-22.63520,90.04999,-143.35147,0.59677,0.39501,0.39529
0.24200,Pose_Setup,34.65639,23.68271,89.97230,-22.61729,90.04984,-143.29108,0.59688,0.39469,0.39552
0.24300,Pose_Setup,34.62750,23.66291,89.97243,-22.59939,90.04984,-143.23039,0.59699,0.39437,0.39574
0.24400,Pose_Setup,34.59861,23.64334,89.97245,-22.58133,90.04984,-143.16910,0.59710,0.39404,0.39597
0.24500,Pose_Setup,34.59861,23.64334,89.97245,-22.58133,90.04984,-143.16910,0.59721,0.39371,0.39620
0.24600,Pose_Setup,34.57006,23.62413,89.97258,-22.56328,90.04984,-143.10812,0.59732,0.39339,0.39643
0.24700,Pose_Setup,34.54200,23.60491,89.97272,-22.54552,90.04984,-143.04683,0.59743,0.39306,0.39666
0.24800,Pose_Setup,34.51358,23.58570,89.97285,-22.52762,90.04984,-142.98540,0.59753,0.39273,0.39689
0.24900,Pose_Setup,34.48457,23.56613,89.97286,-22.50986,90.04984,-142.92352,0.59764,0.39240,0.39712
0.25000,Pose_Setup,34.45496,23.54645,89.97300,-22.49196,90.04985,-142.86136,0.59775,0.39208,0.39735
0.25100,Pose_Setup,34.42500,23.52676,89.97313,-22.47405,90.04985,-142.79889,0.59786,0.39175,0.39757
0.25200,Pose_Setup,34.39528,23.50731,89.97327,-22.45600,90.04985,-142.73613,0.59797,0.39142,0.39780
0.25300,Pose_Setup,34.36579,23.48774,89.97328,-22.43810,90.04985,-142.67337,0.59807,0.39109,0.39803
0.25400,Pose_Setup,34.33619,23.46841,89.97341,-22.42019,90.04971,-142.61002,0.59818,0.39077,0.39826
0.25500,Pose_Setup,34.30658,23.44896,89.97343,-22.40214,90.04971,-142.54620,0.59829,0.39044,0.39849
0.25600,Pose_Setup,34.27674,23.42942,89.97355,-22.38393,90.04971,-142.48285,0.59839,0.39011,0.39872
0.25700,Pose_Setup,34.24689,23.40973,89.97357,-22.36543,90.04971,-142.41891,0.59850,0.38978,0.39895
0.25800,Pose_Setup,34.21705,23.39001,89.97359,-22.34724,90.04971,-142.35497,0.59861,0.38946,0.39917
0.25900,Pose_Setup,34.15784,23.35123,89.97363,-22.31084,90.04971,-142.22574,0.59871,0.38913,0.39940
0.26000,Pose_Setup,34.15784,23.35123,89.97363,-22.31084,90.04971,-142.22574,0.59882,0.38880,0.39963
0.26100,Pose_Setup,34.09887,23.31245,89.97366,-22.27458,90.04957,-142.09607,0.59893,0.38847,0.39986
0.26200,Pose_Setup,34.06974,23.29336,89.97367,-22.25653,90.04957,-142.03152,0.59903,0.38814,0.40009
0.26300,Pose_Setup,34.04025,23.27414,89.97369,-22.23848,90.04957,-141.96669,0.59914,0.38782,0.40032
0.26400,Pose_Setup,34.01041,23.25481,89.97370,-22.22057,90.04957,-141.90097,0.59924,0.38749,0.40055
0.26500,Pose_Setup,33.98021,23.23524,89.97372,-22.20252,90.04957,-141.83524,0.59935,0.38716,0.40077
0.26600,Pose_Setup,33.95013,23.21579,89.97373,-22.18447,90.04957,-141.76952,0.59945,0.38683,0.40100
0.26700,Pose_Setup,33.92041,23.19634,89.97375,-22.16627,90.04942,-141.70276,0.59955,0.38650,0.40123
0.26800,Pose_Setup,33.89080,23.17665,89.97375,-22.14807,90.04942,-141.63629,0.59966,0.38618,0.40146
0.26900,Pose_Setup,33.86108,23.15712,89.97364,-22.13001,90.04942,-141.56923,0.59976,0.38585,0.40169
0.27000,Pose_Setup,33.83147,23.13755,89.97366,-22.11196,90.04942,-141.50203,0.59986,0.38552,0.40191
0.27100,Pose_Setup,33.80151,23.11783,89.97369,-22.09376,90.04943,-141.43423,0.59997,0.38519,0.40214
0.27200,Pose_Setup,33.80151,23.11783,89.97369,-22.09376,90.04943,-141.43423,0.60007,0.38486,0.40237
0.27300,Pose_Setup,33.74171,23.07917,89.97372,-22.05751,90.04929,-141.29776,0.60017,0.38453,0.40260
0.27400,Pose_Setup,33.74171,23.07917,89.97372,-22.05751,90.04929,-141.29776,0.60028,0.38421,0.40283
0.27500,Pose_Setup,33.71187,23.05972,89.97373,-22.03930,90.04929,-141.22922,0.60038,0.38388,0.40306
0.27600,Pose_Setup,33.68238,23.04050,89.97375,-22.02125,90.04929,-141.16039,0.60048,0.38355,0.40328
0.27700,Pose_Setup,33.65301,23.02117,89.97364,-22.00320,90.04929,-141.09155,0.60058,0.38322,0.40351
0.27800,Pose_Setup,33.62353,23.00184,89.97366,-21.98500,90.04929,-141.02257,0.60068,0.38289,0.40374
0.27900,Pose_Setup,33.59369,22.98239,89.97367,-21.96695,90.04914,-140.95345,0.60079,0.38256,0.40397
0.28000,Pose_Setup,33.56349,22.96270,89.97369,-21.94904,90.04914,-140.88373,0.60089,0.38223,0.40420
0.28100,Pose_Setup,33.53329,22.94313,89.97370,-21.93114,90.04914,-140.81386,0.60099,0.38191,0.40442
0.28200,Pose_Setup,33.50357,22.92344,89.97372,-21.91323,90.04914,-140.74384,0.60109,0.38158,0.40465
0.28300,Pose_Setup,33.47384,22.90364,89.97373,-21.89533,90.04915,-140.67308,0.60119,0.38125,0.40488
0.28400,Pose_Setup,33.44388,22.88419,89.97375,-21.87712,90.04900,-140.60217,0.60129,0.38092,0.40511
0.28500,Pose_Setup,33.41392,22.86474,89.97376,-21.85878,90.04900,-140.53113,0.60139,0.38059,0.40534
0.28600,Pose_Setup,33.35376,22.82560,89.97379,-21.82252,90.04900,-140.38783,0.60149,0.38026,0.40556
0.28700,Pose_Setup,33.32392,22.80591,89.97380,-21.80447,90.04900,-140.31619,0.60159,0.37993,0.40579
0.28800,Pose_Setup,33.29420,22.78623,89.97382,-21.78657,90.04886,-140.24411,0.60169,0.37960,0.40602
0.28900,Pose_Setup,33.26435,22.76642,89.97383,-21.76836,90.04886,-140.17157,0.60178,0.37927,0.40625
0.29000,Pose_Setup,33.23463,22.74685,89.97385,-21.75016,90.04886,-140.09904,0.60188,0.37894,0.40648
0.29100,Pose_Setup,33.20455,22.72717,89.97386,-21.73182,90.04886,-140.02635,0.60198,0.37862,0.40670
0.29200,Pose_Setup,33.17459,22.70771,89.97388,-21.71391,90.04871,-139.95338,0.60208,0.37829,0.40693
0.29300,Pose_Setup,33.14463,22.68826,89.97389,-21.69571,90.04871,-139.87981,0.60218,0.37796,0.40716
0.29400,Pose_Setup,33.11467,22.66881,89.97391,-21.67751,90.04871,-139.80640,0.60228,0.37763,0.40739
0.29500,Pose_Setup,33.08459,22.64936,89.97392,-21.65931,90.04871,-139.73222,0.60237,0.37730,0.40761
0.29600,Pose_Setup,33.05463,22.62979,89.97394,-21.64111,90.04857,-139.65837,0.60247,0.37697,0.40784
0.29700,Pose_Setup,33.02479,22.60999,89.97395,-21.62291,90.04857,-139.58391,0.60257,0.37664,0.40807
0.29800,Pose_Setup,32.99495,22.59018,89.97397,-21.60485,90.04857,-139.50945,0.60266,0.37631,0.40830
0.29900,Pose_Setup,32.96499,22.57049,89.97398,-21.58680,90.04857,-139.43456,0.60276,0.37598,0.40852
0.30000,Pose_Setup,32.93503,22.55104,89.97399,-21.56889,90.04842,-139.35934,0.60286,0.37565,0.40875
0.30100,Pose_Setup,32.93503,22.55104,89.97399,-21.56889,90.04842,-139.35934,0.60295,0.37532,0.40898
0.30200,Pose_Setup,32.90519,22.53171,89.97401,-21.55084,90.04842,-139.28415,0.60305,0.37499,0.40921
0.30300,Pose_Setup,32.87534,22.51226,89.97402,-21.53294,90.04843,-139.20836,0.60314,0.37466,0.40943
0.30400,Pose_Setup,32.84562,22.49257,89.97404,-21.51503,90.04843,-139.13243,0.60324,0.37433,0.40966
0.30500,Pose_Setup,32.81590,22.47312,89.97405,-21.49698,90.04828,-139.05620,0.60334,0.37401,0.40989
0.30600,Pose_Setup,32.78593,22.45358,89.97393,-21.47892,90.04828,-138.97966,0.60343,0.37368,0.41012
0.30700,Pose_Setup,32.75609,22.43402,89.97395,-21.46102,90.04829,-138.90269,0.60352,0.37335,0.41034
0.30800,Pose_Setup,32.72613,22.41465,89.97398,-21.44297,90.04814,-138.82571,0.60362,0.37302,0.41057
0.30900,Pose_Setup,32.69641,22.39508,89.97399,-21.42521,90.04814,-138.74829,0.60371,0.37269,0.41080
0.31000,Pose_Setup,32.66680,22.37563,89.97401,-21.40716,90.04799,-138.67088,0.60381,0.37236,0.41103
0.31100,Pose_Setup,32.63708,22.35618,89.97402,-21.38940,90.04800,-138.59317,0.60390,0.37203,0.41125
0.31200,Pose_Setup,32.60771,22.33661,89.97404,-21.37150,90.04800,-138.51546,0.60399,0.37170,0.41148
0.31300,Pose_Setup,32.57846,22.31752,89.97405,-21.35359,90.04800,-138.43788,0.60409,0.37137,0.41171
0.31400,Pose_Setup,32.54897,22.29830,89.97407,-21.33569,90.04785,-138.36003,0.60418,0.37104,0.41194
0.31500,Pose_Setup,32.48929,22.25916,89.97409,-21.29973,90.04785,-138.20386,0.60427,0.37071,0.41216
0.31600,Pose_Setup,32.45945,22.23936,89.97411,-21.28168,90.04771,-138.12495,0.60437,0.37038,0.41239
0.31700,Pose_Setup,32.42984,22.21979,89.97412,-21.26333,90.04771,-138.04591,0.60446,0.37005,0.41262
0.31800,Pose_Setup,32.40024,22.20022,89.97414,-21.24512,90.04756,-137.96716,0.60455,0.36972,0.41284
0.31900,Pose_Setup,32.37099,22.18077,89.97415,-21.22707,90.04756,-137.88797,0.60464,0.36939,0.41307
0.32000,Pose_Setup,32.34162,22.16132,89.97417,-21.20902,90.04741,-137.80833,0.60473,0.36906,0.41330
0.32100,Pose_Setup,32.31189,22.14175,89.97430,-21.19111,90.04742,-137.72824,0.60482,0.36873,0.41353
0.32200,Pose_Setup,32.28217,22.12218,89.97431,-21.17306,90.04742,-137.64801,0.60491,0.36840,0.41375
0.32300,Pose_Setup,32.25257,22.10261,89.97433,-21.15471,90.04727,-137.56808,0.60501,0.36807,0.41398
0.32400,Pose_Setup,32.22308,22.08316,89.97434,-21.13651,90.04727,-137.48726,0.60510,0.36774,0.41421
0.32500,Pose_Setup,32.19371,22.06383,89.97436,-21.11831,90.04712,-137.40614,0.60519,0.36741,0.41443
0.32600,Pose_Setup,32.16422,22.04438,89.97437,-21.10011,90.04713,-137.32487,0.60528,0.36708,0.41466
0.32700,Pose_Setup,32.16422,22.04438,89.97437,-21.10011,90.04713,-137.32487,0.60537,0.36675,0.41489
0.32800,Pose_Setup,32.13485,22.02481,89.97438,-21.08176,90.04713,-137.24332,0.60546,0.36642,0.41512
0.32900,Pose_Setup,32.10549,22.00524,89.97440,-21.06356,90.04698,-137.16161,0.60555,0.36609,0.41534
0.33000,Pose_Setup,32.07600,21.98591,89.97441,-21.04521,90.04698,-137.07959,0.60563,0.36576,0.41557
0.33100,Pose_Setup,32.04628,21.96646,89.97443,-21.02671,90.04683,-136.99715,0.60572,0.36543,0.41580
0.33200,Pose_Setup,32.01691,21.94700,89.97444,-21.00836,90.04684,-136.91396,0.60581,0.36510,0.41602
0.33300,Pose_Setup,31.98754,21.92732,89.97446,-20.99016,90.04668,-136.83092,0.60590,0.36477,0.41625
0.33400,Pose_Setup,31.95817,21.90763,89.97447,-20.97211,90.04668,-136.74757,0.60599,0.36444,0.41648
0.33500,Pose_Setup,31.92880,21.88806,89.97448,-20.95406,90.04654,-136.66364,0.60608,0.36410,0.41670
0.33600,Pose_Setup,31.89920,21.86873,89.97449,-20.93600,90.04654,-136.57942,0.60616,0.36377,0.41693
0.33700,Pose_Setup,31.86971,21.84928,89.97451,-20.91780,90.04655,-136.49489,0.60625,0.36344,0.41716
0.33800,Pose_Setup,31.84034,21.82982,89.97453,-20.89990,90.04639,-136.41022,0.60634,0.36311,0.41738
0.33900,Pose_Setup,31.81109,21.81037,89.97454,-20.88185,90.04639,-136.32526,0.60643,0.36278,0.41761
0.34000,Pose_Setup,31.78196,21.79092,89.97456,-20.86379,90.04625,-136.23999,0.60651,0.36245,0.41784
0.34100,Pose_Setup,31.75247,21.77135,89.97457,-20.84574,90.04610,-136.15443,0.60660,0.36212,0.41806
0.34200,Pose_Setup,31.72287,21.75202,89.97458,-20.82769,90.04610,-136.06857,0.60668,0.36179,0.41829
0.34300,Pose_Setup,31.69338,21.73245,89.97459,-20.80963,90.04596,-135.98273,0.60677,0.36146,0.41852
0.34400,Pose_Setup,31.63453,21.69319,89.97462,-20.77368,90.04581,-135.81042,0.60686,0.36113,0.41874
0.34500,Pose_Setup,31.60516,21.67374,89.97464,-20.75547,90.04581,-135.72382,0.60694,0.36080,0.41897
0.34600,Pose_Setup,31.57591,21.65441,89.97466,-20.73727,90.04567,-135.63722,0.60703,0.36047,0.41920
0.34700,Pose_Setup,31.54642,21.63496,89.97467,-20.71922,90.04567,-135.55034,0.60711,0.36014,0.41942
0.34800,Pose_Setup,31.51693,21.61527,89.97468,-20.70117,90.04552,-135.46330,0.60720,0.35981,0.41965
0.34900,Pose_Setup,31.48733,21.59582,89.97469,-20.68326,90.04552,-135.37581,0.60728,0.35948,0.41988
0.35000,Pose_Setup,31.45796,21.57625,89.97471,-20.66550,90.04537,-135.28833,0.60737,0.35915,0.42010
0.35100,Pose_Setup,31.42871,21.55704,89.97472,-20.64760,90.04538,-135.20055,0.60745,0.35881,0.42033
0.35200,Pose_Setup,31.39934,21.53758,89.97474,-20.62999,90.04523,-135.11247,0.60753,0.35848,0.42055
0.35300,Pose_Setup,31.39934,21.53758,89.97474,-20.62999,90.04523,-135.11247,0.60762,0.35815,0.42078
0.35400,Pose_Setup,31.36986,21.51790,89.97475,-20.61223,90.04508,-135.02425,0.60770,0.35782,0.42101
0.35500,Pose_Setup,31.34025,21.49833,89.97476,-20.59448,90.04508,-134.93558,0.60778,0.35749,0.42123
0.35600,Pose_Setup,31.31053,21.47876,89.97478,-20.57657,90.04494,-134.84677,0.60787,0.35716,0.42146
0.35700,Pose_Setup,31.28104,21.45942,89.97479,-20.55852,90.04494,-134.75766,0.60795,0.35683,0.42169
0.35800,Pose_Setup,31.25155,21.43997,89.97481,-20.54047,90.04479,-134.66795,0.60803,0.35650,0.42191
0.35900,Pose_Setup,31.22219,21.42040,89.97482,-20.52212,90.04465,-134.57825,0.60811,0.35617,0.42214
0.36000,Pose_Setup,31.19270,21.40072,89.97484,-20.50377,90.04465,-134.48810,0.60820,0.35584,0.42236
0.36100,Pose_Setup,31.16309,21.38115,89.97485,-20.48571,90.04450,-134.39751,0.60828,0.35550,0.42259
0.36200,Pose_Setup,31.13349,21.36146,89.97486,-20.46766,90.04435,-134.30676,0.60836,0.35517,0.42282
0.36300,Pose_Setup,31.10388,21.34189,89.97488,-20.44976,90.04436,-134.21588,0.60844,0.35484,0.42304
0.36400,Pose_Setup,31.07439,21.32244,89.97489,-20.43170,90.04420,-134.12454,0.60852,0.35451,0.42327
0.36500,Pose_Setup,31.04503,21.30287,89.97491,-20.41380,90.04420,-134.03291,0.60860,0.35418,0.42350
0.36600,Pose_Setup,31.01554,21.28330,89.97492,-20.39589,90.04406,-133.94159,0.60868,0.35385,0.42372
0.36700,Pose_Setup,30.95633,21.24428,89.97495,-20.36023,90.04391,-133.75745,0.60876,0.35352,0.42395
0.36800,Pose_Setup,30.92661,21.22482,89.97496,-20.34218,90.04377,-133.66522,0.60884,0.35319,0.42417
0.36900,Pose_Setup,30.89712,21.20514,89.97498,-20.32413,90.04377,-133.57285,0.60892,0.35286,0.42440
0.37000,Pose_Setup,30.86763,21.18569,89.97499,-20.30607,90.04362,-133.48033,0.60900,0.35252,0.42463
0.37100,Pose_Setup,30.83791,21.16612,89.97500,-20.28817,90.04347,-133.38766,0.60908,0.35219,0.42485
0.37200,Pose_Setup,30.80818,21.14643,89.97501,-20.27026,90.04348,-133.29471,0.60916,0.35186,0.42508
0.37300,Pose_Setup,30.77858,21.12674,89.97503,-20.25236,90.04333,-133.20160,0.60924,0.35153,0.42530
0.37400,Pose_Setup,30.74897,21.10705,89.97504,-20.23430,90.04333,-133.10805,0.60932,0.35120,0.42553
0.37500,Pose_Setup,30.71925,21.08784,89.97506,-20.21655,90.04318,-133.01479,0.60940,0.35087,0.42575
0.37600,Pose_Setup,30.68976,21.06850,89.97507,-20.19849,90.04318,-132.92065,0.60947,0.35054,0.42598
0.37700,Pose_Setup,30.66016,21.04905,89.97508,-20.18088,90.04304,-132.82695,0.60955,0.35020,0.42621
0.37800,Pose_Setup,30.66016,21.04905,89.97508,-20.18088,90.04304,-132.82695,0.60963,0.34987,0.42643
0.37900,Pose_Setup,30.63055,21.02936,89.97510,-20.16298,90.04304,-132.73251,0.60971,0.34954,0.42666
0.38000,Pose_Setup,30.60083,21.00956,89.97511,-20.14507,90.04289,-132.63821,0.60978,0.34921,0.42688
0.38100,Pose_Setup,30.57134,20.98987,89.97513,-20.12732,90.04289,-132.54318,0.60986,0.34888,0.42711
0.38200,Pose_Setup,30.54174,20.97030,89.97514,-20.10926,90.04275,-132.44785,0.60994,0.34855,0.42733
0.38300,Pose_Setup,30.51213,20.95073,89.97515,-20.09121,90.04260,-132.35208,0.61001,0.34822,0.42756
0.38400,Pose_Setup,30.48253,20.93104,89.97517,-20.07331,90.04260,-132.25645,0.61009,0.34788,0.42779
0.38500,Pose_Setup,30.45292,20.91147,89.97518,-20.05555,90.04246,-132.16010,0.61016,0.34755,0.42801
0.38600,Pose_Setup,30.42332,20.89202,89.97520,-20.03735,90.04246,-132.06343,0.61024,0.34722,0.42824
0.38700,Pose_Setup,30.39383,20.87257,89.97520,-20.01915,90.04231,-131.96648,0.61032,0.34689,0.42846
0.38800,Pose_Setup,30.36399,20.85312,89.97522,-20.00094,90.04231,-131.86906,0.61039,0.34656,0.42869
0.38900,Pose_Setup,30.33450,20.83355,89.97523,-19.98289,90.04231,-131.77167,0.61047,0.34623,0.42891
0.39000,Pose_Setup,30.30501,20.81398,89.97525,-19.96499,90.04217,-131.67412,0.61054,0.34590,0.42914
0.39100,Pose_Setup,30.27553,20.79441,89.97527,-19.94708,90.04202,-131.57597,0.61061,0.34556,0.42936
0.39200,Pose_Setup,30.24592,20.77496,89.97527,-19.92918,90.04202,-131.47754,0.61069,0.34523,0.42959
0.39300,Pose_Setup,30.21643,20.75562,89.97529,-19.91112,90.04187,-131.37939,0.61076,0.34490,0.42982
0.39400,Pose_Setup,30.18683,20.73605,89.97530,-19.89322,90.04188,-131.28096,0.61084,0.34457,0.43004
0.39500,Pose_Setup,30.12786,20.69691,89.97533,-19.85726,90.04173,-131.08334,0.61091,0.34424,0.43027
0.39600,Pose_Setup,30.09837,20.67758,89.97534,-19.83906,90.04158,-130.98402,0.61098,0.34391,0.43049
0.39700,Pose_Setup,30.06888,20.65848,89.97536,-19.82100,90.04144,-130.88469,0.61106,0.34357,0.43072
0.39800,Pose_Setup,30.03939,20.63915,89.97537,-19.80280,90.04144,-130.78522,0.61113,0.34324,0.43094
0.39900,Pose_Setup,30.00991,20.61982,89.97538,-19.78460,90.04129,-130.68546,0.61120,0.34291,0.43117
0.40000,Pose_Setup,29.98042,20.60036,89.97540,-19.76640,90.04129,-130.58524,0.61127,0.34258,0.43139
0.40100,Pose_Setup,29.95093,20.58103,89.97541,-19.74820,90.04115,-130.48502,0.61135,0.34225,0.43162
0.40200,Pose_Setup,29.92145,20.56182,89.97543,-19.72985,90.04099,-130.38422,0.61142,0.34191,0.43184
0.40300,Pose_Setup,29.89231,20.54237,89.97544,-19.71165,90.04100,-130.28342,0.61149,0.34158,0.43207
0.40400,Pose_Setup,29.86283,20.52279,89.97545,-19.69360,90.04085,-130.18216,0.61156,0.34125,0.43229
0.40500,Pose_Setup,29.83334,20.50346,89.97546,-19.67569,90.04086,-130.08017,0.61163,0.34092,0.43252
0.40600,Pose_Setup,29.83334,20.50346,89.97546,-19.67569,90.04086,-130.08017,0.61170,0.34059,0.43274
0.40700,Pose_Setup,29.80386,20.48413,89.97548,-19.65779,90.04070,-129.97818,0.61177,0.34026,0.43297
0.40800,Pose_Setup,29.77425,20.46480,89.97549,-19.63988,90.04070,-129.87575,0.61184,0.33992,0.43319
0.40900,Pose_Setup,29.74500,20.44522,89.97550,-19.62183,90.04056,-129.77301,0.61191,0.33959,0.43342
0.41000,Pose_Setup,29.71563,20.42566,89.97552,-19.60363,90.04056,-129.67014,0.61198,0.33926,0.43364
0.41100,Pose_Setup,29.68638,20.40620,89.97553,-19.58572,90.04041,-129.56697,0.61205,0.33893,0.43387
0.41200,Pose_Setup,29.65713,20.38699,89.97555,-19.56767,90.04027,-129.46335,0.61212,0.33860,0.43409
0.41300,Pose_Setup,29.62765,20.36754,89.97556,-19.54991,90.04027,-129.35973,0.61219,0.33826,0.43432
0.41400,Pose_Setup,29.59816,20.34809,89.97557,-19.53171,90.04012,-129.25597,0.61226,0.33793,0.43454
0.41500,Pose_Setup,29.56867,20.32875,89.97570,-19.51365,90.04012,-129.15204,0.61233,0.33760,0.43477
0.41600,Pose_Setup,29.53942,20.30918,89.97572,-19.49545,90.04012,-129.04755,0.61240,0.33727,0.43499
0.41700,Pose_Setup,29.51005,20.28997,89.97573,-19.47740,90.03998,-128.94348,0.61247,0.33694,0.43522
0.41800,Pose_Setup,29.48057,20.27075,89.97575,-19.45950,90.03998,-128.83897,0.61253,0.33660,0.43544
0.41900,Pose_Setup,29.45108,20.25166,89.97575,-19.44174,90.03983,-128.73447,0.61260,0.33627,0.43567
0.42000,Pose_Setup,29.42171,20.23244,89.97577,-19.42383,90.03983,-128.62936,0.61267,0.33594,0.43589
0.42100,Pose_Setup,29.39234,20.21275,89.97578,-19.40578,90.03969,-128.52457,0.61274,0.33561,0.43612
0.42200,Pose_Setup,29.36286,20.19318,89.97580,-19.38802,90.03969,-128.41931,0.61280,0.33528,0.43634
0.42300,Pose_Setup,29.33337,20.17361,89.97581,-19.36997,90.03954,-128.31392,0.61287,0.33494,0.43657
0.42400,Pose_Setup,29.27475,20.13459,89.97595,-19.33416,90.03940,-128.10210,0.61294,0.33461,0.43679
0.42500,Pose_Setup,29.24562,20.11514,89.97597,-19.31625,90.03940,-127.99567,0.61300,0.33428,0.43701
0.42600,Pose_Setup,29.21637,20.09557,89.97598,-19.29850,90.03925,-127.88879,0.61307,0.33395,0.43724
0.42700,Pose_Setup,29.18700,20.07635,89.97599,-19.28044,90.03925,-127.78191,0.61313,0.33362,0.43746
0.42800,Pose_Setup,29.15739,20.05690,89.97601,-19.26254,90.03925,-127.67459,0.61320,0.33328,0.43769
0.42900,Pose_Setup,29.12779,20.03757,89.97602,-19.24448,90.03911,-127.56668,0.61326,0.33295,0.43791
0.43000,Pose_Setup,29.09842,20.01823,89.97604,-19.22673,90.03911,-127.45863,0.61333,0.33262,0.43814
0.43100,Pose_Setup,29.09842,20.01823,89.97604,-19.22673,90.03911,-127.45863,0.61339,0.33229,0.43836
0.43200,Pose_Setup,29.06917,19.99878,89.97604,-19.20882,90.03896,-127.34998,0.61346,0.33196,0.43859
0.43300,Pose_Setup,29.03980,19.97921,89.97606,-19.19092,90.03896,-127.24132,0.61352,0.33162,0.43881
0.43400,Pose_Setup,29.01044,19.95976,89.97607,-19.17316,90.03881,-127.13252,0.61359,0.33129,0.43903
0.43500,Pose_Setup,28.98095,19.94019,89.97609,-19.15525,90.03882,-127.02328,0.61365,0.33096,0.43926
0.43600,Pose_Setup,28.95146,19.92050,89.97610,-19.13720,90.03882,-126.91389,0.61372,0.33063,0.43948
0.43700,Pose_Setup,28.92197,19.90093,89.97611,-19.11930,90.03867,-126.80434,0.61378,0.33029,0.43971
0.43800,Pose_Setup,28.89260,19.88136,89.97601,-19.10110,90.03867,-126.69437,0.61384,0.32996,0.43993
0.43900,Pose_Setup,28.86312,19.86191,89.97602,-19.08304,90.03867,-126.58438,0.61390,0.32963,0.44016
0.44000,Pose_Setup,28.83363,19.84245,89.97604,-19.06499,90.03852,-126.47410,0.61397,0.32930,0.44038
0.44100,Pose_Setup,28.80403,19.82288,89.97604,-19.04708,90.03853,-126.36353,0.61403,0.32897,0.44060
0.44200,Pose_Setup,28.77466,19.80331,89.97606,-19.02903,90.03838,-126.25310,0.61409,0.32863,0.44083
0.44300,Pose_Setup,28.74553,19.78362,89.97607,-19.01098,90.03838,-126.14223,0.61415,0.32830,0.44105
0.44400,Pose_Setup,28.71592,19.76417,89.97608,-18.99292,90.03838,-126.03120,0.61422,0.32797,0.44128
0.44500,Pose_Setup,28.68632,19.74460,89.97610,-18.97487,90.03823,-125.91974,0.61428,0.32764,0.44150
0.44600,Pose_Setup,28.65707,19.72515,89.97611,-18.95696,90.03824,-125.80813,0.61434,0.32730,0.44172
0.44700,Pose_Setup,28.62758,19.70570,89.97613,-18.93921,90.03809,-125.69608,0.61440,0.32697,0.44195
0.44800,Pose_Setup,28.56872,19.66679,89.97615,-18.90295,90.03809,-125.47108,0.61446,0.32664,0.44217
0.44900,Pose_Setup,28.53924,19.64734,89.97617,-18.88505,90.03794,-125.35783,0.61452,0.32631,0.44240
0.45000,Pose_Setup,28.50999,19.62777,89.97617,-18.86685,90.03795,-125.24445,0.61458,0.32598,0.44262
0.45100,Pose_Setup,28.48038,19.60832,89.97619,-18.84894,90.03795,-125.13076,0.61464,0.32564,0.44284
0.45200,Pose_Setup,28.45066,19.58887,89.97608,-18.83103,90.03780,-125.01693,0.61470,0.32531,0.44307
0.45300,Pose_Setup,28.42129,19.56930,89.97610,-18.81313,90.03780,-124.90295,0.61476,0.32498,0.44329
0.45400,Pose_Setup,28.39180,19.54961,89.97611,-18.79522,90.03765,-124.78853,0.61482,0.32465,0.44352
0.45500,Pose_Setup,28.36243,19.52992,89.97612,-18.77702,90.03766,-124.67395,0.61488,0.32431,0.44374
0.45600,Pose_Setup,28.33307,19.51011,89.97614,-18.75912,90.03766,-124.55908,0.61494,0.32398,0.44396
0.45700,Pose_Setup,28.30346,19.49042,89.97615,-18.74121,90.03751,-124.44466,0.61499,0.32365,0.44419
0.45800,Pose_Setup,28.27397,19.47132,89.97616,-18.72331,90.03751,-124.32964,0.61505,0.32332,0.44441
0.45900,Pose_Setup,28.24437,19.45199,89.97617,-18.70555,90.03736,-124.21448,0.61511,0.32299,0.44464
0.46000,Pose_Setup,28.24437,19.45199,89.97617,-18.70555,90.03736,-124.21448,0.61517,0.32265,0.44486
0.46100,Pose_Setup,28.21500,19.43242,89.97619,-18.68764,90.03737,-124.09931,0.61523,0.32232,0.44508
0.46200,Pose_Setup,28.18563,19.41285,89.97620,-18.66974,90.03722,-123.98415,0.61528,0.32199,0.44531
0.46300,Pose_Setup,28.15615,19.39316,89.97621,-18.65183,90.03722,-123.86825,0.61534,0.32166,0.44553
0.46400,Pose_Setup,28.12654,19.37371,89.97623,-18.63408,90.03722,-123.75234,0.61540,0.32132,0.44575
0.46500,Pose_Setup,28.09705,19.35426,89.97623,-18.61632,90.03707,-123.63629,0.61545,0.32099,0.44598
0.46600,Pose_Setup,28.06757,19.33469,89.97625,-18.59826,90.03708,-123.51994,0.61551,0.32066,0.44620
0.46700,Pose_Setup,28.03796,19.31511,89.97626,-18.58036,90.03708,-123.40300,0.61557,0.32033,0.44642
0.46800,Pose_Setup,28.00859,19.29543,89.97627,-18.56245,90.03693,-123.28606,0.61562,0.31999,0.44665
0.46900,Pose_Setup,27.97922,19.27585,89.97629,-18.54470,90.03693,-123.16837,0.61568,0.31966,0.44687
0.47000,Pose_Setup,27.94962,19.25640,89.97630,-18.52679,90.03678,-123.05070,0.61573,0.31933,0.44709
0.47100,Pose_Setup,27.92013,19.23695,89.97631,-18.50874,90.03679,-122.93257,0.61579,0.31900,0.44732
0.47200,Pose_Setup,27.89041,19.21726,89.97633,-18.49083,90.03679,-122.81430,0.61584,0.31867,0.44754
0.47300,Pose_Setup,27.86092,19.19781,89.97634,-18.47293,90.03664,-122.69558,0.61590,0.31833,0.44777
0.47400,Pose_Setup,27.83167,19.17836,89.97635,-18.45517,90.03664,-122.57627,0.61595,0.31800,0.44799
0.47500,Pose_Setup,27.80230,19.15878,89.97636,-18.43756,90.03664,-122.45726,0.61601,0.31767,0.44821
0.47600,Pose_Setup,27.77282,19.13922,89.97638,-18.41980,90.03650,-122.33795,0.61606,0.31734,0.44843
0.47700,Pose_Setup,27.71337,19.10043,89.97640,-18.38429,90.03650,-122.09844,0.61612,0.31700,0.44866
0.47800,Pose_Setup,27.68388,19.08098,89.97642,-18.36638,90.03635,-121.97839,0.61617,0.31667,0.44888
0.47900,Pose_Setup,27.65439,19.06164,89.97643,-18.34863,90.03635,-121.85805,0.61622,0.31634,0.44910
0.48000,Pose_Setup,27.62514,19.04231,89.97644,-18.33087,90.03621,-121.73770,0.61627,0.31601,0.44933
0.48100,Pose_Setup,27.59566,19.02297,89.97646,-18.31296,90.03621,-121.61691,0.61633,0.31567,0.44955
0.48200,Pose_Setup,27.56605,19.00328,89.97646,-18.29491,90.03621,-121.49583,0.61638,0.31534,0.44977
0.48300,Pose_Setup,27.53645,18.98371,89.97648,-18.27686,90.03606,-121.37460,0.61643,0.31501,0.45000
0.48400,Pose_Setup,27.53645,18.98371,89.97648,-18.27686,90.03606,-121.37460,0.61648,0.31468,0.45022
0.48500,Pose_Setup,27.50684,18.96438,89.97649,-18.25880,90.03606,-121.25307,0.61654,0.31435,0.45044
0.48600,Pose_Setup,27.47736,18.94516,89.97650,-18.24090,90.03592,-121.13124,0.61659,0.31401,0.45067
0.48700,Pose_Setup,27.44799,18.92595,89.97652,-18.22314,90.03592,-121.00897,0.61664,0.31368,0.45089
0.48800,Pose_Setup,27.41850,18.90650,89.97652,-18.20553,90.03592,-120.88611,0.61669,0.31335,0.45111
0.48900,Pose_Setup,27.38890,18.88716,89.97666,-18.18762,90.03577,-120.76295,0.61674,0.31302,0.45134
0.49000,Pose_Setup,27.35929,18.86795,89.97667,-18.16987,90.03577,-120.63979,0.61679,0.31268,0.45156
0.49100,Pose_Setup,27.32968,18.84873,89.97668,-18.15196,90.03563,-120.51633,0.61684,0.31235,0.45178
0.49200,Pose_Setup,27.30032,18.82952,89.97670,-18.13420,90.03563,-120.39244,0.61689,0.31202,0.45200
0.49300,Pose_Setup,27.27107,18.81030,89.97671,-18.11630,90.03563,-120.26854,0.61694,0.31169,0.45223
0.49400,Pose_Setup,27.24146,18.79097,89.97672,-18.09839,90.03548,-120.14435,0.61699,0.31135,0.45245
0.49500,Pose_Setup,27.21185,18.77187,89.97673,-18.08034,90.03548,-120.02000,0.61704,0.31102,0.45267
0.49600,Pose_Setup,27.18225,18.75253,89.97675,-18.06229,90.03534,-119.89596,0.61709,0.31069,0.45290
0.49700,Pose_Setup,27.15265,18.73320,89.97676,-18.04423,90.03534,-119.77117,0.61714,0.31036,0.45312
0.49800,Pose_Setup,27.12316,18.71387,89.97677,-18.02633,90.03519,-119.64639,0.61719,0.31003,0.45334
0.49900,Pose_Setup,27.09379,18.69453,89.97678,-18.00842,90.03519,-119.52160,0.61724,0.30969,0.45356
0.50000,Pose_Setup,27.06442,18.67520,89.97680,-17.99052,90.03519,-119.39651,0.61728,0.30936,0.45379
0.50100,Pose_Setup,27.03517,18.65598,89.97681,-17.97276,90.03505,-119.27144,0.61733,0.30903,0.45401
0.50200,Pose_Setup,27.00568,18.63653,89.97682,-17.95485,90.03505,-119.14576,0.61738,0.30870,0.45423
0.50300,Pose_Setup,26.97632,18.61743,89.97695,-17.93710,90.03490,-119.01965,0.61743,0.30836,0.45445
0.50400,Pose_Setup,26.91746,18.57888,89.97697,-17.90158,90.03475,-118.76666,0.61747,0.30803,0.45468
0.50500,Pose_Setup,26.88797,18.55946,89.97697,-17.88367,90.03475,-118.63981,0.61752,0.30770,0.45490
0.50600,Pose_Setup,26.85860,18.54001,89.97700,-17.86532,90.03461,-118.51206,0.61757,0.30737,0.45512
0.50700,Pose_Setup,26.82924,18.52068,89.97701,-17.84727,90.03461,-118.38446,0.61761,0.30704,0.45534
0.50800,Pose_Setup,26.79999,18.50122,89.97713,-17.82907,90.03461,-118.25671,0.61766,0.30670,0.45557
0.50900,Pose_Setup,26.77050,18.48189,89.97715,-17.81131,90.03446,-118.12838,0.61771,0.30637,0.45579
0.51000,Pose_Setup,26.74113,18.46264,89.97717,-17.79341,90.03447,-118.00004,0.61775,0.30604,0.45601
0.51100,Pose_Setup,26.71224,18.44354,89.97718,-17.77521,90.03447,-117.87155,0.61780,0.30571,0.45623
0.51200,Pose_Setup,26.71224,18.44354,89.97718,-17.77521,90.03447,-117.87155,0.61784,0.30537,0.45646
0.51300,Pose_Setup,26.65457,18.40558,89.97720,-17.73969,90.03447,-117.61636,0.61789,0.30504,0.45668
0.51400,Pose_Setup,26.65457,18.40558,89.97720,-17.73969,90.03447,-117.61636,0.61793,0.30471,0.45690
0.51500,Pose_Setup,26.62567,18.38625,89.97722,-17.72223,90.03447,-117.48905,0.61798,0.30438,0.45712
0.51600,Pose_Setup,26.59666,18.36703,89.97723,-17.70477,90.03447,-117.36205,0.61802,0.30405,0.45735
0.51700,Pose_Setup,26.56717,18.34758,89.97724,-17.68716,90.03432,-117.23489,0.61807,0.30371,0.45757
0.51800,Pose_Setup,26.53768,18.32801,89.97726,-17.66940,90.03432,-117.10699,0.61811,0.30338,0.45779
0.51900,Pose_Setup,26.50820,18.30844,89.97726,-17.65149,90.03418,-116.97836,0.61815,0.30305,0.45801
0.52000,Pose_Setup,26.47871,18.28887,89.97728,-17.63374,90.03418,-116.84928,0.61820,0.30272,0.45823
0.52100,Pose_Setup,26.44946,18.26941,89.97729,-17.61598,90.03418,-116.71931,0.61824,0.30238,0.45846
0.52200,Pose_Setup,26.42009,18.24996,89.97730,-17.59807,90.03419,-116.58875,0.61828,0.30205,0.45868
0.52300,Pose_Setup,26.39072,18.23063,89.97731,-17.58017,90.03403,-116.45731,0.61833,0.30172,0.45890
0.52400,Pose_Setup,26.36112,18.21117,89.97733,-17.56211,90.03404,-116.32586,0.61837,0.30139,0.45912
0.52500,Pose_Setup,26.33163,18.19172,89.97734,-17.54421,90.03404,-116.19397,0.61841,0.30106,0.45934
0.52600,Pose_Setup,26.30215,18.17215,89.97735,-17.52616,90.03404,-116.06104,0.61845,0.30072,0.45957
0.52700,Pose_Setup,26.27278,18.15270,89.97736,-17.50810,90.03390,-115.92826,0.61849,0.30039,0.45979
0.52800,Pose_Setup,26.24341,18.13336,89.97737,-17.49005,90.03390,-115.79504,0.61854,0.30006,0.46001
0.52900,Pose_Setup,26.21404,18.11379,89.97739,-17.47185,90.03390,-115.66167,0.61858,0.29973,0.46023
0.53000,Pose_Setup,26.18455,18.09434,89.97728,-17.45379,90.03375,-115.52770,0.61862,0.29940,0.46045
0.53100,Pose_Setup,26.12570,18.05555,89.97730,-17.41798,90.03375,-115.25977,0.61866,0.29906,0.46068
0.53200,Pose_Setup,26.09633,18.03598,89.97732,-17.40008,90.03375,-115.12537,0.61870,0.29873,0.46090
0.53300,Pose_Setup,26.06684,18.01617,89.97733,-17.38188,90.03361,-114.99110,0.61874,0.29840,0.46112
0.53400,Pose_Setup,26.03747,17.99636,89.97734,-17.36353,90.03361,-114.85611,0.61878,0.29807,0.46134
0.53500,Pose_Setup,26.00775,17.97667,89.97735,-17.34547,90.03361,-114.72125,0.61882,0.29774,0.46156
0.53600,Pose_Setup,25.97838,17.95734,89.97736,-17.32742,90.03346,-114.58626,0.61886,0.29740,0.46178
0.53700,Pose_Setup,25.94889,17.93789,89.97738,-17.30951,90.03346,-114.45081,0.61890,0.29707,0.46201
0.53800,Pose_Setup,25.91953,17.91843,89.97739,-17.29161,90.03346,-114.31477,0.61894,0.29674,0.46223
0.53900,Pose_Setup,25.89004,17.89886,89.97740,-17.27355,90.03347,-114.17903,0.61898,0.29641,0.46245
0.54000,Pose_Setup,25.86055,17.87941,89.97741,-17.25550,90.03332,-114.04256,0.61901,0.29608,0.46267
0.54100,Pose_Setup,25.83107,17.85995,89.97742,-17.23730,90.03333,-113.90592,0.61905,0.29574,0.46289
0.54200,Pose_Setup,25.80158,17.84015,89.97743,-17.21939,90.03333,-113.76915,0.61909,0.29541,0.46311
0.54300,Pose_Setup,25.80158,17.84015,89.97743,-17.21939,90.03333,-113.76915,0.61913,0.29508,0.46334
0.54400,Pose_Setup,25.77209,17.82069,89.97745,-17.20149,90.03333,-113.63178,0.61917,0.29475,0.46356
0.54500,Pose_Setup,25.74249,17.80112,89.97746,-17.18328,90.03333,-113.49442,0.61920,0.29442,0.46378
0.54600,Pose_Setup,25.71288,17.78155,89.97747,-17.16523,90.03318,-113.35660,0.61924,0.29408,0.46400
0.54700,Pose_Setup,25.68351,17.76210,89.97749,-17.14703,90.03318,-113.21909,0.61928,0.29375,0.46422
0.54800,Pose_Setup,25.65414,17.74253,89.97749,-17.12883,90.03318,-113.08098,0.61931,0.29342,0.46444
0.54900,Pose_Setup,25.62490,17.72296,89.97751,-17.11077,90.03318,-112.94302,0.61935,0.29309,0.46466
0.55000,Pose_Setup,25.59541,17.70315,89.97752,-17.09287,90.03304,-112.80505,0.61939,0.29276,0.46489
0.55100,Pose_Setup,25.56568,17.68357,89.97753,-17.07496,90.03304,-112.66665,0.61942,0.29243,0.46511
0.55200,Pose_Setup,25.53608,17.66400,89.97754,-17.05706,90.03304,-112.52795,0.61946,0.29209,0.46533
0.55300,Pose_Setup,25.50659,17.64467,89.97755,-17.03930,90.03304,-112.38895,0.61949,0.29176,0.46555
0.55400,Pose_Setup,25.47722,17.62522,89.97756,-17.02139,90.03289,-112.24966,0.61953,0.29143,0.46577
0.55500,Pose_Setup,25.44774,17.60553,89.97758,-17.00349,90.03289,-112.11022,0.61956,0.29110,0.46599
0.55600,Pose_Setup,25.41813,17.58599,89.97758,-16.98573,90.03289,-111.97004,0.61960,0.29077,0.46621
0.55700,Pose_Setup,25.38865,17.56654,89.97760,-16.96782,90.03290,-111.82926,0.61963,0.29044,0.46643
0.55800,Pose_Setup,25.35904,17.54705,89.97762,-16.94992,90.03275,-111.68864,0.61967,0.29010,0.46666
0.55900,Pose_Setup,25.32955,17.52748,89.97762,-16.93216,90.03275,-111.54742,0.61970,0.28977,0.46688
0.56000,Pose_Setup,25.27070,17.48810,89.97765,-16.89650,90.03275,-111.26469,0.61973,0.28944,0.46710
0.56100,Pose_Setup,25.24145,17.46888,89.97766,-16.87889,90.03261,-111.12318,0.61977,0.28911,0.46732
0.56200,Pose_Setup,25.21232,17.44990,89.97767,-16.86113,90.03275,-110.98226,0.61980,0.28878,0.46754
0.56300,Pose_Setup,25.18318,17.43080,89.97768,-16.84337,90.03276,-110.84104,0.61983,0.28845,0.46776
0.56400,Pose_Setup,25.15382,17.41111,89.97769,-16.82547,90.03261,-110.70012,0.61987,0.28811,0.46798
0.56500,Pose_Setup,25.12409,17.39119,89.97771,-16.80771,90.03262,-110.55861,0.61990,0.28778,0.46820
0.56600,Pose_Setup,25.09425,17.37150,89.97771,-16.78980,90.03246,-110.41650,0.61993,0.28745,0.46842
0.56700,Pose_Setup,25.06488,17.35204,89.97773,-16.77160,90.03246,-110.27425,0.61996,0.28712,0.46864
0.56800,Pose_Setup,25.03551,17.33259,89.97774,-16.75370,90.03247,-110.13155,0.62000,0.28679,0.46886
0.56900,Pose_Setup,25.00626,17.31325,89.97775,-16.73564,90.03247,-109.98915,0.62003,0.28646,0.46909
0.57000,Pose_Setup,24.97678,17.29404,89.97776,-16.71774,90.03247,-109.84571,0.62006,0.28612,0.46931
0.57100,Pose_Setup,24.97678,17.29404,89.97776,-16.71774,90.03247,-109.84571,0.62009,0.28579,0.46953
0.57200,Pose_Setup,24.94717,17.27447,89.97778,-16.69998,90.03233,-109.70198,0.62012,0.28546,0.46975
0.57300,Pose_Setup,24.91768,17.25501,89.97779,-16.68207,90.03233,-109.55766,0.62015,0.28513,0.46997
0.57400,Pose_Setup,24.88808,17.23556,89.97780,-16.66432,90.03233,-109.41333,0.62018,0.28480,0.47019
0.57500,Pose_Setup,24.85847,17.21611,89.97781,-16.64611,90.03233,-109.26855,0.62021,0.28447,0.47041
0.57600,Pose_Setup,24.82911,17.19689,89.97782,-16.62821,90.03233,-109.12334,0.62024,0.28414,0.47063
0.57700,Pose_Setup,24.79974,17.17756,89.97784,-16.61016,90.03218,-108.97813,0.62027,0.28381,0.47085
0.57800,Pose_Setup,24.77049,17.15834,89.97784,-16.59225,90.03218,-108.83277,0.62030,0.28347,0.47107
0.57900,Pose_Setup,24.74100,17.13900,89.97786,-16.57434,90.03219,-108.68696,0.62033,0.28314,0.47129
0.58000,Pose_Setup,24.71151,17.11943,89.97787,-16.55629,90.03219,-108.54115,0.62036,0.28281,0.47151
0.58100,Pose_Setup,24.68191,17.09986,89.97788,-16.53809,90.03204,-108.39476,0.62039,0.28248,0.47173
0.58200,Pose_Setup,24.65230,17.08041,89.97789,-16.52003,90.03204,-108.24866,0.62042,0.28215,0.47195
0.58300,Pose_Setup,24.62293,17.06131,89.97791,-16.50198,90.03204,-108.10241,0.62044,0.28182,0.47217
0.58400,Pose_Setup,24.59369,17.04209,89.97791,-16.48393,90.03204,-107.95541,0.62047,0.28149,0.47239
0.58500,Pose_Setup,24.56420,17.02287,89.97793,-16.46587,90.03190,-107.80843,0.62050,0.28115,0.47261
0.58600,Pose_Setup,24.53471,17.00366,89.97794,-16.44797,90.03190,-107.66040,0.62053,0.28082,0.47283
0.58700,Pose_Setup,24.50522,16.98421,89.97807,-16.43006,90.03190,-107.51267,0.62055,0.28049,0.47306
0.58800,Pose_Setup,24.44637,16.94542,89.97809,-16.39410,90.03190,-107.21513,0.62058,0.28016,0.47328
0.58900,Pose_Setup,24.41700,16.92596,89.97810,-16.37605,90.03175,-107.06607,0.62061,0.27983,0.47350
0.59000,Pose_Setup,24.38787,16.90675,89.97811,-16.35799,90.03175,-106.91642,0.62063,0.27950,0.47372
0.59100,Pose_Setup,24.35850,16.88765,89.97813,-16.34009,90.03176,-106.76676,0.62066,0.27917,0.47394
0.59200,Pose_Setup,24.32913,16.86819,89.97813,-16.32218,90.03161,-106.61652,0.62069,0.27884,0.47416
0.59300,Pose_Setup,24.29953,16.84874,89.97814,-16.30442,90.03161,-106.46642,0.62071,0.27851,0.47438
0.59400,Pose_Setup,24.27004,16.82929,89.97816,-16.28652,90.03162,-106.31647,0.62074,0.27818,0.47460
0.59500,Pose_Setup,24.27004,16.82929,89.97816,-16.28652,90.03162,-106.31647,0.62076,0.27784,0.47482
0.59600,Pose_Setup,24.24103,16.80995,89.97816,-16.26876,90.03162,-106.16608,0.62079,0.27751,0.47504
0.59700,Pose_Setup,24.21166,16.79085,89.97829,-16.25071,90.03147,-106.01582,0.62081,0.27718,0.47526
0.59800,Pose_Setup,24.18229,16.77164,89.97831,-16.23265,90.03147,-105.86514,0.62084,0.27685,0.47548
0.59900,Pose_Setup,24.15292,16.75218,89.97832,-16.21475,90.03147,-105.71445,0.62086,0.27652,0.47570
0.60000,Pose_Setup,24.12332,16.73273,89.97833,-16.19684,90.03147,-105.56346,0.62089,0.27619,0.47592
0.60100,Pose_Setup,24.09395,16.71328,89.97834,-16.17893,90.03133,-105.41218,0.62091,0.27586,0.47614
0.60200,Pose_Setup,24.06446,16.69394,89.97836,-16.16133,90.03133,-105.26089,0.62093,0.27553,0.47636
0.60300,Pose_Setup,24.03533,16.67484,89.97836,-16.14357,90.03133,-105.10931,0.62096,0.27520,0.47658
0.60400,Pose_Setup,24.00596,16.65551,89.97849,-16.12581,90.03118,-104.95715,0.62098,0.27487,0.47680
0.60500,Pose_Setup,23.97647,16.63629,89.97851,-16.10805,90.03118,-104.80453,0.62100,0.27454,0.47702
0.60600,Pose_Setup,23.94687,16.61687,89.97851,-16.09044,90.03118,-104.65221,0.62103,0.27421,0.47724
0.60700,Pose_Setup,23.91738,16.59742,89.97852,-16.07268,90.03118,-104.49944,0.62105,0.27387,0.47746
0.60800,Pose_Setup,23.88790,16.57793,89.97854,-16.05463,90.03104,-104.34609,0.62107,0.27354,0.47767
0.60900,Pose_Setup,23.85853,16.55848,89.97867,-16.03658,90.03104,-104.19259,0.62109,0.27321,0.47789
0.61000,Pose_Setup,23.82928,16.53914,89.97868,-16.01837,90.03104,-104.03953,0.62112,0.27288,0.47811
0.61100,Pose_Setup,23.80003,16.51981,89.97869,-16.00047,90.03089,-103.88558,0.62114,0.27255,0.47833
0.61200,Pose_Setup,23.77090,16.50059,89.97871,-15.98256,90.03090,-103.73252,0.62116,0.27222,0.47855
0.61300,Pose_Setup,23.74188,16.48173,89.97871,-15.96495,90.03090,-103.57946,0.62118,0.27189,0.47877
0.61400,Pose_Setup,23.71263,16.46251,89.97872,-15.94705,90.03090,-103.42596,0.62120,0.27156,0.47899
0.61500,Pose_Setup,23.65354,16.42337,89.97874,-15.91138,90.03090,-103.11806,0.62122,0.27123,0.47921
0.61600,Pose_Setup,23.62370,16.40391,89.97876,-15.89348,90.03075,-102.96264,0.62124,0.27090,0.47943
0.61700,Pose_Setup,23.59409,16.38458,89.97877,-15.87557,90.03075,-102.80750,0.62126,0.27057,0.47965
0.61800,Pose_Setup,23.56484,16.36512,89.97878,-15.85752,90.03075,-102.65148,0.62128,0.27024,0.47987
0.61900,Pose_Setup,23.53547,16.34567,89.97879,-15.83946,90.03075,-102.49502,0.62130,0.26991,0.48009
0.62000,Pose_Setup,23.50611,16.32610,89.97881,-15.82111,90.03061,-102.33826,0.62132,0.26958,0.48031
0.62100,Pose_Setup,23.47662,16.30653,89.97881,-15.80321,90.03061,-102.18135,0.62134,0.26925,0.48053
0.62200,Pose_Setup,23.44713,16.28695,89.97871,-15.78515,90.03062,-102.02386,0.62136,0.26892,0.48075
0.62300,Pose_Setup,23.41753,16.26762,89.97871,-15.76725,90.03062,-101.86694,0.62138,0.26859,0.48097
0.62400,Pose_Setup,23.38804,16.24840,89.97873,-15.74919,90.03047,-101.70915,0.62140,0.26826,0.48119
0.62500,Pose_Setup,23.38804,16.24840,89.97873,-15.74919,90.03047,-101.70915,0.62141,0.26793,0.48141
0.62600,Pose_Setup,23.35867,16.22895,89.97874,-15.73129,90.03047,-101.55180,0.62143,0.26760,0.48162
0.62700,Pose_Setup,23.32907,16.20938,89.97875,-15.71338,90.03047,-101.39385,0.62145,0.26727,0.48184
0.62800,Pose_Setup,23.29970,16.18957,89.97876,-15.69533,90.03047,-101.23576,0.62147,0.26694,0.48206
0.62900,Pose_Setup,23.27021,16.16988,89.97878,-15.67757,90.03033,-101.07738,0.62148,0.26661,0.48228
0.63000,Pose_Setup,23.24072,16.15042,89.97878,-15.65952,90.03033,-100.91869,0.62150,0.26628,0.48250
0.63100,Pose_Setup,23.21124,16.13097,89.97879,-15.64131,90.03033,-100.75986,0.62152,0.26595,0.48272
0.63200,Pose_Setup,23.18163,16.11140,89.97881,-15.62311,90.03018,-100.60073,0.62153,0.26562,0.48294
0.63300,Pose_Setup,23.15203,16.09182,89.97881,-15.60491,90.03018,-100.44101,0.62155,0.26529,0.48316
0.63400,Pose_Setup,23.12254,16.07225,89.97883,-15.58671,90.03018,-100.28129,0.62157,0.26496,0.48338
0.63500,Pose_Setup,23.09317,16.05280,89.97884,-15.56865,90.03018,-100.12098,0.62158,0.26463,0.48360
0.63600,Pose_Setup,23.06368,16.03334,89.97884,-15.55060,90.03004,-99.96081,0.62160,0.26430,0.48382
0.63700,Pose_Setup,23.03432,16.01389,89.97886,-15.53225,90.03004,-99.80006,0.62161,0.26397,0.48403
0.63800,Pose_Setup,23.00495,15.99432,89.97887,-15.51405,90.03004,-99.63944,0.62163,0.26364,0.48425
0.63900,Pose_Setup,22.97546,15.97474,89.97888,-15.49584,90.03004,-99.47839,0.62164,0.26331,0.48447
0.64000,Pose_Setup,22.94609,15.95505,89.97889,-15.47764,90.02990,-99.31749,0.62166,0.26298,0.48469
0.64100,Pose_Setup,22.91672,15.93548,89.97890,-15.45974,90.02990,-99.15629,0.62167,0.26265,0.48491
0.64200,Pose_Setup,22.88747,15.91579,89.97891,-15.44183,90.02990,-98.99450,0.62169,0.26232,0.48513
0.64300,Pose_Setup,22.85799,15.89598,89.97892,-15.42378,90.02975,-98.83256,0.62170,0.26199,0.48535
0.64400,Pose_Setup,22.82850,15.87665,89.97894,-15.40587,90.02975,-98.67002,0.62171,0.26166,0.48557
0.64500,Pose_Setup,22.79913,15.85731,89.97894,-15.38797,90.02975,-98.50749,0.62173,0.26133,0.48578
0.64600,Pose_Setup,22.74004,15.81840,89.97897,-15.35186,90.02961,-98.18035,0.62174,0.26100,0.48600
0.64700,Pose_Setup,22.71079,15.79883,89.97897,-15.33395,90.02961,-98.01633,0.62175,0.26067,0.48622
0.64800,Pose_Setup,22.68154,15.77938,89.97899,-15.31575,90.02961,-97.85233,0.62177,0.26034,0.48644
0.64900,Pose_Setup,22.65217,15.75980,89.97900,-15.29755,90.02962,-97.68816,0.62178,0.26001,0.48666
0.65000,Pose_Setup,22.62268,15.74035,89.97901,-15.27949,90.02962,-97.52312,0.62179,0.25968,0.48688
0.65100,Pose_Setup,22.59320,15.72101,89.97902,-15.26129,90.02946,-97.35896,0.62180,0.25935,0.48710
0.65200,Pose_Setup,22.56371,15.70156,89.97903,-15.24324,90.02947,-97.19435,0.62181,0.25902,0.48731
0.65300,Pose_Setup,22.56371,15.70156,89.97903,-15.24324,90.02947,-97.19435,0.62183,0.25869,0.48753
0.65400,Pose_Setup,22.53446,15.68199,89.97904,-15.22503,90.02947,-97.02974,0.62184,0.25836,0.48775
0.65500,Pose_Setup,22.50509,15.66242,89.97905,-15.20698,90.02933,-96.86484,0.62185,0.25803,0.48797
0.65600,Pose_Setup,22.47584,15.64296,89.97906,-15.18907,90.02933,-96.69949,0.62186,0.25770,0.48819
0.65700,Pose_Setup,22.44647,15.62351,89.97907,-15.17146,90.02933,-96.53445,0.62187,0.25738,0.48841
0.65800,Pose_Setup,22.41699,15.60405,89.97908,-15.15371,90.02933,-96.36866,0.62188,0.25705,0.48862
0.65900,Pose_Setup,22.35813,15.56515,89.97910,-15.11789,90.02918,-96.03604,0.62189,0.25672,0.48884
0.66000,Pose_Setup,22.32876,15.54557,89.97912,-15.09999,90.02918,-95.86951,0.62190,0.25639,0.48906
0.66100,Pose_Setup,22.29928,15.52600,89.97913,-15.08223,90.02904,-95.70269,0.62191,0.25606,0.48928
0.66200,Pose_Setup,22.26991,15.50643,89.97913,-15.06447,90.02904,-95.53557,0.62192,0.25573,0.48950
0.66300,Pose_Setup,22.24042,15.48733,89.97915,-15.04657,90.02904,-95.36785,0.62193,0.25540,0.48971
0.66400,Pose_Setup,22.21117,15.46799,89.97916,-15.02866,90.02905,-95.20013,0.62194,0.25507,0.48993
0.66500,Pose_Setup,22.21117,15.46799,89.97916,-15.02866,90.02905,-95.20013,0.62195,0.25474,0.49015
0.66600,Pose_Setup,22.18168,15.44866,89.97916,-15.01060,90.02889,-95.03257,0.62195,0.25441,0.49037
0.66700,Pose_Setup,22.15220,15.42932,89.97918,-14.99255,90.02889,-94.86441,0.62196,0.25409,0.49059
0.66800,Pose_Setup,22.12259,15.40975,89.97919,-14.97450,90.02890,-94.69640,0.62197,0.25376,0.49080
0.66900,Pose_Setup,22.09311,15.39030,89.97920,-14.95659,90.02875,-94.52795,0.62198,0.25343,0.49102
0.67000,Pose_Setup,22.06386,15.37084,89.97921,-14.93883,90.02876,-94.35934,0.62198,0.25310,0.49124
0.67100,Pose_Setup,22.03484,15.35150,89.97922,-14.92093,90.02876,-94.19030,0.62199,0.25277,0.49146
0.67200,Pose_Setup,22.00547,15.33229,89.97923,-14.90287,90.02861,-94.02081,0.62200,0.25244,0.49168
0.67300,Pose_Setup,21.97599,15.31295,89.97924,-14.88497,90.02861,-93.85058,0.62201,0.25211,0.49189
0.67400,Pose_Setup,21.94650,15.29362,89.97925,-14.86691,90.02861,-93.68050,0.62201,0.25178,0.49211
0.67500,Pose_Setup,21.91689,15.27416,89.97938,-14.84915,90.02847,-93.50967,0.62202,0.25146,0.49233
0.67600,Pose_Setup,21.88764,15.25483,89.97939,-14.83140,90.02847,-93.33841,0.62202,0.25113,0.49255
0.67700,Pose_Setup,21.85828,15.23549,89.97940,-14.81349,90.02847,-93.16759,0.62203,0.25080,0.49277
0.67800,Pose_Setup,21.82879,15.21615,89.97941,-14.79558,90.02832,-92.99588,0.62204,0.25047,0.49298
0.67900,Pose_Setup,21.79942,15.19694,89.97942,-14.77768,90.02832,-92.82476,0.62204,0.25014,0.49320
0.68000,Pose_Setup,21.77005,15.17784,89.97943,-14.75977,90.02832,-92.65305,0.62205,0.24981,0.49342
0.68100,Pose_Setup,21.74057,15.15862,89.97944,-14.74187,90.02832,-92.48178,0.62205,0.24949,0.49364
0.68200,Pose_Setup,21.71120,15.13928,89.97945,-14.72411,90.02818,-92.30963,0.62206,0.24916,0.49385
0.68300,Pose_Setup,21.65258,15.10061,89.97947,-14.68829,90.02818,-91.96561,0.62206,0.24883,0.49407
0.68400,Pose_Setup,21.62297,15.08140,89.97948,-14.67054,90.02803,-91.79301,0.62206,0.24850,0.49429
0.68500,Pose_Setup,21.59349,15.06218,89.97949,-14.65263,90.02803,-91.62027,0.62207,0.24817,0.49451
0.68600,Pose_Setup,21.56424,15.04272,89.97950,-14.63472,90.02804,-91.44708,0.62207,0.24784,0.49472
0.68700,Pose_Setup,21.53487,15.02315,89.97963,-14.61667,90.02789,-91.27359,0.62208,0.24752,0.49494
0.68800,Pose_Setup,21.50526,15.00370,89.97964,-14.59862,90.02789,-91.09981,0.62208,0.24719,0.49516
0.68900,Pose_Setup,21.47578,14.98436,89.97965,-14.58071,90.02789,-90.92603,0.62208,0.24686,0.49538
0.69000,Pose_Setup,21.44641,14.96514,89.97966,-14.56280,90.02789,-90.75165,0.62208,0.24653,0.49559
0.69100,Pose_Setup,21.41716,14.94569,89.97979,-14.54490,90.02775,-90.57742,0.62209,0.24620,0.49581
0.69200,Pose_Setup,21.41716,14.94569,89.97979,-14.54490,90.02775,-90.57742,0.62209,0.24588,0.49603
0.69300,Pose_Setup,21.38767,14.92635,89.97980,-14.52699,90.02775,-90.40246,0.62209,0.24555,0.49624
0.69400,Pose_Setup,21.35818,14.90690,89.97981,-14.50894,90.02760,-90.22808,0.62209,0.24522,0.49646
0.69500,Pose_Setup,21.32882,14.88744,89.97982,-14.49103,90.02760,-90.05326,0.62209,0.24489,0.49668
0.69600,Pose_Setup,21.29933,14.86823,89.97984,-14.47327,90.02760,-89.87785,0.62210,0.24456,0.49690
0.69700,Pose_Setup,21.26972,14.84901,89.97996,-14.45551,90.02746,-89.70229,0.62210,0.24424,0.49711
0.69800,Pose_Setup,21.24024,14.82967,89.97997,-14.43776,90.02746,-89.52659,0.62210,0.24391,0.49733
0.69900,Pose_Setup,21.21087,14.81022,89.97998,-14.42015,90.02746,-89.34985,0.62210,0.24358,0.49755
0.70000,Pose_Setup,21.18150,14.79064,89.97999,-14.40194,90.02731,-89.17281,0.62210,0.24325,0.49776
0.70100,Pose_Setup,21.15213,14.77119,89.98000,-14.38404,90.02731,-88.99606,0.62210,0.24293,0.49798
0.70200,Pose_Setup,21.12264,14.75174,89.98001,-14.36613,90.02717,-88.81828,0.62210,0.24260,0.49820
0.70300,Pose_Setup,21.09316,14.73228,89.98014,-14.34822,90.02717,-88.64095,0.62210,0.24227,0.49842
0.70400,Pose_Setup,21.06367,14.71283,89.98015,-14.33032,90.02717,-88.46302,0.62210,0.24194,0.49863
0.70500,Pose_Setup,21.03430,14.69349,89.98016,-14.31241,90.02717,-88.28539,0.62210,0.24162,0.49885
0.70600,Pose_Setup,21.00482,14.67419,89.98016,-14.29450,90.02702,-88.10746,0.62210,0.24129,0.49907
0.70700,Pose_Setup,20.97545,14.65474,89.98018,-14.27630,90.02702,-87.92938,0.62209,0.24096,0.49928
0.70800,Pose_Setup,20.94596,14.63536,89.98019,-14.25840,90.02688,-87.75116,0.62209,0.24064,0.49950
0.70900,Pose_Setup,20.91636,14.61591,89.98020,-14.24049,90.02688,-87.57234,0.62209,0.24031,0.49972
0.71000,Pose_Setup,20.88687,14.59645,89.98021,-14.22258,90.02689,-87.39338,0.62209,0.23998,0.49993
0.71100,Pose_Setup,20.85738,14.57700,89.98022,-14.20483,90.02673,-87.21456,0.62209,0.23965,0.50015
0.71200,Pose_Setup,20.79959,14.53880,89.98012,-14.16916,90.02674,-86.85678,0.62208,0.23933,0.50037
0.71300,Pose_Setup,20.77058,14.51947,89.98013,-14.15140,90.02674,-86.67826,0.62208,0.23900,0.50058
0.71400,Pose_Setup,20.74097,14.49989,89.98014,-14.13365,90.02660,-86.49871,0.62208,0.23867,0.50080
0.71500,Pose_Setup,20.71125,14.48020,89.98015,-14.11574,90.02660,-86.31930,0.62208,0.23835,0.50102
0.71600,Pose_Setup,20.68129,14.46027,89.98016,-14.09768,90.02660,-86.13901,0.62207,0.23802,0.50123
0.71700,Pose_Setup,20.65204,14.44094,89.98017,-14.07978,90.02645,-85.95856,0.62207,0.23769,0.50145
0.71800,Pose_Setup,20.65204,14.44094,89.98017,-14.07978,90.02645,-85.95856,0.62206,0.23737,0.50167
0.71900,Pose_Setup,20.62267,14.42148,89.98018,-14.06187,90.02645,-85.77811,0.62206,0.23704,0.50188
0.72000,Pose_Setup,20.59330,14.40191,89.98019,-14.04382,90.02645,-85.59737,0.62206,0.23671,0.50210
0.72100,Pose_Setup,20.56393,14.38245,89.98020,-14.02591,90.02631,-85.41575,0.62205,0.23639,0.50231
0.72200,Pose_Setup,20.53421,14.36288,89.98021,-14.00771,90.02631,-85.23397,0.62205,0.23606,0.50253
0.72300,Pose_Setup,20.50460,14.34343,89.98022,-13.98951,90.02631,-85.05145,0.62204,0.23573,0.50275
0.72400,Pose_Setup,20.47512,14.32397,89.98023,-13.97145,90.02616,-84.86864,0.62204,0.23541,0.50296
0.72500,Pose_Setup,20.44563,14.30440,89.98024,-13.95355,90.02616,-84.68539,0.62203,0.23508,0.50318
0.72600,Pose_Setup,20.41626,14.28483,89.98025,-13.93564,90.02616,-84.50213,0.62202,0.23475,0.50340
0.72700,Pose_Setup,20.38678,14.26525,89.98026,-13.91773,90.02602,-84.31769,0.62202,0.23443,0.50361
0.72800,Pose_Setup,20.35717,14.24580,89.98027,-13.89997,90.02602,-84.13384,0.62201,0.23410,0.50383
0.72900,Pose_Setup,20.32768,14.22611,89.98028,-13.88207,90.02602,-83.94955,0.62201,0.23377,0.50404
0.73000,Pose_Setup,20.29808,14.20665,89.98029,-13.86401,90.02602,-83.76526,0.62200,0.23345,0.50426
0.73100,Pose_Setup,20.26871,14.18708,89.98030,-13.84626,90.02588,-83.58081,0.62199,0.23312,0.50448
0.73200,Pose_Setup,20.23934,14.16762,89.98031,-13.82835,90.02588,-83.39563,0.62198,0.23280,0.50469
0.73300,Pose_Setup,20.20997,14.14805,89.98032,-13.81029,90.02588,-83.21090,0.62198,0.23247,0.50491
0.73400,Pose_Setup,20.18049,14.12860,89.98033,-13.79224,90.02573,-83.02601,0.62197,0.23214,0.50513
0.73500,Pose_Setup,20.15088,14.10926,89.98034,-13.77404,90.02573,-82.84054,0.62196,0.23182,0.50534
0.73600,Pose_Setup,20.12128,14.08957,89.98035,-13.75613,90.02573,-82.65432,0.62195,0.23149,0.50556
0.73700,Pose_Setup,20.12128,14.08957,89.98035,-13.75613,90.02573,-82.65432,0.62195,0.23117,0.50577
0.73800,Pose_Setup,20.06242,14.05054,89.98037,-13.72047,90.02559,-82.28218,0.62194,0.23084,0.50599
0.73900,Pose_Setup,20.03293,14.03108,89.98038,-13.70256,90.02559,-82.09508,0.62193,0.23051,0.50620
0.74000,Pose_Setup,20.00345,14.01163,89.98038,-13.68465,90.02544,-81.90812,0.62192,0.23019,0.50642
0.74100,Pose_Setup,19.97396,13.99218,89.98039,-13.66689,90.02544,-81.72131,0.62191,0.22986,0.50664
0.74200,Pose_Setup,19.94447,13.97272,89.98041,-13.64884,90.02544,-81.53435,0.62190,0.22954,0.50685
0.74300,Pose_Setup,19.91511,13.95327,89.98042,-13.63108,90.02530,-81.34695,0.62189,0.22921,0.50707
0.74400,Pose_Setup,19.88562,13.93369,89.98042,-13.61318,90.02530,-81.15970,0.62188,0.22889,0.50728
0.74500,Pose_Setup,19.85637,13.91412,89.98043,-13.59512,90.02531,-80.97170,0.62187,0.22856,0.50750
0.74600,Pose_Setup,19.82676,13.89455,89.98045,-13.57707,90.02531,-80.78400,0.62186,0.22823,0.50771
0.74700,Pose_Setup,19.79728,13.87533,89.98045,-13.55916,90.02516,-80.59572,0.62185,0.22791,0.50793
0.74800,Pose_Setup,19.76791,13.85611,89.98046,-13.54125,90.02516,-80.40668,0.62184,0.22758,0.50815
0.74900,Pose_Setup,19.73866,13.83689,89.98047,-13.52350,90.02516,-80.21751,0.62183,0.22726,0.50836
0.75000,Pose_Setup,19.70917,13.81732,89.98048,-13.50559,90.02502,-80.02759,0.62182,0.22693,0.50858
0.75100,Pose_Setup,19.67968,13.79763,89.98049,-13.48783,90.02502,-79.83768,0.62180,0.22661,0.50879
0.75200,Pose_Setup,19.65032,13.77817,89.98050,-13.47007,90.02502,-79.64805,0.62179,0.22628,0.50901
0.75300,Pose_Setup,19.62095,13.75860,89.98051,-13.45217,90.02487,-79.45740,0.62178,0.22596,0.50922
0.75400,Pose_Setup,19.59158,13.73914,89.98052,-13.43441,90.02487,-79.26718,0.62177,0.22563,0.50944
0.75500,Pose_Setup,19.56197,13.71981,89.98053,-13.41650,90.02487,-79.07638,0.62175,0.22531,0.50965
0.75600,Pose_Setup,19.50324,13.68113,89.98055,-13.38069,90.02473,-78.69432,0.62174,0.22498,0.50987
0.75700,Pose_Setup,19.47375,13.66191,89.98056,-13.36219,90.02473,-78.50336,0.62173,0.22466,0.51008
0.75800,Pose_Setup,19.44438,13.64258,89.98068,-13.34399,90.02473,-78.31167,0.62172,0.22433,0.51030
0.75900,Pose_Setup,19.41513,13.62324,89.98070,-13.32593,90.02458,-78.11998,0.62170,0.22401,0.51051
0.76000,Pose_Setup,19.41513,13.62324,89.98070,-13.32593,90.02458,-78.11998,0.62169,0.22368,0.51073
0.76100,Pose_Setup,19.35651,13.58469,89.98071,-13.29027,90.02459,-77.73526,0.62167,0.22336,0.51095
0.76200,Pose_Setup,19.35651,13.58469,89.98071,-13.29027,90.02459,-77.73526,0.62166,0.22304,0.51116
0.76300,Pose_Setup,19.32714,13.56559,89.98072,-13.27206,90.02459,-77.54297,0.62165,0.22271,0.51138
0.76400,Pose_Setup,19.29778,13.54637,89.98074,-13.25401,90.02444,-77.34965,0.62163,0.22239,0.51159
0.76500,Pose_Setup,19.26829,13.52703,89.98074,-13.23610,90.02444,-77.15662,0.62162,0.22206,0.51181
0.76600,Pose_Setup,19.23880,13.50746,89.98075,-13.21834,90.02444,-76.96375,0.62160,0.22174,0.51202
0.76700,Pose_Setup,19.20943,13.48789,89.98076,-13.20044,90.02430,-76.77042,0.62159,0.22141,0.51224
0.76800,Pose_Setup,19.18007,13.46855,89.98077,-13.18238,90.02430,-76.57725,0.62157,0.22109,0.51245
0.76900,Pose_Setup,19.15058,13.44957,89.98078,-13.16433,90.02430,-76.38333,0.62155,0.22076,0.51267
0.77000,Pose_Setup,19.12133,13.43035,89.98079,-13.14642,90.02415,-76.18927,0.62154,0.22044,0.51288
0.77100,Pose_Setup,19.09220,13.41125,89.98080,-13.12852,90.02415,-75.99491,0.62152,0.22012,0.51309
0.77200,Pose_Setup,19.06283,13.39191,89.98080,-13.11046,90.02415,-75.79981,0.62150,0.21979,0.51331
0.77300,Pose_Setup,19.03346,13.37281,89.98082,-13.09241,90.02401,-75.60427,0.62149,0.21947,0.51352
0.77400,Pose_Setup,19.00397,13.35359,89.98083,-13.07450,90.02401,-75.40858,0.62147,0.21914,0.51374
0.77500,Pose_Setup,18.97437,13.33426,89.98083,-13.05659,90.02402,-75.21259,0.62145,0.21882,0.51395
0.77600,Pose_Setup,18.94512,13.31480,89.98084,-13.03854,90.02386,-75.01587,0.62144,0.21850,0.51417
0.77700,Pose_Setup,18.91575,13.29558,89.98085,-13.02063,90.02387,-74.81973,0.62142,0.21817,0.51438
0.77800,Pose_Setup,18.88662,13.27648,89.98087,-13.00258,90.02387,-74.62300,0.62140,0.21785,0.51460
0.77900,Pose_Setup,18.85737,13.25738,89.98087,-12.98452,90.02373,-74.42672,0.62138,0.21753,0.51481
0.78000,Pose_Setup,18.82788,13.23793,89.98088,-12.96676,90.02373,-74.23044,0.62136,0.21720,0.51503
0.78100,Pose_Setup,18.79840,13.21859,89.98101,-12.94886,90.02358,-74.03474,0.62135,0.21688,0.51524
0.78200,Pose_Setup,18.76903,13.19926,89.98102,-12.93110,90.02358,-73.83832,0.62133,0.21655,0.51546
0.78300,Pose_Setup,18.73966,13.18004,89.98103,-12.91334,90.02358,-73.64292,0.62131,0.21623,0.51567
0.78400,Pose_Setup,18.68080,13.14148,89.98116,-12.87768,90.02344,-73.25214,0.62129,0.21591,0.51588
0.78500,Pose_Setup,18.65132,13.12203,89.98117,-12.85947,90.02344,-73.05718,0.62127,0.21558,0.51610
0.78600,Pose_Setup,18.62207,13.10257,89.98118,-12.84157,90.02344,-72.86194,0.62125,0.21526,0.51631
0.78700,Pose_Setup,18.59258,13.08323,89.98119,-12.82366,90.02329,-72.66817,0.62123,0.21494,0.51653
0.78800,Pose_Setup,18.56309,13.06425,89.98132,-12.80590,90.02329,-72.47440,0.62121,0.21462,0.51674
0.78900,Pose_Setup,18.53361,13.04515,89.98132,-12.78814,90.02329,-72.28152,0.62119,0.21429,0.51696
0.79000,Pose_Setup,18.53361,13.04515,89.98132,-12.78814,90.02329,-72.28152,0.62117,0.21397,0.51717
0.79100,Pose_Setup,18.50412,13.02594,89.98145,-12.77024,90.02315,-72.08865,0.62115,0.21365,0.51738
0.79200,Pose_Setup,18.47487,13.00660,89.98146,-12.75233,90.02315,-71.89651,0.62112,0.21332,0.51760
0.79300,Pose_Setup,18.44574,12.98702,89.98148,-12.73442,90.02316,-71.70407,0.62110,0.21300,0.51781
0.79400,Pose_Setup,18.41649,12.96769,89.98160,-12.71681,90.02316,-71.51238,0.62108,0.21268,0.51803
0.79500,Pose_Setup,18.38688,12.94835,89.98161,-12.69905,90.02301,-71.32024,0.62106,0.21236,0.51824
0.79600,Pose_Setup,18.35728,12.92890,89.98162,-12.68115,90.02301,-71.12840,0.62104,0.21203,0.51846
0.79700,Pose_Setup,18.32767,12.90944,89.98174,-12.66324,90.02301,-70.93700,0.62102,0.21171,0.51867
0.79800,Pose_Setup,18.29818,12.88999,89.98175,-12.64518,90.02287,-70.74605,0.62099,0.21139,0.51888
0.79900,Pose_Setup,18.26893,12.87065,89.98188,-12.62698,90.02287,-70.55539,0.62097,0.21106,0.51910
0.80000,Pose_Setup,18.23945,12.85131,89.98189,-12.60908,90.02287,-70.36503,0.62095,0.21074,0.51931
0.80100,Pose_Setup,18.21008,12.83197,89.98190,-12.59117,90.02287,-70.17541,0.62092,0.21042,0.51953
0.80200,Pose_Setup,18.18071,12.81252,89.98191,-12.57326,90.02287,-69.98623,0.62090,0.21010,0.51974
0.80300,Pose_Setup,18.15122,12.79318,89.98192,-12.55536,90.02272,-69.79720,0.62088,0.20978,0.51995
0.80400,Pose_Setup,18.12174,12.77373,89.98193,-12.53745,90.02272,-69.60861,0.62085,0.20945,0.52017
0.80500,Pose_Setup,18.09249,12.75427,89.98193,-12.51969,90.02273,-69.41988,0.62083,0.20913,0.52038
0.80600,Pose_Setup,18.06300,12.73497,89.98193,-12.50163,90.02273,-69.23233,0.62080,0.20881,0.52059
0.80700,Pose_Setup,18.03339,12.71552,89.98195,-12.48387,90.02258,-69.04449,0.62078,0.20849,0.52081
0.80800,Pose_Setup,18.00367,12.69590,89.98196,-12.46597,90.02258,-68.85693,0.62075,0.20817,0.52102
0.80900,Pose_Setup,17.97454,12.67657,89.98197,-12.44806,90.02258,-68.66998,0.62073,0.20784,0.52124
0.81000,Pose_Setup,17.94517,12.65711,89.98198,-12.43030,90.02244,-68.48302,0.62070,0.20752,0.52145
0.81100,Pose_Setup,17.88643,12.61856,89.98199,-12.39479,90.02244,-68.11118,0.62068,0.20720,0.52166
0.81200,Pose_Setup,17.85754,12.59922,89.98200,-12.37703,90.02244,-67.92674,0.62065,0.20688,0.52188
0.81300,Pose_Setup,17.82853,12.57988,89.98190,-12.35912,90.02245,-67.74215,0.62063,0.20656,0.52209
0.81400,Pose_Setup,17.82853,12.57988,89.98190,-12.35912,90.02245,-67.74215,0.62060,0.20624,0.52230
0.81500,Pose_Setup,17.79904,12.56031,89.98190,-12.34107,90.02245,-67.55801,0.62057,0.20591,0.52252
0.81600,Pose_Setup,17.76932,12.54074,89.98191,-12.32301,90.02229,-67.37445,0.62055,0.20559,0.52273
0.81700,Pose_Setup,17.73959,12.52116,89.98193,-12.30510,90.02230,-67.19031,0.62052,0.20527,0.52294
0.81800,Pose_Setup,17.71022,12.50159,89.98193,-12.28705,90.02230,-67.00646,0.62049,0.20495,0.52316
0.81900,Pose_Setup,17.68074,12.48213,89.98194,-12.26870,90.02230,-66.82202,0.62046,0.20463,0.52337
0.82000,Pose_Setup,17.65125,12.46268,89.98195,-12.25064,90.02216,-66.63773,0.62044,0.20431,0.52358
0.82100,Pose_Setup,17.62188,12.44322,89.98196,-12.23259,90.02216,-66.45388,0.62041,0.20399,0.52380
0.82200,Pose_Setup,17.59251,12.42377,89.98196,-12.21468,90.02216,-66.26974,0.62038,0.20367,0.52401
0.82300,Pose_Setup,17.56314,12.40455,89.98197,-12.19692,90.02216,-66.08604,0.62035,0.20334,0.52422
0.82400,Pose_Setup,17.53378,12.38497,89.98198,-12.17902,90.02216,-65.90248,0.62032,0.20302,0.52444
0.82500,Pose_Setup,17.50417,12.36528,89.98199,-12.16111,90.02216,-65.71922,0.62029,0.20270,0.52465
0.82600,Pose_Setup,17.47468,12.34559,89.98200,-12.14291,90.02202,-65.53671,0.62027,0.20238,0.52486
0.82700,Pose_Setup,17.44520,12.32601,89.98201,-12.12500,90.02202,-65.35448,0.62024,0.20206,0.52507
0.82800,Pose_Setup,17.41583,12.30656,89.98202,-12.10680,90.02202,-65.17226,0.62021,0.20174,0.52529
0.82900,Pose_Setup,17.38658,12.28675,89.98203,-12.08889,90.02202,-64.99064,0.62018,0.20142,0.52550
0.83000,Pose_Setup,17.35721,12.26753,89.98203,-12.07084,90.02187,-64.80856,0.62015,0.20110,0.52571
0.83100,Pose_Setup,17.32772,12.24819,89.98204,-12.05278,90.02187,-64.62738,0.62012,0.20078,0.52593
0.83200,Pose_Setup,17.29836,12.22873,89.98205,-12.03443,90.02187,-64.44620,0.62009,0.20046,0.52614
0.83300,Pose_Setup,17.23950,12.18982,89.98219,-11.99817,90.02188,-64.08442,0.62005,0.20014,0.52635
0.83400,Pose_Setup,17.21013,12.17025,89.98219,-11.98026,90.02188,-63.90398,0.62002,0.19982,0.52657
0.83500,Pose_Setup,17.18112,12.15079,89.98220,-11.96221,90.02174,-63.72368,0.61999,0.19950,0.52678
0.83600,Pose_Setup,17.15163,12.13134,89.98222,-11.94430,90.02174,-63.54368,0.61996,0.19918,0.52699
0.83700,Pose_Setup,17.12226,12.11176,89.98222,-11.92640,90.02174,-63.36442,0.61993,0.19886,0.52720
0.83800,Pose_Setup,17.09266,12.09219,89.98223,-11.90849,90.02174,-63.18546,0.61990,0.19854,0.52742
0.83900,Pose_Setup,17.09266,12.09219,89.98223,-11.90849,90.02174,-63.18546,0.61987,0.19822,0.52763
0.84000,Pose_Setup,17.06329,12.07273,89.98224,-11.89058,90.02174,-63.00605,0.61983,0.19790,0.52784
0.84100,Pose_Setup,17.03428,12.05328,89.98225,-11.87253,90.02174,-62.82783,0.61980,0.19758,0.52805
0.84200,Pose_Setup,17.00491,12.03394,89.98225,-11.85447,90.02159,-62.64916,0.61977,0.19726,0.52827
0.84300,Pose_Setup,16.97566,12.01460,89.98226,-11.83657,90.02160,-62.47064,0.61974,0.19694,0.52848
0.84400,Pose_Setup,16.94629,11.99503,89.98227,-11.81866,90.02160,-62.29197,0.61970,0.19662,0.52869
0.84500,Pose_Setup,16.91656,11.97557,89.98228,-11.80075,90.02160,-62.11360,0.61967,0.19630,0.52890
0.84600,Pose_Setup,16.88708,11.95588,89.98229,-11.78299,90.02160,-61.93538,0.61963,0.19598,0.52912
0.84700,Pose_Setup,16.85783,11.93643,89.98230,-11.76494,90.02160,-61.75745,0.61960,0.19566,0.52933
0.84800,Pose_Setup,16.82846,11.91697,89.98231,-11.74688,90.02145,-61.57982,0.61957,0.19534,0.52954
0.84900,Pose_Setup,16.79921,11.89751,89.98232,-11.72883,90.02145,-61.40322,0.61953,0.19502,0.52975
0.85000,Pose_Setup,16.76972,11.87830,89.98232,-11.71092,90.02146,-61.22618,0.61950,0.19470,0.52997
0.85100,Pose_Setup,16.74035,11.85908,89.98233,-11.69331,90.02146,-61.05003,0.61946,0.19438,0.53018
0.85200,Pose_Setup,16.71099,11.83962,89.98234,-11.67540,90.02146,-60.87388,0.61943,0.19407,0.53039
0.85300,Pose_Setup,16.68162,11.82028,89.98235,-11.65779,90.02146,-60.69773,0.61939,0.19375,0.53060
0.85400,Pose_Setup,16.65237,11.80071,89.98235,-11.63988,90.02146,-60.52246,0.61936,0.19343,0.53081
0.85500,Pose_Setup,16.62300,11.78125,89.98236,-11.62227,90.02132,-60.34705,0.61932,0.19311,0.53103
0.85600,Pose_Setup,16.59363,11.76168,89.98237,-11.60452,90.02132,-60.17224,0.61929,0.19279,0.53124
0.85700,Pose_Setup,16.56414,11.74246,89.98238,-11.58690,90.02132,-59.99712,0.61925,0.19247,0.53145
0.85800,Pose_Setup,16.50529,11.70390,89.98240,-11.55079,90.02132,-59.64852,0.61921,0.19215,0.53166
0.85900,Pose_Setup,16.47604,11.68457,89.98241,-11.53259,90.02118,-59.47429,0.61918,0.19183,0.53188
0.86000,Pose_Setup,16.44667,11.66523,89.98253,-11.51454,90.02118,-59.30080,0.61914,0.19152,0.53209
0.86100,Pose_Setup,16.41718,11.64601,89.98254,-11.49648,90.02118,-59.12732,0.61910,0.19120,0.53230
0.86200,Pose_Setup,16.38782,11.62655,89.98254,-11.47872,90.02118,-58.95442,0.61906,0.19088,0.53251
0.86300,Pose_Setup,16.38782,11.62655,89.98254,-11.47872,90.02118,-58.95442,0.61903,0.19056,0.53272
0.86400,Pose_Setup,16.35845,11.60722,89.98256,-11.46081,90.02118,-58.78153,0.61899,0.19024,0.53293
0.86500,Pose_Setup,16.32920,11.58776,89.98257,-11.44276,90.02119,-58.60878,0.61895,0.18992,0.53315
0.86600,Pose_Setup,16.29983,11.56854,89.98257,-11.42500,90.02103,-58.43692,0.61891,0.18961,0.53336
0.86700,Pose_Setup,16.27046,11.54944,89.98258,-11.40709,90.02104,-58.26477,0.61887,0.18929,0.53357
0.86800,Pose_Setup,16.24109,11.52987,89.98259,-11.38933,90.02104,-58.09232,0.61884,0.18897,0.53378
0.86900,Pose_Setup,16.21161,11.51041,89.98260,-11.37128,90.02104,-57.92046,0.61880,0.18865,0.53399
0.87000,Pose_Setup,16.18224,11.49095,89.98260,-11.35322,90.02104,-57.74860,0.61876,0.18834,0.53420
0.87100,Pose_Setup,16.15287,11.47162,89.98261,-11.33532,90.02090,-57.57689,0.61872,0.18802,0.53442
0.87200,Pose_Setup,16.12338,11.45228,89.98274,-11.31711,90.02090,-57.40533,0.61868,0.18770,0.53463
0.87300,Pose_Setup,16.09401,11.43294,89.98275,-11.29906,90.02090,-57.23421,0.61864,0.18738,0.53484
0.87400,Pose_Setup,16.06464,11.41372,89.98276,-11.28100,90.02090,-57.06294,0.61860,0.18707,0.53505
0.87500,Pose_Setup,16.03528,11.39439,89.98277,-11.26310,90.02090,-56.89272,0.61856,0.18675,0.53526
0.87600,Pose_Setup,16.00603,11.37505,89.98277,-11.24519,90.02075,-56.72234,0.61852,0.18643,0.53547
0.87700,Pose_Setup,15.97654,11.35571,89.98289,-11.22713,90.02076,-56.55270,0.61848,0.18611,0.53569
0.87800,Pose_Setup,15.94705,11.33625,89.98290,-11.20923,90.02076,-56.38306,0.61844,0.18580,0.53590
0.87900,Pose_Setup,15.91768,11.31692,89.98291,-11.19147,90.02076,-56.21357,0.61839,0.18548,0.53611
0.88000,Pose_Setup,15.88832,11.29734,89.98293,-11.17386,90.02076,-56.04497,0.61835,0.18516,0.53632
0.88100,Pose_Setup,15.85883,11.27789,89.98293,-11.15595,90.02061,-55.87592,0.61831,0.18485,0.53653
0.88200,Pose_Setup,15.82946,11.25855,89.98306,-11.13804,90.02061,-55.70747,0.61827,0.18453,0.53674
0.88300,Pose_Setup,15.79997,11.23933,89.98306,-11.11999,90.02061,-55.53886,0.61823,0.18421,0.53695
0.88400,Pose_Setup,15.77061,11.22011,89.98307,-11.10193,90.02062,-55.37056,0.61818,0.18390,0.53716
0.88500,Pose_Setup,15.71187,11.18108,89.98321,-11.06597,90.02047,-55.03558,0.61814,0.18358,0.53738
0.88600,Pose_Setup,15.68238,11.16174,89.98322,-11.04792,90.02048,-54.86816,0.61810,0.18326,0.53759
0.88700,Pose_Setup,15.65289,11.14229,89.98322,-11.02971,90.02048,-54.70104,0.61806,0.18295,0.53780
0.88800,Pose_Setup,15.62341,11.12295,89.98323,-11.01151,90.02048,-54.53436,0.61801,0.18263,0.53801
0.88900,Pose_Setup,15.59404,11.10326,89.98335,-10.99331,90.02033,-54.36798,0.61797,0.18231,0.53822
0.89000,Pose_Setup,15.56443,11.08380,89.98336,-10.97525,90.02033,-54.20219,0.61793,0.18200,0.53843
0.89100,Pose_Setup,15.53507,11.06434,89.98337,-10.95734,90.02033,-54.03655,0.61788,0.18168,0.53864
0.89200,Pose_Setup,15.53507,11.06434,89.98337,-10.95734,90.02033,-54.03655,0.61784,0.18137,0.53885
0.89300,Pose_Setup,15.50570,11.04489,89.98338,-10.93958,90.02033,-53.87076,0.61779,0.18105,0.53906
0.89400,Pose_Setup,15.47645,11.02567,89.98339,-10.92168,90.02034,-53.70527,0.61775,0.18073,0.53927
0.89500,Pose_Setup,15.44708,11.00609,89.98340,-10.90377,90.02019,-53.53977,0.61770,0.18042,0.53948
0.89600,Pose_Setup,15.41759,10.98664,89.98341,-10.88586,90.02020,-53.37413,0.61766,0.18010,0.53970
0.89700,Pose_Setup,15.38799,10.96718,89.98341,-10.86781,90.02020,-53.20908,0.61761,0.17979,0.53991
0.89800,Pose_Setup,15.35862,10.94761,89.98342,-10.84975,90.02020,-53.04403,0.61757,0.17947,0.54012
0.89900,Pose_Setup,15.32925,10.92827,89.98343,-10.83170,90.02005,-52.87913,0.61752,0.17916,0.54033
0.90000,Pose_Setup,15.29988,10.90893,89.98344,-10.81349,90.02005,-52.71467,0.61748,0.17884,0.54054
0.90100,Pose_Setup,15.27051,10.88936,89.98344,-10.79544,90.02005,-52.55022,0.61743,0.17852,0.54075
0.90200,Pose_Setup,15.24115,10.86978,89.98345,-10.77724,90.02005,-52.38694,0.61738,0.17821,0.54096
0.90300,Pose_Setup,15.21154,10.85009,89.98346,-10.75903,90.02005,-52.22322,0.61734,0.17789,0.54117
0.90400,Pose_Setup,15.18205,10.83063,89.98347,-10.74083,90.02006,-52.06069,0.61729,0.17758,0.54138
0.90500,Pose_Setup,15.15280,10.81106,89.98347,-10.72262,90.02006,-51.89772,0.61724,0.17726,0.54159
0.90600,Pose_Setup,15.12343,10.79152,89.98347,-10.70457,90.01991,-51.73533,0.61720,0.17695,0.54180
0.90700,Pose_Setup,15.09395,10.77195,89.98349,-10.68666,90.01991,-51.57354,0.61715,0.17663,0.54201
0.90800,Pose_Setup,15.06446,10.75245,89.98350,-10.66890,90.01991,-51.41145,0.61710,0.17632,0.54222
0.90900,Pose_Setup,15.03485,10.73311,89.98351,-10.65100,90.01991,-51.24995,0.61705,0.17600,0.54243
0.91000,Pose_Setup,15.00549,10.71366,89.98351,-10.63309,90.01977,-51.08875,0.61700,0.17569,0.54264
0.91100,Pose_Setup,14.97600,10.69420,89.98352,-10.61503,90.01977,-50.92770,0.61696,0.17538,0.54285
0.91200,Pose_Setup,14.94675,10.67474,89.98353,-10.59727,90.01977,-50.76739,0.61691,0.17506,0.54306
0.91300,Pose_Setup,14.91786,10.65553,89.98341,-10.57952,90.01992,-50.60752,0.61686,0.17475,0.54327
0.91400,Pose_Setup,14.85947,10.61661,89.98343,-10.54400,90.01978,-50.28897,0.61681,0.17443,0.54348
0.91500,Pose_Setup,14.85947,10.61661,89.98343,-10.54400,90.01978,-50.28897,0.61676,0.17412,0.54369
0.91600,Pose_Setup,14.80038,10.57723,89.98344,-10.50803,90.01963,-49.97071,0.61671,0.17380,0.54390
0.91700,Pose_Setup,14.77078,10.55765,89.98345,-10.48983,90.01963,-49.81232,0.61666,0.17349,0.54411
0.91800,Pose_Setup,14.77078,10.55765,89.98345,-10.48983,90.01963,-49.81232,0.61661,0.17318,0.54432
0.91900,Pose_Setup,14.74129,10.53808,89.98346,-10.47192,90.01963,-49.65349,0.61656,0.17286,0.54453
0.92000,Pose_Setup,14.71180,10.51862,89.98347,-10.45402,90.01963,-49.49495,0.61651,0.17255,0.54474
0.92100,Pose_Setup,14.68255,10.49928,89.98347,-10.43626,90.01964,-49.33686,0.61646,0.17223,0.54495
0.92200,Pose_Setup,14.65307,10.47983,89.98348,-10.41835,90.01964,-49.17833,0.61641,0.17192,0.54516
0.92300,Pose_Setup,14.62358,10.46025,89.98360,-10.40029,90.01964,-49.02008,0.61636,0.17161,0.54537
0.92400,Pose_Setup,14.59421,10.44068,89.98361,-10.38224,90.01964,-48.86155,0.61630,0.17129,0.54558
0.92500,Pose_Setup,14.56484,10.42122,89.98362,-10.36433,90.01949,-48.70361,0.61625,0.17098,0.54579
0.92600,Pose_Setup,14.53536,10.40164,89.98363,-10.34657,90.01949,-48.54536,0.61620,0.17067,0.54600
0.92700,Pose_Setup,14.50611,10.38219,89.98363,-10.32866,90.01949,-48.38787,0.61615,0.17035,0.54621
0.92800,Pose_Setup,14.47674,10.36297,89.98364,-10.31076,90.01950,-48.23037,0.61610,0.17004,0.54642
0.92900,Pose_Setup,14.44725,10.34339,89.98365,-10.29285,90.01950,-48.07331,0.61604,0.16973,0.54663
0.93000,Pose_Setup,14.41764,10.32382,89.98366,-10.27494,90.01936,-47.91670,0.61599,0.16941,0.54684
0.93100,Pose_Setup,14.38816,10.30424,89.98367,-10.25704,90.01936,-47.76023,0.61594,0.16910,0.54705
0.93200,Pose_Setup,14.35903,10.28467,89.98367,-10.23928,90.01936,-47.60406,0.61588,0.16879,0.54726
0.93300,Pose_Setup,14.32966,10.26557,89.98368,-10.22137,90.01936,-47.44864,0.61583,0.16848,0.54747
0.93400,Pose_Setup,14.30017,10.24635,89.98369,-10.20346,90.01936,-47.29306,0.61578,0.16816,0.54768
0.93500,Pose_Setup,14.27092,10.22701,89.98370,-10.18570,90.01936,-47.13778,0.61572,0.16785,0.54789
0.93600,Pose_Setup,14.24155,10.20732,89.98370,-10.16779,90.01921,-46.98280,0.61567,0.16754,0.54810
0.93700,Pose_Setup,14.21218,10.18739,89.98371,-10.15003,90.01921,-46.82796,0.61562,0.16723,0.54831
0.93800,Pose_Setup,14.18293,10.16793,89.98372,-10.13198,90.01922,-46.67313,0.61556,0.16691,0.54852
0.93900,Pose_Setup,14.15345,10.14847,89.98373,-10.11392,90.01922,-46.51874,0.61551,0.16660,0.54873
0.94000,Pose_Setup,14.12408,10.12902,89.98373,-10.09587,90.01922,-46.36479,0.61545,0.16629,0.54893
0.94100,Pose_Setup,14.09483,10.10968,89.98374,-10.07781,90.01907,-46.21129,0.61540,0.16598,0.54914
0.94200,Pose_Setup,14.06534,10.09022,89.98375,-10.06005,90.01907,-46.05764,0.61534,0.16567,0.54935
0.94300,Pose_Setup,14.00672,10.05155,89.98376,-10.02409,90.01907,-45.75137,0.61528,0.16535,0.54956
0.94400,Pose_Setup,13.97747,10.03233,89.98377,-10.00618,90.01908,-45.59905,0.61523,0.16504,0.54977
0.94500,Pose_Setup,13.97747,10.03233,89.98377,-10.00618,90.01908,-45.59905,0.61517,0.16473,0.54998
0.94600,Pose_Setup,13.91886,9.99329,89.98378,-9.97052,90.01894,-45.29471,0.61512,0.16442,0.55019
0.94700,Pose_Setup,13.88937,9.97396,89.98379,-9.95276,90.01894,-45.14313,0.61506,0.16411,0.55040
0.94800,Pose_Setup,13.85988,9.95485,89.98380,-9.93500,90.01894,-44.99140,0.61500,0.16380,0.55061
0.94900,Pose_Setup,13.85988,9.95485,89.98380,-9.93500,90.01894,-44.99140,0.61495,0.16348,0.55082
0.95000,Pose_Setup,13.83051,9.93575,89.98380,-9.91709,90.01879,-44.84027,0.61489,0.16317,0.55103
0.95100,Pose_Setup,13.80126,9.91630,89.98381,-9.89889,90.01879,-44.68898,0.61483,0.16286,0.55123
0.95200,Pose_Setup,13.77201,9.89672,89.98382,-9.88083,90.01879,-44.53800,0.61477,0.16255,0.55144
0.95300,Pose_Setup,13.74264,9.87715,89.98383,-9.86278,90.01879,-44.38701,0.61472,0.16224,0.55165
0.95400,Pose_Setup,13.71328,9.85781,89.98383,-9.84487,90.01865,-44.23602,0.61466,0.16193,0.55186
0.95500,Pose_Setup,13.68391,9.83871,89.98384,-9.82711,90.01865,-44.08548,0.61460,0.16162,0.55207
0.95600,Pose_Setup,13.65442,9.81961,89.98385,-9.80905,90.01865,-43.93523,0.61454,0.16131,0.55228
0.95700,Pose_Setup,13.62517,9.80039,89.98386,-9.79100,90.01865,-43.78514,0.61448,0.16100,0.55249
0.95800,Pose_Setup,13.59592,9.78105,89.98386,-9.77294,90.01850,-43.63533,0.61442,0.16069,0.55270
0.95900,Pose_Setup,13.56667,9.76171,89.98386,-9.75503,90.01851,-43.48627,0.61436,0.16038,0.55290
0.96000,Pose_Setup,13.53718,9.74261,89.98387,-9.73713,90.01851,-43.33721,0.61430,0.16007,0.55311
0.96100,Pose_Setup,13.50782,9.72315,89.98388,-9.71937,90.01836,-43.18874,0.61424,0.15976,0.55332
0.96200,Pose_Setup,13.47809,9.70393,89.98389,-9.70161,90.01836,-43.04071,0.61419,0.15945,0.55353
0.96300,Pose_Setup,13.44908,9.68459,89.98402,-9.68385,90.01836,-42.89283,0.61412,0.15914,0.55374
0.96400,Pose_Setup,13.41971,9.66537,89.98402,-9.66609,90.01822,-42.74540,0.61406,0.15883,0.55395
0.96500,Pose_Setup,13.39022,9.64627,89.98402,-9.64833,90.01822,-42.59826,0.61400,0.15852,0.55415
0.96600,Pose_Setup,13.36086,9.62693,89.98403,-9.63042,90.01822,-42.45083,0.61394,0.15821,0.55436
0.96700,Pose_Setup,13.33125,9.60760,89.98404,-9.61251,90.01822,-42.30384,0.61388,0.15790,0.55457
0.96800,Pose_Setup,13.30164,9.58826,89.98417,-9.59461,90.01807,-42.15744,0.61382,0.15759,0.55478
0.96900,Pose_Setup,13.27228,9.56892,89.98418,-9.57670,90.01807,-42.01075,0.61376,0.15728,0.55499
0.97000,Pose_Setup,13.24291,9.54958,89.98418,-9.55879,90.01807,-41.86449,0.61370,0.15697,0.55520
0.97100,Pose_Setup,13.21354,9.53012,89.98418,-9.54088,90.01808,-41.71869,0.61364,0.15666,0.55540
0.97200,Pose_Setup,13.21354,9.53012,89.98418,-9.54088,90.01808,-41.71869,0.61357,0.15635,0.55561
0.97300,Pose_Setup,13.18405,9.51079,89.98431,-9.52283,90.01793,-41.57244,0.61351,0.15604,0.55582
0.97400,Pose_Setup,13.12520,9.47199,89.98444,-9.48701,90.01794,-41.28216,0.61345,0.15573,0.55603
0.97500,Pose_Setup,13.09559,9.45289,89.98445,-9.46925,90.01794,-41.13724,0.61339,0.15542,0.55624
0.97600,Pose_Setup,13.06622,9.43367,89.98446,-9.45149,90.01779,-40.99292,0.61332,0.15511,0.55644
0.97700,Pose_Setup,13.03709,9.41445,89.98458,-9.43388,90.01779,-40.84830,0.61326,0.15480,0.55665
0.97800,Pose_Setup,13.00761,9.39475,89.98471,-9.41627,90.01779,-40.70456,0.61320,0.15450,0.55686
0.97900,Pose_Setup,12.97812,9.37542,89.98472,-9.39866,90.01765,-40.56083,0.61313,0.15419,0.55707
0.98000,Pose_Setup,12.94851,9.35608,89.98484,-9.38090,90.01765,-40.41739,0.61307,0.15388,0.55728
0.98100,Pose_Setup,12.91891,9.33674,89.98496,-9.36314,90.01765,-40.27395,0.61301,0.15357,0.55748
0.98200,Pose_Setup,12.88954,9.31740,89.98497,-9.34553,90.01765,-40.13052,0.61294,0.15326,0.55769
0.98300,Pose_Setup,12.86005,9.29782,89.98510,-9.32777,90.01765,-39.98737,0.61288,0.15295,0.55790
0.98400,Pose_Setup,12.83057,9.27837,89.98522,-9.30971,90.01750,-39.84409,0.61281,0.15265,0.55811
0.98500,Pose_Setup,12.80108,9.25903,89.98523,-9.29181,90.01751,-39.70154,0.61275,0.15234,0.55831
0.98600,Pose_Setup,12.77159,9.23957,89.98524,-9.27375,90.01751,-39.55884,0.61268,0.15203,0.55852
0.98700,Pose_Setup,12.74211,9.22035,89.98536,-9.25569,90.01751,-39.41644,0.61262,0.15172,0.55873
0.98800,Pose_Setup,12.71286,9.20113,89.98537,-9.23779,90.01736,-39.27463,0.61255,0.15141,0.55894
0.98900,Pose_Setup,12.68337,9.18168,89.98537,-9.22003,90.01736,-39.13282,0.61248,0.15111,0.55914
0.99000,Pose_Setup,12.65400,9.16234,89.98538,-9.20212,90.01736,-38.99146,0.61242,0.15080,0.55935
0.99100,Pose_Setup,12.62439,9.14288,89.98539,-9.18421,90.01722,-38.85068,0.61235,0.15049,0.55956
0.99200,Pose_Setup,12.59491,9.12331,89.98540,-9.16645,90.01722,-38.70961,0.61229,0.15018,0.55977
0.99300,Pose_Setup,12.56542,9.10373,89.98540,-9.14854,90.01722,-38.56973,0.61222,0.14988,0.55997
0.99400,Pose_Setup,12.53605,9.08427,89.98540,-9.13064,90.01722,-38.42955,0.61215,0.14957,0.56018
0.99500,Pose_Setup,12.50657,9.06482,89.98541,-9.11273,90.01707,-38.28996,0.61208,0.14926,0.56039
0.99600,Pose_Setup,12.47720,9.04548,89.98542,-9.09453,90.01707,-38.15037,0.61202,0.14896,0.56060
0.99700,Pose_Setup,12.44783,9.02626,89.98543,-9.07632,90.01708,-38.01093,0.61195,0.14865,0.56080
0.99800,Pose_Setup,12.38897,8.98722,89.98544,-9.04021,90.01694,-37.73338,0.61188,0.14834,0.56101
0.99900,Pose_Setup,12.38897,8.98722,89.98544,-9.04021,90.01694,-37.73338,0.61181,0.14803,0.56122
1.00000,Pose_Setup,12.35949,8.96741,89.98544,-9.02215,90.01694,-37.59468,0.61175,0.14773,0.56143
1.00100,Pose_Setup,12.35949,8.96741,89.98544,-9.02215,90.01694,-37.59468,0.61168,0.14742,0.56163
1.00200,Pose_Setup,12.30051,8.92850,89.98546,-8.98619,90.01679,-37.31802,0.61161,0.14712,0.56184
1.00300,Pose_Setup,12.27103,8.90904,89.98547,-8.96828,90.01679,-37.18035,0.61154,0.14681,0.56205
