GriTRini/uon_rt/demo/sim/attrl/robot_joint_data.csv
Time,J1,J2,J3,J4,J5,J6,X,Y,Z
0.000000,0.000000,0.000000,-0.000090,0.000000,-0.000113,0.000000,-0.000001,0.034500,1.452500
0.001000,0.000000,0.000000,-0.000360,0.000000,-0.000450,0.000000,-0.000005,0.034500,1.452500
0.002000,0.000000,0.000000,-0.000810,0.000000,-0.001013,0.000000,-0.000012,0.034500,1.452500
0.003000,0.000000,0.000000,-0.001440,0.000000,-0.001800,0.000000,-0.000021,0.034500,1.452500
0.004000,0.000000,0.000000,-0.002250,0.000000,-0.002812,0.000000,-0.000033,0.034500,1.452500
0.005000,0.000000,0.000000,-0.003240,0.000000,-0.004050,0.000000,-0.000047,0.034500,1.452500
0.006000,0.000000,0.000000,-0.004410,0.000000,-0.005513,0.000000,-0.000064,0.034500,1.452500
0.007000,0.000000,0.000000,-0.005760,0.000000,-0.007200,0.000000,-0.000084,0.034500,1.452500
0.008000,0.000000,0.000000,-0.007290,0.000000,-0.009113,0.000000,-0.000106,0.034500,1.452500
0.009000,0.000000,0.000000,-0.009000,0.000000,-0.011250,0.000000,-0.000131,0.034500,1.452500
0.010000,0.000000,0.000000,-0.010890,0.000000,-0.013613,0.000000,-0.000158,0.034500,1.452500
0.011000,0.000000,0.000000,-0.012960,0.000000,-0.016200,0.000000,-0.000188,0.034500,1.452500
0.012000,0.000000,0.000000,-0.015210,0.000000,-0.019013,0.000000,-0.000221,0.034500,1.452500
0.013000,0.000000,0.000000,-0.017640,0.000000,-0.022050,0.000000,-0.000256,0.034500,1.452500
0.014000,0.000000,0.000000,-0.020250,0.000000,-0.025313,0.000000,-0.000294,0.034500,1.452500
0.015000,0.000000,0.000000,-0.023040,0.000000,-0.028800,0.000000,-0.000334,0.034500,1.452500
0.016000,0.000000,0.000000,-0.026010,0.000000,-0.032513,0.000000,-0.000377,0.034500,1.452500
0.017000,0.000000,0.000000,-0.029160,0.000000,-0.036450,0.000000,-0.000423,0.034500,1.452500
0.018000,0.000000,0.000000,-0.032490,0.000000,-0.040613,0.000000,-0.000471,0.034500,1.452500
0.019000,0.000000,0.000000,-0.036000,0.000000,-0.045000,0.000000,-0.000522,0.034500,1.452500
0.020000,0.000000,0.000000,-0.039690,0.000000,-0.049613,0.000000,-0.000576,0.034500,1.452500
0.021000,0.000000,0.000000,-0.043560,0.000000,-0.054450,0.000000,-0.000632,0.034500,1.452500
0.022000,0.000000,0.000000,-0.047610,0.000000,-0.059513,0.000000,-0.000691,0.034500,1.452500
0.023000,0.000000,0.000000,-0.051840,0.000000,-0.064800,0.000000,-0.000752,0.034500,1.452500
0.024000,0.000000,0.000000,-0.056250,0.000000,-0.070313,0.000000,-0.000816,0.034500,1.452499
0.025000,0.000000,0.000000,-0.060840,0.000000,-0.076050,0.000000,-0.000883,0.034500,1.452499
0.026000,0.000000,0.000000,-0.065610,0.000000,-0.082013,0.000000,-0.000952,0.034500,1.452499
0.027000,0.000000,0.000000,-0.070560,0.000000,-0.088200,0.000000,-0.001024,0.034500,1.452499
0.028000,0.000000,0.000000,-0.075690,0.000000,-0.094613,0.000000,-0.001098,0.034500,1.452499
0.029000,0.000000,0.000000,-0.081000,0.000000,-0.101250,0.000000,-0.001175,0.034500,1.452499
0.030000,0.000000,0.000000,-0.086490,0.000000,-0.108113,0.000000,-0.001255,0.034500,1.452499
0.031000,0.000000,0.000000,-0.092160,0.000000,-0.115200,0.000000,-0.001337,0.034500,1.452498
0.032000,0.000000,0.000000,-0.098010,0.000000,-0.122513,0.000000,-0.001422,0.034500,1.452498
0.033000,0.000000,0.000000,-0.104040,0.000000,-0.130050,0.000000,-0.001509,0.034500,1.452498
0.034000,0.000000,0.000000,-0.110250,0.000000,-0.137813,0.000000,-0.001600,0.034500,1.452498
0.035000,0.000000,0.000000,-0.116640,0.000000,-0.145800,0.000000,-0.001692,0.034500,1.452498
0.036000,0.000000,0.000000,-0.123210,0.000000,-0.154013,0.000000,-0.001788,0.034500,1.452497
0.037000,0.000000,0.000000,-0.129960,0.000000,-0.162450,0.000000,-0.001885,0.034500,1.452497
0.038000,0.000000,0.000000,-0.136890,0.000000,-0.171113,0.000000,-0.001986,0.034500,1.452497
0.039000,0.000000,0.000000,-0.144000,0.000000,-0.180000,0.000000,-0.002089,0.034500,1.452496
0.040000,0.000000,0.000000,-0.151290,0.000000,-0.189113,0.000000,-0.002195,0.034500,1.452496
0.041000,0.000000,0.000000,-0.158760,0.000000,-0.198450,0.000000,-0.002303,0.034500,1.452496
0.042000,0.000000,0.000000,-0.166410,0.000000,-0.208013,0.000000,-0.002414,0.034500,1.452495
0.043000,0.000000,0.000000,-0.174240,0.000000,-0.217800,0.000000,-0.002528,0.034500,1.452495
0.044000,0.000000,0.000000,-0.182250,0.000000,-0.227813,0.000000,-0.002644,0.034500,1.452494
0.045000,0.000000,0.000000,-0.190440,0.000000,-0.238050,0.000000,-0.002763,0.034500,1.452494
0.046000,0.000000,0.000000,-0.198810,0.000000,-0.248513,0.000000,-0.002884,0.034500,1.452493
0.047000,0.000000,0.000000,-0.207360,0.000000,-0.259200,0.000000,-0.003008,0.034500,1.452492
0.048000,0.000000,0.000000,-0.216090,0.000000,-0.270113,0.000000,-0.003135,0.034500,1.452492
0.049000,0.000000,0.000000,-0.225000,0.000000,-0.281250,0.000000,-0.003264,0.034500,1.452491
0.050000,0.000000,0.000000,-0.234090,0.000000,-0.292613,0.000000,-0.003396,0.034500,1.452490
0.051000,0.000000,0.000000,-0.243360,0.000000,-0.304200,0.000000,-0.003531,0.034500,1.452489
0.052000,0.000000,0.000000,-0.252810,0.000000,-0.316013,0.000000,-0.003668,0.034500,1.452489
0.053000,0.000000,0.000000,-0.262440,0.000000,-0.328050,0.000000,-0.003807,0.034500,1.452488
0.054000,0.000000,0.000000,-0.272250,0.000000,-0.340313,0.000000,-0.003950,0.034500,1.452487
0.055000,0.000000,0.000000,-0.282240,0.000000,-0.352800,0.000000,-0.004095,0.034500,1.452486
0.056000,0.000000,0.000000,-0.292410,0.000000,-0.365513,0.000000,-0.004242,0.034500,1.452485
0.057000,0.000000,0.000000,-0.302760,0.000000,-0.378450,0.000000,-0.004392,0.034500,1.452484
0.058000,0.000000,0.000000,-0.313290,0.000000,-0.391613,0.000000,-0.004545,0.034500,1.452482
0.059000,0.000000,0.000000,-0.324000,0.000000,-0.405000,0.000000,-0.004701,0.034500,1.452481
0.060000,0.000000,0.000000,-0.334890,0.000000,-0.418613,0.000000,-0.004859,0.034500,1.452480
0.061000,0.000000,0.000000,-0.345960,0.000000,-0.432450,0.000000,-0.005019,0.034500,1.452479
0.062000,0.000000,0.000000,-0.357210,0.000000,-0.446513,0.000000,-0.005182,0.034500,1.452477
0.063000,0.000000,0.000000,-0.368640,0.000000,-0.460800,0.000000,-0.005348,0.034500,1.452476
0.064000,0.000000,0.000000,-0.380250,0.000000,-0.475313,0.000000,-0.005517,0.034500,1.452474
0.065000,0.000000,0.000000,-0.392040,0.000000,-0.490050,0.000000,-0.005688,0.034500,1.452473
0.066000,0.000000,0.000000,-0.404010,0.000000,-0.505013,0.000000,-0.005861,0.034500,1.452471
0.067000,0.000000,0.000000,-0.416160,0.000000,-0.520200,0.000000,-0.006038,0.034500,1.452469
0.068000,0.000000,0.000000,-0.428490,0.000000,-0.535613,0.000000,-0.006216,0.034500,1.452467
0.069000,0.000000,0.000000,-0.441000,0.000000,-0.551250,0.000000,-0.006398,0.034500,1.452465
0.070000,0.000000,0.000000,-0.453690,0.000000,-0.567113,0.000000,-0.006582,0.034500,1.452463
0.071000,0.000000,0.000000,-0.466560,0.000000,-0.583200,0.000000,-0.006769,0.034500,1.452461
0.072000,0.000000,0.000000,-0.479610,0.000000,-0.599513,0.000000,-0.006958,0.034500,1.452459
0.073000,0.000000,0.000000,-0.492840,0.000000,-0.616050,0.000000,-0.007150,0.034500,1.452457
0.074000,0.000000,0.000000,-0.506250,0.000000,-0.632813,0.000000,-0.007344,0.034500,1.452454
0.075000,0.000000,0.000000,-0.519840,0.000000,-0.649800,0.000000,-0.007542,0.034500,1.452452
0.076000,0.000000,0.000000,-0.533610,0.000000,-0.667013,0.000000,-0.007741,0.034500,1.452449
0.077000,0.000000,0.000000,-0.547560,0.000000,-0.684450,0.000000,-0.007944,0.034500,1.452447
0.078000,0.000000,0.000000,-0.561690,0.000000,-0.702113,0.000000,-0.008149,0.034500,1.452444
0.079000,0.000000,0.000000,-0.576000,0.000000,-0.720000,0.000000,-0.008356,0.034500,1.452441
0.080000,0.000000,0.000000,-0.590490,0.000000,-0.738113,0.000000,-0.008567,0.034500,1.452438
0.081000,0.000000,0.000000,-0.605160,0.000000,-0.756450,0.000000,-0.008779,0.034500,1.452435
0.082000,0.000000,0.000000,-0.620010,0.000000,-0.775013,0.000000,-0.008995,0.034500,1.452431
0.083000,0.000000,0.000000,-0.635040,0.000000,-0.793800,0.000000,-0.009213,0.034500,1.452428
0.084000,0.000000,0.000000,-0.650250,0.000000,-0.812813,0.000000,-0.009433,0.034500,1.452425
0.085000,0.000000,0.000000,-0.665640,0.000000,-0.832050,0.000000,-0.009657,0.034500,1.452421
0.086000,0.000000,0.000000,-0.681210,0.000000,-0.851513,0.000000,-0.009882,0.034500,1.452417
0.087000,0.000000,0.000000,-0.696960,0.000000,-0.871200,0.000000,-0.010111,0.034500,1.452413
0.088000,0.000000,0.000000,-0.712890,0.000000,-0.891113,0.000000,-0.010342,0.034500,1.452409
0.089000,0.000000,0.000000,-0.729000,0.000000,-0.911250,0.000000,-0.010576,0.034500,1.452405
0.090000,0.000000,0.000000,-0.745290,0.000000,-0.931613,0.000000,-0.010812,0.034500,1.452401
0.091000,0.000000,0.000000,-0.761760,0.000000,-0.952200,0.000000,-0.011051,0.034500,1.452396
0.092000,0.000000,0.000000,-0.778410,0.000000,-0.973013,0.000000,-0.011292,0.034500,1.452392
0.093000,0.000000,0.000000,-0.795240,0.000000,-0.994050,0.000000,-0.011537,0.034500,1.452387
0.094000,0.000000,0.000000,-0.812250,0.000000,-1.015313,0.000000,-0.011783,0.034500,1.452382
0.095000,0.000000,0.000000,-0.829440,0.000000,-1.036800,0.000000,-0.012033,0.034500,1.452377
0.096000,0.000000,0.000000,-0.846810,0.000000,-1.058513,0.000000,-0.012285,0.034500,1.452372
0.097000,0.000000,0.000000,-0.864360,0.000000,-1.080450,0.000000,-0.012539,0.034500,1.452367
0.098000,0.000000,0.000000,-0.882090,0.000000,-1.102613,0.000000,-0.012796,0.034500,1.452361
0.099000,0.000000,0.000000,-0.900000,0.000000,-1.125000,0.000000,-0.013056,0.034500,1.452355
0.100000,0.000000,0.000000,-0.918090,0.000000,-1.147613,0.000000,-0.013318,0.034500,1.452350
0.101000,0.000000,0.000000,-0.936360,0.000000,-1.170450,0.000000,-0.013583,0.034500,1.452344
0.102000,0.000000,0.000000,-0.954810,0.000000,-1.193513,0.000000,-0.013851,0.034500,1.452337
0.103000,0.000000,0.000000,-0.973440,0.000000,-1.216800,0.000000,-0.014121,0.034500,1.452331
0.104000,0.000000,0.000000,-0.992250,0.000000,-1.240313,0.000000,-0.014394,0.034500,1.452324
0.105000,0.000000,0.000000,-1.011240,0.000000,-1.264050,0.000000,-0.014669,0.034500,1.452318
0.106000,0.000000,0.000000,-1.030410,0.000000,-1.288013,0.000000,-0.014947,0.034500,1.452311
0.107000,0.000000,0.000000,-1.049760,0.000000,-1.312200,0.000000,-0.015228,0.034500,1.452303
0.108000,0.000000,0.000000,-1.069290,0.000000,-1.336613,0.000000,-0.015511,0.034500,1.452296
0.109000,0.000000,0.000000,-1.089000,0.000000,-1.361250,0.000000,-0.015797,0.034500,1.452288
0.110000,0.000000,0.000000,-1.108890,0.000000,-1.386113,0.000000,-0.016085,0.034500,1.452281
0.111000,0.000000,0.000000,-1.128960,0.000000,-1.411200,0.000000,-0.016377,0.034500,1.452273
0.112000,0.000000,0.000000,-1.149210,0.000000,-1.436513,0.000000,-0.016670,0.034500,1.452264
0.113000,0.000000,0.000000,-1.169640,0.000000,-1.462050,0.000000,-0.016966,0.034500,1.452256
0.114000,0.000000,0.000000,-1.190250,0.000000,-1.487813,0.000000,-0.017265,0.034500,1.452247
0.115000,0.000000,0.000000,-1.211040,0.000000,-1.513800,0.000000,-0.017567,0.034500,1.452238
0.116000,0.000000,0.000000,-1.232010,0.000000,-1.540013,0.000000,-0.017871,0.034500,1.452229
0.117000,0.000000,0.000000,-1.253160,0.000000,-1.566450,0.000000,-0.018178,0.034500,1.452220
0.118000,0.000000,0.000000,-1.274490,0.000000,-1.593113,0.000000,-0.018487,0.034500,1.452210
0.119000,0.000000,0.000000,-1.296000,0.000000,-1.620000,0.000000,-0.018799,0.034500,1.452200
0.120000,0.000000,0.000000,-1.317690,0.000000,-1.647113,0.000000,-0.019113,0.034500,1.452190
0.121000,0.000000,0.000000,-1.339560,0.000000,-1.674450,0.000000,-0.019430,0.034500,1.452180
0.122000,0.000000,0.000000,-1.361610,0.000000,-1.702013,0.000000,-0.019750,0.034500,1.452169
0.123000,0.000000,0.000000,-1.383840,0.000000,-1.729800,0.000000,-0.020072,0.034500,1.452158
0.124000,0.000000,0.000000,-1.406250,0.000000,-1.757813,0.000000,-0.020397,0.034500,1.452147
0.125000,0.000000,0.000000,-1.428840,0.000000,-1.786050,0.000000,-0.020725,0.034500,1.452136
0.126000,0.000000,0.000000,-1.451610,0.000000,-1.814513,0.000000,-0.021055,0.034500,1.452124
0.127000,0.000000,0.000000,-1.474560,0.000000,-1.843200,0.000000,-0.021387,0.034500,1.452112
0.128000,0.000000,0.000000,-1.497690,0.000000,-1.872113,0.000000,-0.021723,0.034500,1.452100
0.129000,0.000000,0.000000,-1.521000,0.000000,-1.901250,0.000000,-0.022061,0.034500,1.452087
0.130000,0.000000,0.000000,-1.544490,0.000000,-1.930613,0.000000,-0.022401,0.034500,1.452074
0.131000,0.000000,0.000000,-1.568160,0.000000,-1.960200,0.000000,-0.022744,0.034500,1.452061
0.132000,0.000000,0.000000,-1.592010,0.000000,-1.990013,0.000000,-0.023090,0.034500,1.452048
0.133000,0.000000,0.000000,-1.616040,0.000000,-2.020050,0.000000,-0.023438,0.034500,1.452034
0.134000,0.000000,0.000000,-1.640250,0.000000,-2.050313,0.000000,-0.023789,0.034500,1.452020
0.135000,0.000000,0.000000,-1.664640,0.000000,-2.080800,0.000000,-0.024143,0.034500,1.452006
0.136000,0.000000,0.000000,-1.689210,0.000000,-2.111513,0.000000,-0.024499,0.034500,1.451991
0.137000,0.000000,0.000000,-1.713960,0.000000,-2.142450,0.000000,-0.024858,0.034500,1.451976
0.138000,0.000000,0.000000,-1.738890,0.000000,-2.173613,0.000000,-0.025219,0.034500,1.451961
0.139000,0.000000,0.000000,-1.764000,0.000000,-2.205000,0.000000,-0.025583,0.034500,1.451945
0.140000,0.000000,0.000000,-1.789290,0.000000,-2.236613,0.000000,-0.025949,0.034500,1.451929
0.141000,0.000000,0.000000,-1.814760,0.000000,-2.268450,0.000000,-0.026318,0.034500,1.451912
0.142000,0.000000,0.000000,-1.840410,0.000000,-2.300513,0.000000,-0.026690,0.034500,1.451896
0.143000,0.000000,0.000000,-1.866240,0.000000,-2.332800,0.000000,-0.027064,0.034500,1.451879
0.144000,0.000000,0.000000,-1.892250,0.000000,-2.365313,0.000000,-0.027441,0.034500,1.451861
0.145000,0.000000,0.000000,-1.918440,0.000000,-2.398050,0.000000,-0.027821,0.034500,1.451843
0.146000,0.000000,0.000000,-1.944810,0.000000,-2.431013,0.000000,-0.028203,0.034500,1.451825
0.147000,0.000000,0.000000,-1.971360,0.000000,-2.464200,0.000000,-0.028587,0.034500,1.451807
0.148000,0.000000,0.000000,-1.998090,0.000000,-2.497613,0.000000,-0.028975,0.034500,1.451788
0.149000,0.000000,0.000000,-2.025000,0.000000,-2.531250,0.000000,-0.029365,0.034500,1.451769
0.150000,0.000000,0.000000,-2.052090,0.000000,-2.565113,0.000000,-0.029757,0.034500,1.451749
0.151000,0.000000,0.000000,-2.079360,0.000000,-2.599200,0.000000,-0.030152,0.034500,1.451729
0.152000,0.000000,0.000000,-2.106810,0.000000,-2.633513,0.000000,-0.030550,0.034500,1.451708
0.153000,0.000000,0.000000,-2.134440,0.000000,-2.668050,0.000000,-0.030950,0.034500,1.451687
0.154000,0.000000,0.000000,-2.162250,0.000000,-2.702813,0.000000,-0.031353,0.034500,1.451666
0.155000,0.000000,0.000000,-2.190240,0.000000,-2.737800,0.000000,-0.031758,0.034500,1.451644
0.156000,0.000000,0.000000,-2.218410,0.000000,-2.773013,0.000000,-0.032166,0.034500,1.451622
0.157000,0.000000,0.000000,-2.246760,0.000000,-2.808450,0.000000,-0.032577,0.034500,1.451600
0.158000,0.000000,0.000000,-2.275290,0.000000,-2.844113,0.000000,-0.032990,0.034500,1.451577
0.159000,0.000000,0.000000,-2.304000,0.000000,-2.880000,0.000000,-0.033406,0.034500,1.451553
0.160000,0.000000,0.000000,-2.332890,0.000000,-2.916113,0.000000,-0.033824,0.034500,1.451529
0.161000,0.000000,0.000000,-2.361960,0.000000,-2.952450,0.000000,-0.034245,0.034500,1.451505
0.162000,0.000000,0.000000,-2.391210,0.000000,-2.989013,0.000000,-0.034668,0.034500,1.451480
0.163000,0.000000,0.000000,-2.420640,0.000000,-3.025800,0.000000,-0.035094,0.034500,1.451455
0.164000,0.000000,0.000000,-2.450250,0.000000,-3.062813,0.000000,-0.035523,0.034500,1.451429
0.165000,0.000000,0.000000,-2.480040,0.000000,-3.100050,0.000000,-0.035954,0.034500,1.451403
0.166000,0.000000,0.000000,-2.510010,0.000000,-3.137513,0.000000,-0.036388,0.034500,1.451376
0.167000,0.000000,0.000000,-2.540160,0.000000,-3.175200,0.000000,-0.036825,0.034500,1.451349
0.168000,0.000000,0.000000,-2.570490,0.000000,-3.213113,0.000000,-0.037264,0.034500,1.451322
0.169000,0.000000,0.000000,-2.601000,0.000000,-3.251250,0.000000,-0.037705,0.034500,1.451293
0.170000,0.000000,0.000000,-2.631690,0.000000,-3.289613,0.000000,-0.038149,0.034500,1.451265
0.171000,0.000000,0.000000,-2.662560,0.000000,-3.328200,0.000000,-0.038596,0.034500,1.451236
0.172000,0.000000,0.000000,-2.693610,0.000000,-3.367013,0.000000,-0.039045,0.034500,1.451206
0.173000,0.000000,0.000000,-2.724840,0.000000,-3.406050,0.000000,-0.039497,0.034500,1.451176
0.174000,0.000000,0.000000,-2.756250,0.000000,-3.445313,0.000000,-0.039952,0.034500,1.451145
0.175000,0.000000,0.000000,-2.787840,0.000000,-3.484800,0.000000,-0.040409,0.034500,1.451114
0.176000,0.000000,0.000000,-2.819610,0.000000,-3.524513,0.000000,-0.040869,0.034500,1.451082
0.177000,0.000000,0.000000,-2.851560,0.000000,-3.564450,0.000000,-0.041331,0.034500,1.451050
0.178000,0.000000,0.000000,-2.883690,0.000000,-3.604613,0.000000,-0.041796,0.034500,1.451017
0.179000,0.000000,0.000000,-2.916000,0.000000,-3.645000,0.000000,-0.042263,0.034500,1.450984
0.180000,0.000000,0.000000,-2.948490,0.000000,-3.685613,0.000000,-0.042733,0.034500,1.450950
0.181000,0.000000,0.000000,-2.981160,0.000000,-3.726450,0.000000,-0.043205,0.034500,1.450915
0.182000,0.000000,0.000000,-3.014010,0.000000,-3.767513,0.000000,-0.043680,0.034500,1.450880
0.183000,0.000000,0.000000,-3.047040,0.000000,-3.808800,0.000000,-0.044158,0.034500,1.450845
0.184000,0.000000,0.000000,-3.080250,0.000000,-3.850313,0.000000,-0.044638,0.034500,1.450808
0.185000,0.000000,0.000000,-3.113640,0.000000,-3.892050,0.000000,-0.045121,0.034500,1.450771
0.186000,0.000000,0.000000,-3.147210,0.000000,-3.934013,0.000000,-0.045606,0.034500,1.450734
0.187000,0.000000,0.000000,-3.180960,0.000000,-3.976200,0.000000,-0.046094,0.034500,1.450696
0.188000,0.000000,0.000000,-3.214890,0.000000,-4.018613,0.000000,-0.046585,0.034500,1.450657
0.189000,0.000000,0.000000,-3.249000,0.000000,-4.061250,0.000000,-0.047078,0.034500,1.450618
0.190000,0.000000,0.000000,-3.283290,0.000000,-4.104113,0.000000,-0.047573,0.034500,1.450578
0.191000,0.000000,0.000000,-3.317760,0.000000,-4.147200,0.000000,-0.048072,0.034500,1.450538
0.192000,0.000000,0.000000,-3.352410,0.000000,-4.190513,0.000000,-0.048572,0.034500,1.450496
0.193000,0.000000,0.000000,-3.387240,0.000000,-4.234050,0.000000,-0.049076,0.034500,1.450455
0.194000,0.000000,0.000000,-3.422250,0.000000,-4.277813,0.000000,-0.049581,0.034500,1.450412
0.195000,0.000000,0.000000,-3.457440,0.000000,-4.321800,0.000000,-0.050090,0.034500,1.450369
0.196000,0.000000,0.000000,-3.492810,0.000000,-4.366013,0.000000,-0.050601,0.034500,1.450325
0.197000,0.000000,0.000000,-3.528360,0.000000,-4.410450,0.000000,-0.051114,0.034500,1.450281
0.198000,0.000000,0.000000,-3.564090,0.000000,-4.455113,0.000000,-0.051630,0.034500,1.450236
0.199000,0.000000,0.000000,-3.600000,0.000000,-4.500000,0.000000,-0.052149,0.034500,1.450190
0.200000,0.000000,0.000000,-3.636090,0.000000,-4.545113,0.000000,-0.052670,0.034500,1.450143
0.201000,0.000000,0.000000,-3.672360,0.000000,-4.590450,0.000000,-0.053194,0.034500,1.450096
0.202000,0.000000,0.000000,-3.708810,0.000000,-4.636013,0.000000,-0.053720,0.034500,1.450048
0.203000,0.000000,0.000000,-3.745440,0.000000,-4.681800,0.000000,-0.054249,0.034500,1.450000
0.204000,0.000000,0.000000,-3.782250,0.000000,-4.727813,0.000000,-0.054780,0.034500,1.449950
0.205000,0.000000,0.000000,-3.819240,0.000000,-4.774050,0.000000,-0.055314,0.034500,1.449900
0.206000,0.000000,0.000000,-3.856410,0.000000,-4.820513,0.000000,-0.055851,0.034500,1.449849
0.207000,0.000000,0.000000,-3.893760,0.000000,-4.867200,0.000000,-0.056390,0.034500,1.449798
0.208000,0.000000,0.000000,-3.931290,0.000000,-4.914113,0.000000,-0.056931,0.034500,1.449746
0.209000,0.000000,0.000000,-3.969000,0.000000,-4.961250,0.000000,-0.057475,0.034500,1.449693
0.210000,0.000000,0.000000,-4.006890,0.000000,-5.008613,0.000000,-0.058022,0.034500,1.449639
0.211000,0.000000,0.000000,-4.044960,0.000000,-5.056200,0.000000,-0.058571,0.034500,1.449584
0.212000,0.000000,0.000000,-4.083210,0.000000,-5.104013,0.000000,-0.059123,0.034500,1.449529
0.213000,0.000000,0.000000,-4.121640,0.000000,-5.152050,0.000000,-0.059677,0.034500,1.449473
0.214000,0.000000,0.000000,-4.160250,0.000000,-5.200313,0.000000,-0.060234,0.034500,1.449416
0.215000,0.000000,0.000000,-4.199040,0.000000,-5.248800,0.000000,-0.060793,0.034500,1.449358
0.216000,0.000000,0.000000,-4.238010,0.000000,-5.297513,0.000000,-0.061355,0.034500,1.449300
0.217000,0.000000,0.000000,-4.277160,0.000000,-5.346450,0.000000,-0.061919,0.034500,1.449240
0.218000,0.000000,0.000000,-4.316490,0.000000,-5.395613,0.000000,-0.062486,0.034500,1.449180
0.219000,0.000000,0.000000,-4.356000,0.000000,-5.445000,0.000000,-0.063055,0.034500,1.449119
0.220000,0.000000,0.000000,-4.395690,0.000000,-5.494613,0.000000,-0.063627,0.034500,1.449057
0.221000,0.000000,0.000000,-4.435560,0.000000,-5.544450,0.000000,-0.064202,0.034500,1.448995
0.222000,0.000000,0.000000,-4.475610,0.000000,-5.594513,0.000000,-0.064779,0.034500,1.448931
0.223000,0.000000,0.000000,-4.515840,0.000000,-5.644800,0.000000,-0.065358,0.034500,1.448867
0.224000,0.000000,0.000000,-4.556250,0.000000,-5.695313,0.000000,-0.065940,0.034500,1.448802
0.225000,0.000000,0.000000,-4.596840,0.000000,-5.746050,0.000000,-0.066525,0.034500,1.448736
0.226000,0.000000,0.000000,-4.637610,0.000000,-5.797013,0.000000,-0.067112,0.034500,1.448669
0.227000,0.000000,0.000000,-4.678560,0.000000,-5.848200,0.000000,-0.067701,0.034500,1.448601
0.228000,0.000000,0.000000,-4.719690,0.000000,-5.899613,0.000000,-0.068293,0.034500,1.448532
0.229000,0.000000,0.000000,-4.761000,0.000000,-5.951250,0.000000,-0.068888,0.034500,1.448463
0.230000,0.000000,0.000000,-4.802490,0.000000,-6.003113,0.000000,-0.069485,0.034500,1.448392
0.231000,0.000000,0.000000,-4.844160,0.000000,-6.055200,0.000000,-0.070084,0.034500,1.448321
0.232000,0.000000,0.000000,-4.886010,0.000000,-6.107513,0.000000,-0.070687,0.034500,1.448248
0.233000,0.000000,0.000000,-4.928040,0.000000,-6.160050,0.000000,-0.071291,0.034500,1.448175
0.234000,0.000000,0.000000,-4.970250,0.000000,-6.212813,0.000000,-0.071898,0.034500,1.448101
0.235000,0.000000,0.000000,-5.012640,0.000000,-6.265800,0.000000,-0.072508,0.034500,1.448025
0.236000,0.000000,0.000000,-5.055210,0.000000,-6.319013,0.000000,-0.073120,0.034500,1.447949
0.237000,0.000000,0.000000,-5.097960,0.000000,-6.372450,0.000000,-0.073734,0.034500,1.447872
0.238000,0.000000,0.000000,-5.140890,0.000000,-6.426113,0.000000,-0.074351,0.034500,1.447794
0.239000,0.000000,0.000000,-5.184000,0.000000,-6.480000,0.000000,-0.074971,0.034500,1.447715
0.240000,0.000000,0.000000,-5.227290,0.000000,-6.534113,0.000000,-0.075593,0.034500,1.447635
0.241000,0.000000,0.000000,-5.270760,0.000000,-6.588450,0.000000,-0.076218,0.034500,1.447554
0.242000,0.000000,0.000000,-5.314410,0.000000,-6.643013,0.000000,-0.076845,0.034500,1.447472
0.243000,0.000000,0.000000,-5.358240,0.000000,-6.697800,0.000000,-0.077474,0.034500,1.447389
0.244000,0.000000,0.000000,-5.402250,0.000000,-6.752813,0.000000,-0.078106,0.034500,1.447304
0.245000,0.000000,0.000000,-5.446440,0.000000,-6.808050,0.000000,-0.078740,0.034500,1.447219
0.246000,0.000000,0.000000,-5.490810,0.000000,-6.863513,0.000000,-0.079377,0.034500,1.447133
0.247000,0.000000,0.000000,-5.535360,0.000000,-6.919200,0.000000,-0.080017,0.034500,1.447046
0.248000,0.000000,0.000000,-5.580090,0.000000,-6.975113,0.000000,-0.080659,0.034500,1.446958
0.249000,0.000000,0.000000,-5.625000,0.000000,-7.031250,0.000000,-0.081303,0.034500,1.446868
0.250000,0.000000,0.000000,-5.670090,0.000000,-7.087613,0.000000,-0.081950,0.034500,1.446778
0.251000,0.000000,0.000000,-5.715360,0.000000,-7.144200,0.000000,-0.082599,0.034500,1.446686
0.252000,0.000000,0.000000,-5.760810,0.000000,-7.201013,0.000000,-0.083251,0.034500,1.446594
0.253000,0.000000,0.000000,-5.806440,0.000000,-7.258050,0.000000,-0.083905,0.034500,1.446500
0.254000,0.000000,0.000000,-5.852250,0.000000,-7.315313,0.000000,-0.084561,0.034500,1.446405
0.255000,0.000000,0.000000,-5.898240,0.000000,-7.372800,0.000000,-0.085220,0.034500,1.446309
0.256000,0.000000,0.000000,-5.944410,0.000000,-7.430513,0.000000,-0.085882,0.034500,1.446212
0.257000,0.000000,0.000000,-5.990760,0.000000,-7.488450,0.000000,-0.086546,0.034500,1.446114
0.258000,0.000000,0.000000,-6.037290,0.000000,-7.546613,0.000000,-0.087212,0.034500,1.446015
0.259000,0.000000,0.000000,-6.084000,0.000000,-7.605000,0.000000,-0.087881,0.034500,1.445914
0.260000,0.000000,0.000000,-6.130890,0.000000,-7.663613,0.000000,-0.088553,0.034500,1.445813
0.261000,0.000000,0.000000,-6.177960,0.000000,-7.722450,0.000000,-0.089226,0.034500,1.445710
0.262000,0.000000,0.000000,-6.225210,0.000000,-7.781513,0.000000,-0.089902,0.034500,1.445606
0.263000,0.000000,0.000000,-6.272640,0.000000,-7.840800,0.000000,-0.090581,0.034500,1.445501
0.264000,0.000000,0.000000,-6.320250,0.000000,-7.900313,0.000000,-0.091262,0.034500,1.445395
0.265000,0.000000,0.000000,-6.368040,0.000000,-7.960050,0.000000,-0.091946,0.034500,1.445287
0.266000,0.000000,0.000000,-6.416010,0.000000,-8.020013,0.000000,-0.092632,0.034500,1.445178
0.267000,0.000000,0.000000,-6.464160,0.000000,-8.080200,0.000000,-0.093320,0.034500,1.445069
0.268000,0.000000,0.000000,-6.512490,0.000000,-8.140613,0.000000,-0.094011,0.034500,1.444957
0.269000,0.000000,0.000000,-6.561000,0.000000,-8.201250,0.000000,-0.094704,0.034500,1.444845
0.270000,0.000000,0.000000,-6.609690,0.000000,-8.262113,0.000000,-0.095399,0.034500,1.444731
0.271000,0.000000,0.000000,-6.658560,0.000000,-8.323200,0.000000,-0.096097,0.034500,1.444616
0.272000,0.000000,0.000000,-6.707610,0.000000,-8.384513,0.000000,-0.096798,0.034500,1.444500
0.273000,0.000000,0.000000,-6.756840,0.000000,-8.446050,0.000000,-0.097500,0.034500,1.444383
0.274000,0.000000,0.000000,-6.806250,0.000000,-8.507813,0.000000,-0.098206,0.034500,1.444264
0.275000,0.000000,0.000000,-6.855840,0.000000,-8.569800,0.000000,-0.098913,0.034500,1.444144
0.276000,0.000000,0.000000,-6.905610,0.000000,-8.632013,0.000000,-0.099623,0.034500,1.444023
0.277000,0.000000,0.000000,-6.955560,0.000000,-8.694450,0.000000,-0.100336,0.034500,1.443900
0.278000,0.000000,0.000000,-7.005690,0.000000,-8.757113,0.000000,-0.101050,0.034500,1.443776
0.279000,0.000000,0.000000,-7.056000,0.000000,-8.820000,0.000000,-0.101768,0.034500,1.443651
0.280000,0.000000,0.000000,-7.106490,0.000000,-8.883113,0.000000,-0.102487,0.034500,1.443524
0.281000,0.000000,0.000000,-7.157160,0.000000,-8.946450,0.000000,-0.103209,0.034500,1.443397
0.282000,0.000000,0.000000,-7.208010,0.000000,-9.010013,0.000000,-0.103933,0.034500,1.443267
0.283000,0.000000,0.000000,-7.259040,0.000000,-9.073800,0.000000,-0.104660,0.034500,1.443137
0.284000,0.000000,0.000000,-7.310250,0.000000,-9.137813,0.000000,-0.105389,0.034500,1.443005
0.285000,0.000000,0.000000,-7.361640,0.000000,-9.202050,0.000000,-0.106120,0.034500,1.442871
0.286000,0.000000,0.000000,-7.413210,0.000000,-9.266513,0.000000,-0.106854,0.034500,1.442736
0.287000,0.000000,0.000000,-7.464960,0.000000,-9.331200,0.000000,-0.107590,0.034500,1.442600
0.288000,0.000000,0.000000,-7.516890,0.000000,-9.396113,0.000000,-0.108329,0.034500,1.442463
0.289000,0.000000,0.000000,-7.569000,0.000000,-9.461250,0.000000,-0.109070,0.034500,1.442324
0.290000,0.000000,0.000000,-7.621290,0.000000,-9.526613,0.000000,-0.109813,0.034500,1.442183
0.291000,0.000000,0.000000,-7.673760,0.000000,-9.592200,0.000000,-0.110558,0.034500,1.442041
0.292000,0.000000,0.000000,-7.726410,0.000000,-9.658013,0.000000,-0.111306,0.034500,1.441898
0.293000,0.000000,0.000000,-7.779240,0.000000,-9.724050,0.000000,-0.112056,0.034500,1.441753
0.294000,0.000000,0.000000,-7.832250,0.000000,-9.790313,0.000000,-0.112809,0.034500,1.441607
0.295000,0.000000,0.000000,-7.885440,0.000000,-9.856800,0.000000,-0.113564,0.034500,1.441459
0.296000,0.000000,0.000000,-7.938810,0.000000,-9.923513,0.000000,-0.114321,0.034500,1.441310
0.297000,0.000000,0.000000,-7.992360,0.000000,-9.990450,0.000000,-0.115080,0.034500,1.441159
0.298000,0.000000,0.000000,-8.046090,0.000000,-10.057613,0.000000,-0.115842,0.034500,1.441007
0.299000,0.000000,0.000000,-8.100000,0.000000,-10.125000,0.000000,-0.116606,0.034500,1.440853
0.300000,0.000000,0.000000,-8.154090,0.000000,-10.192613,0.000000,-0.117373,0.034500,1.440698
0.301000,0.000000,0.000000,-8.208360,0.000000,-10.260450,0.000000,-0.118142,0.034500,1.440541
0.302000,0.000000,0.000000,-8.262810,0.000000,-10.328513,0.000000,-0.118913,0.034500,1.440383
0.303000,0.000000,0.000000,-8.317440,0.000000,-10.396800,0.000000,-0.119686,0.034500,1.440223
0.304000,0.000000,0.000000,-8.372250,0.000000,-10.465313,0.000000,-0.120462,0.034500,1.440062
0.305000,0.000000,0.000000,-8.427240,0.000000,-10.534050,0.000000,-0.121240,0.034500,1.439899
0.306000,0.000000,0.000000,-8.482410,0.000000,-10.603013,0.000000,-0.122020,0.034500,1.439734
0.307000,0.000000,0.000000,-8.537760,0.000000,-10.672200,0.000000,-0.122803,0.034500,1.439568
0.308000,0.000000,0.000000,-8.593290,0.000000,-10.741613,0.000000,-0.123587,0.034500,1.439400
0.309000,0.000000,0.000000,-8.649000,0.000000,-10.811250,0.000000,-0.124374,0.034500,1.439231
0.310000,0.000000,0.000000,-8.704890,0.000000,-10.881113,0.000000,-0.125164,0.034500,1.439060
0.311000,0.000000,0.000000,-8.760960,0.000000,-10.951200,0.000000,-0.125955,0.034500,1.438887
0.312000,0.000000,0.000000,-8.817210,0.000000,-11.021513,0.000000,-0.126749,0.034500,1.438713
0.313000,0.000000,0.000000,-8.873640,0.000000,-11.092050,0.000000,-0.127545,0.034500,1.438537
0.314000,0.000000,0.000000,-8.930250,0.000000,-11.162813,0.000000,-0.128344,0.034500,1.438359
0.315000,0.000000,0.000000,-8.987040,0.000000,-11.233800,0.000000,-0.129144,0.034500,1.438180
0.316000,0.000000,0.000000,-9.044010,0.000000,-11.305013,0.000000,-0.129947,0.034500,1.437999
0.317000,0.000000,0.000000,-9.101160,0.000000,-11.376450,0.000000,-0.130752,0.034500,1.437816
0.318000,0.000000,0.000000,-9.158490,0.000000,-11.448113,0.000000,-0.131560,0.034500,1.437632
0.319000,0.000000,0.000000,-9.216000,0.000000,-11.520000,0.000000,-0.132369,0.034500,1.437446
0.320000,0.000000,0.000000,-9.273690,0.000000,-11.592113,0.000000,-0.133181,0.034500,1.437258
0.321000,0.000000,0.000000,-9.331560,0.000000,-11.664450,0.000000,-0.133995,0.034500,1.437069
0.322000,0.000000,0.000000,-9.389610,0.000000,-11.737013,0.000000,-0.134811,0.034500,1.436878
0.323000,0.000000,0.000000,-9.447840,0.000000,-11.809800,0.000000,-0.135630,0.034500,1.436685
0.324000,0.000000,0.000000,-9.506250,0.000000,-11.882813,0.000000,-0.136450,0.034500,1.436490
0.325000,0.000000,0.000000,-9.564840,0.000000,-11.956050,0.000000,-0.137273,0.034500,1.436293
0.326000,0.000000,0.000000,-9.623610,0.000000,-12.029513,0.000000,-0.138098,0.034500,1.436095
0.327000,0.000000,0.000000,-9.682560,0.000000,-12.103200,0.000000,-0.138925,0.034500,1.435895
0.328000,0.000000,0.000000,-9.741690,0.000000,-12.177113,0.000000,-0.139755,0.034500,1.435693
0.329000,0.000000,0.000000,-9.801000,0.000000,-12.251250,0.000000,-0.140586,0.034500,1.435489
0.330000,0.000000,0.000000,-9.860490,0.000000,-12.325613,0.000000,-0.141420,0.034500,1.435284
0.331000,0.000000,0.000000,-9.920160,0.000000,-12.400200,0.000000,-0.142256,0.034500,1.435076
0.332000,0.000000,0.000000,-9.980010,0.000000,-12.475013,0.000000,-0.143094,0.034500,1.434867
0.333000,0.000000,0.000000,-10.040040,0.000000,-12.550050,0.000000,-0.143934,0.034500,1.434656
0.334000,0.000000,0.000000,-10.100250,0.000000,-12.625313,0.000000,-0.144777,0.034500,1.434443
0.335000,0.000000,0.000000,-10.160640,0.000000,-12.700800,0.000000,-0.145621,0.034500,1.434228
0.336000,0.000000,0.000000,-10.221210,0.000000,-12.776513,0.000000,-0.146468,0.034500,1.434012
0.337000,0.000000,0.000000,-10.281960,0.000000,-12.852450,0.000000,-0.147317,0.034500,1.433793
0.338000,0.000000,0.000000,-10.342890,0.000000,-12.928613,0.000000,-0.148168,0.034500,1.433573
0.339000,0.000000,0.000000,-10.404000,0.000000,-13.005000,0.000000,-0.149021,0.034500,1.433350
0.340000,0.000000,0.000000,-10.465290,0.000000,-13.081613,0.000000,-0.149876,0.034500,1.433126
0.341000,0.000000,0.000000,-10.526760,0.000000,-13.158450,0.000000,-0.150733,0.034500,1.432900
0.342000,0.000000,0.000000,-10.588410,0.000000,-13.235513,0.000000,-0.151593,0.034500,1.432671
0.343000,0.000000,0.000000,-10.650240,0.000000,-13.312800,0.000000,-0.152454,0.034500,1.432441
0.344000,0.000000,0.000000,-10.712250,0.000000,-13.390313,0.000000,-0.153318,0.034500,1.432209
0.345000,0.000000,0.000000,-10.774440,0.000000,-13.468050,0.000000,-0.154184,0.034500,1.431975
0.346000,0.000000,0.000000,-10.836810,0.000000,-13.546013,0.000000,-0.155052,0.034500,1.431739
0.347000,0.000000,0.000000,-10.899360,0.000000,-13.624200,0.000000,-0.155921,0.034500,1.431501
0.348000,0.000000,0.000000,-10.962090,0.000000,-13.702613,0.000000,-0.156793,0.034500,1.431261
0.349000,0.000000,0.000000,-11.025000,0.000000,-13.781250,0.000000,-0.157667,0.034500,1.431019
0.350000,0.000000,0.000000,-11.088090,0.000000,-13.860113,0.000000,-0.158543,0.034500,1.430774
0.351000,0.000000,0.000000,-11.151360,0.000000,-13.939200,0.000000,-0.159422,0.034500,1.430528
0.352000,0.000000,0.000000,-11.214810,0.000000,-14.018513,0.000000,-0.160302,0.034500,1.430280
0.353000,0.000000,0.000000,-11.278440,0.000000,-14.098050,0.000000,-0.161184,0.034500,1.430030
0.354000,0.000000,0.000000,-11.342250,0.000000,-14.177813,0.000000,-0.162068,0.034500,1.429777
0.355000,0.000000,0.000000,-11.406240,0.000000,-14.257800,0.000000,-0.162954,0.034500,1.429523
0.356000,0.000000,0.000000,-11.470410,0.000000,-14.338013,0.000000,-0.163843,0.034500,1.429266
0.357000,0.000000,0.000000,-11.534760,0.000000,-14.418450,0.000000,-0.164733,0.034500,1.429008
0.358000,0.000000,0.000000,-11.599290,0.000000,-14.499113,0.000000,-0.165625,0.034500,1.428747
0.359000,0.000000,0.000000,-11.664000,0.000000,-14.580000,0.000000,-0.166520,0.034500,1.428484
0.360000,0.000000,0.000000,-11.728890,0.000000,-14.661113,0.000000,-0.167416,0.034500,1.428219
0.361000,0.000000,0.000000,-11.793960,0.000000,-14.742450,0.000000,-0.168314,0.034500,1.427952
0.362000,0.000000,0.000000,-11.859210,0.000000,-14.824013,0.000000,-0.169215,0.034500,1.427682
0.363000,0.000000,0.000000,-11.924640,0.000000,-14.905800,0.000000,-0.170117,0.034500,1.427411
0.364000,0.000000,0.000000,-11.990250,0.000000,-14.987813,0.000000,-0.171021,0.034500,1.427137
0.365000,0.000000,0.000000,-12.056040,0.000000,-15.070050,0.000000,-0.171927,0.034500,1.426861
0.366000,0.000000,0.000000,-12.122010,0.000000,-15.152513,0.000000,-0.172836,0.034500,1.426583
0.367000,0.000000,0.000000,-12.188160,0.000000,-15.235200,0.000000,-0.173746,0.034500,1.426303
0.368000,0.000000,0.000000,-12.254490,0.000000,-15.318113,0.000000,-0.174658,0.034500,1.426020
0.369000,0.000000,0.000000,-12.321000,0.000000,-15.401250,0.000000,-0.175572,0.034500,1.425736
0.370000,0.000000,0.000000,-12.387690,0.000000,-15.484613,0.000000,-0.176488,0.034500,1.425449
0.371000,0.000000,0.000000,-12.454560,0.000000,-15.568200,0.000000,-0.177405,0.034500,1.425159
0.372000,0.000000,0.000000,-12.521610,0.000000,-15.652013,0.000000,-0.178325,0.034500,1.424868
0.373000,0.000000,0.000000,-12.588840,0.000000,-15.736050,0.000000,-0.179247,0.034500,1.424574
0.374000,0.000000,0.000000,-12.656250,0.000000,-15.820313,0.000000,-0.180170,0.034500,1.424278
0.375000,0.000000,0.000000,-12.723840,0.000000,-15.904800,0.000000,-0.181096,0.034500,1.423980
0.376000,0.000000,0.000000,-12.791610,0.000000,-15.989513,0.000000,-0.182023,0.034500,1.423679
0.377000,0.000000,0.000000,-12.859560,0.000000,-16.074450,0.000000,-0.182952,0.034500,1.423376
0.378000,0.000000,0.000000,-12.927690,0.000000,-16.159613,0.000000,-0.183883,0.034500,1.423071
0.379000,0.000000,0.000000,-12.996000,0.000000,-16.245000,0.000000,-0.184816,0.034500,1.422763
0.380000,0.000000,0.000000,-13.064490,0.000000,-16.330613,0.000000,-0.185751,0.034500,1.422453
0.381000,0.000000,0.000000,-13.133160,0.000000,-16.416450,0.000000,-0.186688,0.034500,1.422141
0.382000,0.000000,0.000000,-13.202010,0.000000,-16.502513,0.000000,-0.187626,0.034500,1.421826
0.383000,0.000000,0.000000,-13.271040,0.000000,-16.588800,0.000000,-0.188566,0.034500,1.421509
0.384000,0.000000,0.000000,-13.340250,0.000000,-16.675313,0.000000,-0.189508,0.034500,1.421189
0.385000,0.000000,0.000000,-13.409640,0.000000,-16.762050,0.000000,-0.190452,0.034500,1.420867
0.386000,0.000000,0.000000,-13.479210,0.000000,-16.849013,0.000000,-0.191398,0.034500,1.420543
0.387000,0.000000,0.000000,-13.548960,0.000000,-16.936200,0.000000,-0.192346,0.034500,1.420216
0.388000,0.000000,0.000000,-13.618890,0.000000,-17.023613,0.000000,-0.193295,0.034500,1.419887
0.389000,0.000000,0.000000,-13.689000,0.000000,-17.111250,0.000000,-0.194246,0.034500,1.419555
0.390000,0.000000,0.000000,-13.759290,0.000000,-17.199111,0.000000,-0.195199,0.034500,1.419221
0.391000,0.000000,0.000000,-13.829760,0.000000,-17.287059,0.000000,-0.196153,0.034500,1.418885
0.392000,0.000000,0.000000,-13.900410,0.000000,-17.375006,0.000000,-0.197109,0.034500,1.418546
0.393000,0.000000,0.000000,-13.971240,0.000000,-17.462954,0.000000,-0.198066,0.034500,1.418205
0.394000,0.000000,0.000000,-14.042250,0.000000,-17.550902,0.000000,-0.199024,0.034500,1.417862
0.395000,0.000000,0.000000,-14.113440,0.000000,-17.638850,0.000000,-0.199984,0.034500,1.417517
0.396000,0.000000,0.000000,-14.184810,0.000000,-17.726798,0.000000,-0.200945,0.034500,1.417169
0.397000,0.000000,0.000000,-14.256360,0.000000,-17.814745,0.000000,-0.201907,0.034500,1.416819
0.398000,0.000000,0.000000,-14.328090,0.000000,-17.902693,0.000000,-0.202871,0.034500,1.416467
0.399000,0.000000,0.000000,-14.400000,0.000000,-17.990641,0.000000,-0.203836,0.034500,1.416112
0.400000,0.000000,0.000000,-14.472090,0.000000,-18.078589,0.000000,-0.204802,0.034500,1.415755
0.401000,0.000000,0.000000,-14.544360,0.000000,-18.166536,0.000000,-0.205770,0.034500,1.415396
0.402000,0.000000,0.000000,-14.616810,0.000000,-18.254484,0.000000,-0.206739,0.034500,1.415035
0.403000,0.000000,0.000000,-14.689440,0.000000,-18.342432,0.000000,-0.207709,0.034500,1.414671
0.404000,0.000000,0.000000,-14.762250,0.000000,-18.430380,0.000000,-0.208680,0.034500,1.414305
0.405000,0.000000,0.000000,-14.835240,0.000000,-18.518328,0.000000,-0.209653,0.034500,1.413937
0.406000,0.000000,0.000000,-14.908410,0.000000,-18.606275,0.000000,-0.210627,0.034500,1.413566
0.407000,0.000000,0.000000,-14.981760,0.000000,-18.694223,0.000000,-0.211602,0.034500,1.413193
0.408000,0.000000,0.000000,-15.055290,0.000000,-18.782171,0.000000,-0.212578,0.034500,1.412818
0.409000,0.000000,0.000000,-15.129000,0.000000,-18.870119,0.000000,-0.213556,0.034500,1.412440
0.410000,0.000000,0.000000,-15.202890,0.000000,-18.958066,0.000000,-0.214535,0.034500,1.412060
0.411000,0.000000,0.000000,-15.276960,0.000000,-19.046014,0.000000,-0.215515,0.034500,1.411677
0.412000,0.000000,0.000000,-15.351210,0.000000,-19.133962,0.000000,-0.216496,0.034500,1.411293
0.413000,0.000000,0.000000,-15.425640,0.000000,-19.221910,0.000000,-0.217479,0.034500,1.410905
0.414000,0.000000,0.000000,-15.500250,0.000000,-19.309858,0.000000,-0.218462,0.034500,1.410516
0.415000,0.000000,0.000000,-15.575040,0.000000,-19.397805,0.000000,-0.219447,0.034500,1.410124
0.416000,0.000000,0.000000,-15.650010,0.000000,-19.485753,0.000000,-0.220433,0.034500,1.409729
0.417000,0.000000,0.000000,-15.725160,0.000000,-19.573701,0.000000,-0.221421,0.034500,1.409332
0.418000,0.000000,0.000000,-15.800490,0.000000,-19.661649,0.000000,-0.222409,0.034500,1.408933
0.419000,0.000000,0.000000,-15.876000,0.000000,-19.749596,0.000000,-0.223399,0.034500,1.408531
0.420000,0.000000,0.000000,-15.951690,0.000000,-19.837544,0.000000,-0.224390,0.034500,1.408127
0.421000,0.000000,0.000000,-16.027560,0.000000,-19.925492,0.000000,-0.225382,0.034500,1.407720
0.422000,0.000000,0.000000,-16.103610,0.000000,-20.013440,0.000000,-0.226375,0.034500,1.407311
0.423000,0.000000,0.000000,-16.179840,0.000000,-20.101388,0.000000,-0.227369,0.034500,1.406900
0.424000,0.000000,0.000000,-16.256250,0.000000,-20.189335,0.000000,-0.228364,0.034500,1.406486
0.425000,0.000000,0.000000,-16.332840,0.000000,-20.277283,0.000000,-0.229361,0.034500,1.406069
0.426000,0.000000,0.000000,-16.409610,0.000000,-20.365231,0.000000,-0.230358,0.034500,1.405650
0.427000,0.000000,0.000000,-16.486560,0.000000,-20.453179,0.000000,-0.231357,0.034500,1.405229
0.428000,0.000000,0.000000,-16.563690,0.000000,-20.541126,0.000000,-0.232357,0.034500,1.404805
0.429000,0.000000,0.000000,-16.641000,0.000000,-20.629074,0.000000,-0.233357,0.034500,1.404378
0.430000,0.000000,0.000000,-16.718490,0.000000,-20.717022,0.000000,-0.234359,0.034500,1.403950
0.431000,0.000000,0.000000,-16.796160,0.000000,-20.804970,0.000000,-0.235362,0.034500,1.403518
0.432000,0.000000,0.000000,-16.874010,0.000000,-20.892918,0.000000,-0.236366,0.034500,1.403084
0.433000,0.000000,0.000000,-16.952040,0.000000,-20.980865,0.000000,-0.237372,0.034500,1.402647
0.434000,0.000000,0.000000,-17.030250,0.000000,-21.068813,0.000000,-0.238378,0.034500,1.402208
0.435000,0.000000,0.000000,-17.108640,0.000000,-21.156761,0.000000,-0.239385,0.034500,1.401767
0.436000,0.000000,0.000000,-17.187210,0.000000,-21.244709,0.000000,-0.240393,0.034500,1.401323
0.437000,0.000000,0.000000,-17.265960,0.000000,-21.332656,0.000000,-0.241403,0.034500,1.400876
0.438000,0.000000,0.000000,-17.344890,0.000000,-21.420604,0.000000,-0.242413,0.034500,1.400426
0.439000,0.000000,0.000000,-17.424000,0.000000,-21.508552,0.000000,-0.243424,0.034500,1.399975
0.440000,0.000000,0.000000,-17.503290,0.000000,-21.596500,0.000000,-0.244437,0.034500,1.399520
0.441000,0.000000,0.000000,-17.582760,0.000000,-21.684448,0.000000,-0.245450,0.034500,1.399063
0.442000,0.000000,0.000000,-17.662410,0.000000,-21.772395,0.000000,-0.246464,0.034500,1.398603
0.443000,0.000000,0.000000,-17.742240,0.000000,-21.860343,0.000000,-0.247480,0.034500,1.398141
0.444000,0.000000,0.000000,-17.822250,0.000000,-21.948291,0.000000,-0.248496,0.034500,1.397676
0.445000,0.000000,0.000000,-17.902440,0.000000,-22.036239,0.000000,-0.249513,0.034500,1.397209
0.446000,0.000000,0.000000,-17.982810,0.000000,-22.124186,0.000000,-0.250531,0.034500,1.396738
0.447000,0.000000,0.000000,-18.063360,0.000000,-22.212134,0.000000,-0.251550,0.034500,1.396266
0.448000,0.000000,0.000000,-18.144090,0.000000,-22.300082,0.000000,-0.252570,0.034500,1.395790
0.449000,0.000000,0.000000,-18.225000,0.000000,-22.388030,0.000000,-0.253591,0.034500,1.395312
0.450000,0.000000,0.000000,-18.306090,0.000000,-22.475978,0.000000,-0.254613,0.034500,1.394831
0.451000,0.000000,0.000000,-18.387360,0.000000,-22.563925,0.000000,-0.255636,0.034500,1.394348
0.452000,0.000000,0.000000,-18.468810,0.000000,-22.651873,0.000000,-0.256660,0.034500,1.393862
0.453000,0.000000,0.000000,-18.550440,0.000000,-22.739821,0.000000,-0.257685,0.034500,1.393373
0.454000,0.000000,0.000000,-18.632250,0.000000,-22.827769,0.000000,-0.258710,0.034500,1.392882
0.455000,0.000000,0.000000,-18.714240,0.000000,-22.915716,0.000000,-0.259737,0.034500,1.392388
0.456000,0.000000,0.000000,-18.796410,0.000000,-23.003664,0.000000,-0.260764,0.034500,1.391891
0.457000,0.000000,0.000000,-18.878760,0.000000,-23.091612,0.000000,-0.261792,0.034500,1.391391
0.458000,0.000000,0.000000,-18.961290,0.000000,-23.179560,0.000000,-0.262821,0.034500,1.390889
0.459000,0.000000,0.000000,-19.044000,0.000000,-23.267508,0.000000,-0.263851,0.034500,1.390384
0.460000,0.000000,0.000000,-19.126890,0.000000,-23.355455,0.000000,-0.264882,0.034500,1.389876
0.461000,0.000000,0.000000,-19.209960,0.000000,-23.443403,0.000000,-0.265913,0.034500,1.389366
0.462000,0.000000,0.000000,-19.293210,0.000000,-23.531351,0.000000,-0.266945,0.034500,1.388853
0.463000,0.000000,0.000000,-19.376640,0.000000,-23.619299,0.000000,-0.267979,0.034500,1.388337
0.464000,0.000000,0.000000,-19.460250,0.000000,-23.707246,0.000000,-0.269013,0.034500,1.387818
0.465000,0.000000,0.000000,-19.544040,0.000000,-23.795194,0.000000,-0.270047,0.034500,1.387297
0.466000,0.000000,0.000000,-19.628010,0.000000,-23.883142,0.000000,-0.271083,0.034500,1.386772
0.467000,0.000000,0.000000,-19.712160,0.000000,-23.971090,0.000000,-0.272119,0.034500,1.386245
0.468000,0.000000,0.000000,-19.796490,0.000000,-24.059038,0.000000,-0.273156,0.034500,1.385716
0.469000,0.000000,0.000000,-19.881000,0.000000,-24.146985,0.000000,-0.274194,0.034500,1.385183
0.470000,0.000000,0.000000,-19.965690,0.000000,-24.234933,0.000000,-0.275233,0.034500,1.384648
0.471000,0.000000,0.000000,-20.050560,0.000000,-24.322881,0.000000,-0.276272,0.034500,1.384110
0.472000,0.000000,0.000000,-20.135610,0.000000,-24.410829,0.000000,-0.277312,0.034500,1.383569
0.473000,0.000000,0.000000,-20.220840,0.000000,-24.498776,0.000000,-0.278353,0.034500,1.383025
0.474000,0.000000,0.000000,-20.306250,0.000000,-24.586724,0.000000,-0.279394,0.034500,1.382478
0.475000,0.000000,0.000000,-20.391840,0.000000,-24.674672,0.000000,-0.280436,0.034500,1.381929
0.476000,0.000000,0.000000,-20.477610,0.000000,-24.762620,0.000000,-0.281479,0.034500,1.381377
0.477000,0.000000,0.000000,-20.563560,0.000000,-24.850568,0.000000,-0.282523,0.034500,1.380822
0.478000,0.000000,0.000000,-20.649690,0.000000,-24.938515,0.000000,-0.283567,0.034500,1.380264
0.479000,0.000000,0.000000,-20.736000,0.000000,-25.026463,0.000000,-0.284612,0.034500,1.379703
0.480000,0.000000,0.000000,-20.822490,0.000000,-25.114411,0.000000,-0.285657,0.034500,1.379139
0.481000,0.000000,0.000000,-20.909160,0.000000,-25.202359,0.000000,-0.286704,0.034500,1.378573
0.482000,0.000000,0.000000,-20.996010,0.000000,-25.290306,0.000000,-0.287750,0.034500,1.378003
0.483000,0.000000,0.000000,-21.083040,0.000000,-25.378254,0.000000,-0.288798,0.034500,1.377431
0.484000,0.000000,0.000000,-21.170250,0.000000,-25.466202,0.000000,-0.289846,0.034500,1.376856
0.485000,0.000000,0.000000,-21.257640,0.000000,-25.554150,0.000000,-0.290895,0.034500,1.376277
0.486000,0.000000,0.000000,-21.345210,0.000000,-25.642098,0.000000,-0.291944,0.034500,1.375696
0.487000,0.000000,0.000000,-21.432960,0.000000,-25.730045,0.000000,-0.292994,0.034500,1.375112
0.488000,0.000000,0.000000,-21.520890,0.000000,-25.817993,0.000000,-0.294044,0.034500,1.374526
0.489000,0.000000,0.000000,-21.609000,0.000000,-25.905941,0.000000,-0.295095,0.034500,1.373936
0.490000,0.000000,0.000000,-21.697290,0.000000,-25.993889,0.000000,-0.296147,0.034500,1.373343
0.491000,0.000000,0.000000,-21.785760,0.000000,-26.081836,0.000000,-0.297199,0.034500,1.372748
0.492000,0.000000,0.000000,-21.874410,0.000000,-26.169784,0.000000,-0.298251,0.034500,1.372149
0.493000,0.000000,0.000000,-21.963240,0.000000,-26.257732,0.000000,-0.299305,0.034500,1.371547
0.494000,0.000000,0.000000,-22.052250,0.000000,-26.345680,0.000000,-0.300358,0.034500,1.370943
0.495000,0.000000,0.000000,-22.141440,0.000000,-26.433628,0.000000,-0.301413,0.034500,1.370335
0.496000,0.000000,0.000000,-22.230810,0.000000,-26.521575,0.000000,-0.302467,0.034500,1.369725
0.497000,0.000000,0.000000,-22.320360,0.000000,-26.609523,0.000000,-0.303522,0.034500,1.369112
0.498000,0.000000,0.000000,-22.410090,0.000000,-26.697471,0.000000,-0.304578,0.034500,1.368495
0.499000,0.000000,0.000000,-22.500000,0.000000,-26.785419,0.000000,-0.305634,0.034500,1.367876
0.500000,0.000000,0.000000,-22.590090,0.000000,-26.873366,0.000000,-0.306691,0.034500,1.367254
0.501000,0.000000,0.000000,-22.680360,0.000000,-26.961314,0.000000,-0.307748,0.034500,1.366628
0.502000,0.000000,0.000000,-22.770810,0.000000,-27.049262,0.000000,-0.308805,0.034500,1.366000
0.503000,0.000000,0.000000,-22.861440,0.000000,-27.137210,0.000000,-0.309863,0.034500,1.365368
0.504000,0.000000,0.000000,-22.952250,0.000000,-27.225158,0.000000,-0.310922,0.034500,1.364734
0.505000,0.000000,0.000000,-23.043240,0.000000,-27.313105,0.000000,-0.311980,0.034500,1.364097
0.506000,0.000000,0.000000,-23.134410,0.000000,-27.401053,0.000000,-0.313039,0.034500,1.363456
0.507000,0.000000,0.000000,-23.225760,0.000000,-27.489001,0.000000,-0.314099,0.034500,1.362813
0.508000,0.000000,0.000000,-23.317290,0.000000,-27.576949,0.000000,-0.315159,0.034500,1.362166
0.509000,0.000000,0.000000,-23.409000,0.000000,-27.664896,0.000000,-0.316219,0.034500,1.361516
0.510000,0.000000,0.000000,-23.500890,0.000000,-27.752844,0.000000,-0.317280,0.034500,1.360864
0.511000,0.000000,0.000000,-23.592960,0.000000,-27.840792,0.000000,-0.318341,0.034500,1.360208
0.512000,0.000000,0.000000,-23.685210,0.000000,-27.928740,0.000000,-0.319402,0.034500,1.359549
0.513000,0.000000,0.000000,-23.777640,0.000000,-28.016688,0.000000,-0.320463,0.034500,1.358887
0.514000,0.000000,0.000000,-23.870250,0.000000,-28.104635,0.000000,-0.321525,0.034500,1.358222
0.515000,0.000000,0.000000,-23.963040,0.000000,-28.192583,0.000000,-0.322588,0.034500,1.357554
0.516000,0.000000,0.000000,-24.056010,0.000000,-28.280531,0.000000,-0.323650,0.034500,1.356883
0.517000,0.000000,0.000000,-24.149160,0.000000,-28.368479,0.000000,-0.324713,0.034500,1.356209
0.518000,0.000000,0.000000,-24.242490,0.000000,-28.456426,0.000000,-0.325776,0.034500,1.355531
0.519000,0.000000,0.000000,-24.336000,0.000000,-28.544374,0.000000,-0.326839,0.034500,1.354851
0.520000,0.000000,0.000000,-24.429690,0.000000,-28.632322,0.000000,-0.327903,0.034500,1.354167
0.521000,0.000000,0.000000,-24.523560,0.000000,-28.720270,0.000000,-0.328967,0.034500,1.353481
0.522000,0.000000,0.000000,-24.617610,0.000000,-28.808218,0.000000,-0.330031,0.034500,1.352791
0.523000,0.000000,0.000000,-24.711840,0.000000,-28.896165,0.000000,-0.331095,0.034500,1.352098
0.524000,0.000000,0.000000,-24.806250,0.000000,-28.984113,0.000000,-0.332159,0.034500,1.351402
0.525000,0.000000,0.000000,-24.900840,0.000000,-29.072061,0.000000,-0.333224,0.034500,1.350702
0.526000,0.000000,0.000000,-24.995610,0.000000,-29.160009,0.000000,-0.334289,0.034500,1.350000
0.527000,0.000000,0.000000,-25.090560,0.000000,-29.247956,0.000000,-0.335354,0.034500,1.349294
0.528000,0.000000,0.000000,-25.185690,0.000000,-29.335904,0.000000,-0.336419,0.034500,1.348586
0.529000,0.000000,0.000000,-25.281000,0.000000,-29.423852,0.000000,-0.337484,0.034500,1.347874
0.530000,0.000000,0.000000,-25.376490,0.000000,-29.511800,0.000000,-0.338549,0.034500,1.347159
0.531000,0.000000,0.000000,-25.472160,0.000000,-29.599748,0.000000,-0.339615,0.034500,1.346440
0.532000,0.000000,0.000000,-25.568010,0.000000,-29.687695,0.000000,-0.340681,0.034500,1.345719
0.533000,0.000000,0.000000,-25.664040,0.000000,-29.775643,0.000000,-0.341746,0.034500,1.344994
0.534000,0.000000,0.000000,-25.760250,0.000000,-29.863591,0.000000,-0.342812,0.034500,1.344266
0.535000,0.000000,0.000000,-25.856640,0.000000,-29.951539,0.000000,-0.343878,0.034500,1.343535
0.536000,0.000000,0.000000,-25.953210,0.000000,-30.039487,0.000000,-0.344944,0.034500,1.342801
0.537000,0.000000,0.000000,-26.049960,0.000000,-30.127434,0.000000,-0.346010,0.034500,1.342063
0.538000,0.000000,0.000000,-26.146890,0.000000,-30.215382,0.000000,-0.347076,0.034500,1.341323
0.539000,0.000000,0.000000,-26.244000,0.000000,-30.303330,0.000000,-0.348142,0.034500,1.340579
0.540000,0.000000,0.000000,-26.341290,0.000000,-30.391278,0.000000,-0.349208,0.034500,1.339832
0.541000,0.000000,0.000000,-26.438760,0.000000,-30.479225,0.000000,-0.350274,0.034500,1.339081
0.542000,0.000000,0.000000,-26.536410,0.000000,-30.567173,0.000000,-0.351341,0.034500,1.338327
0.543000,0.000000,0.000000,-26.634240,0.000000,-30.655121,0.000000,-0.352407,0.034500,1.337571
0.544000,0.000000,0.000000,-26.732250,0.000000,-30.743069,0.000000,-0.353473,0.034500,1.336810
0.545000,0.000000,0.000000,-26.830440,0.000000,-30.831017,0.000000,-0.354539,0.034500,1.336047
0.546000,0.000000,0.000000,-26.928810,0.000000,-30.918964,0.000000,-0.355605,0.034500,1.335280
0.547000,0.000000,0.000000,-27.027360,0.000000,-31.006912,0.000000,-0.356671,0.034500,1.334510
0.548000,0.000000,0.000000,-27.126090,0.000000,-31.094860,0.000000,-0.357736,0.034500,1.333737
0.549000,0.000000,0.000000,-27.225000,0.000000,-31.182808,0.000000,-0.358802,0.034500,1.332960
0.550000,0.000000,0.000000,-27.324090,0.000000,-31.270755,0.000000,-0.359868,0.034500,1.332181
0.551000,0.000000,0.000000,-27.423360,0.000000,-31.358703,0.000000,-0.360933,0.034500,1.331398
0.552000,0.000000,0.000000,-27.522810,0.000000,-31.446651,0.000000,-0.361999,0.034500,1.330611
0.553000,0.000000,0.000000,-27.622440,0.000000,-31.534599,0.000000,-0.363064,0.034500,1.329821
0.554000,0.000000,0.000000,-27.722250,0.000000,-31.622547,0.000000,-0.364129,0.034500,1.329028
0.555000,0.000000,0.000000,-27.822240,0.000000,-31.710494,0.000000,-0.365194,0.034500,1.328232
0.556000,0.000000,0.000000,-27.922410,0.000000,-31.798442,0.000000,-0.366259,0.034500,1.327432
0.557000,0.000000,0.000000,-28.022760,0.000000,-31.886390,0.000000,-0.367324,0.034500,1.326629
0.558000,0.000000,0.000000,-28.123290,0.000000,-31.974338,0.000000,-0.368388,0.034500,1.325823
0.559000,0.000000,0.000000,-28.224000,0.000000,-32.062285,0.000000,-0.369452,0.034500,1.325014
0.560000,0.000000,0.000000,-28.324890,0.000000,-32.150233,0.000000,-0.370516,0.034500,1.324201
0.561000,0.000000,0.000000,-28.425960,0.000000,-32.238181,0.000000,-0.371580,0.034500,1.323384
0.562000,0.000000,0.000000,-28.527210,0.000000,-32.326129,0.000000,-0.372643,0.034500,1.322565
0.563000,0.000000,0.000000,-28.628640,0.000000,-32.414077,0.000000,-0.373707,0.034500,1.321742
0.564000,0.000000,0.000000,-28.730250,0.000000,-32.502024,0.000000,-0.374770,0.034500,1.320915
0.565000,0.000000,0.000000,-28.832040,0.000000,-32.589972,0.000000,-0.375832,0.034500,1.320086
0.566000,0.000000,0.000000,-28.934010,0.000000,-32.677920,0.000000,-0.376895,0.034500,1.319253
0.567000,0.000000,0.000000,-29.036160,0.000000,-32.765868,0.000000,-0.377957,0.034500,1.318416
0.568000,0.000000,0.000000,-29.138490,0.000000,-32.853815,0.000000,-0.379019,0.034500,1.317576
0.569000,0.000000,0.000000,-29.241000,0.000000,-32.941763,0.000000,-0.380080,0.034500,1.316733
0.570000,0.000000,0.000000,-29.343690,0.000000,-33.029711,0.000000,-0.381141,0.034500,1.315887
0.571000,0.000000,0.000000,-29.446560,0.000000,-33.117659,0.000000,-0.382202,0.034500,1.315037
0.572000,0.000000,0.000000,-29.549610,0.000000,-33.205607,0.000000,-0.383262,0.034500,1.314183
0.573000,0.000000,0.000000,-29.652840,0.000000,-33.293554,0.000000,-0.384322,0.034500,1.313327
0.574000,0.000000,0.000000,-29.756250,0.000000,-33.381502,0.000000,-0.385382,0.034500,1.312466
0.575000,0.000000,0.000000,-29.859840,0.000000,-33.469450,0.000000,-0.386441,0.034500,1.311603
0.576000,0.000000,0.000000,-29.963610,0.000000,-33.557398,0.000000,-0.387499,0.034500,1.310736
0.577000,0.000000,0.000000,-30.067560,0.000000,-33.645345,0.000000,-0.388558,0.034500,1.309865
0.578000,0.000000,0.000000,-30.171690,0.000000,-33.733293,0.000000,-0.389615,0.034500,1.308992
0.579000,0.000000,0.000000,-30.276000,0.000000,-33.821241,0.000000,-0.390673,0.034500,1.308114
0.580000,0.000000,0.000000,-30.380490,0.000000,-33.909189,0.000000,-0.391730,0.034500,1.307234
0.581000,0.000000,0.000000,-30.485160,0.000000,-33.997137,0.000000,-0.392786,0.034500,1.306350
0.582000,0.000000,0.000000,-30.590010,0.000000,-34.085084,0.000000,-0.393842,0.034500,1.305462
0.583000,0.000000,0.000000,-30.695040,0.000000,-34.173032,0.000000,-0.394897,0.034500,1.304571
0.584000,0.000000,0.000000,-30.800250,0.000000,-34.260980,0.000000,-0.395952,0.034500,1.303677
0.585000,0.000000,0.000000,-30.905640,0.000000,-34.348928,0.000000,-0.397006,0.034500,1.302779
0.586000,0.000000,0.000000,-31.011210,0.000000,-34.436875,0.000000,-0.398060,0.034500,1.301878
0.587000,0.000000,0.000000,-31.116960,0.000000,-34.524823,0.000000,-0.399113,0.034500,1.300973
0.588000,0.000000,0.000000,-31.222890,0.000000,-34.612771,0.000000,-0.400165,0.034500,1.300065
0.589000,0.000000,0.000000,-31.329000,0.000000,-34.700719,0.000000,-0.401217,0.034500,1.299153
0.590000,0.000000,0.000000,-31.435290,0.000000,-34.788667,0.000000,-0.402269,0.034500,1.298238
0.591000,0.000000,0.000000,-31.541760,0.000000,-34.876614,0.000000,-0.403319,0.034500,1.297320
0.592000,0.000000,0.000000,-31.648410,0.000000,-34.964562,0.000000,-0.404369,0.034500,1.296397
0.593000,0.000000,0.000000,-31.755240,0.000000,-35.052510,0.000000,-0.405419,0.034500,1.295472
0.594000,0.000000,0.000000,-31.862250,0.000000,-35.140458,0.000000,-0.406468,0.034500,1.294543
0.595000,0.000000,0.000000,-31.969440,0.000000,-35.228405,0.000000,-0.407516,0.034500,1.293610
0.596000,0.000000,0.000000,-32.076810,0.000000,-35.316353,0.000000,-0.408563,0.034500,1.292674
0.597000,0.000000,0.000000,-32.184360,0.000000,-35.404301,0.000000,-0.409610,0.034500,1.291735
0.598000,0.000000,0.000000,-32.292090,0.000000,-35.492249,0.000000,-0.410656,0.034500,1.290792
0.599000,0.000000,0.000000,-32.400000,0.000000,-35.580197,0.000000,-0.411701,0.034500,1.289845
0.600000,0.000000,0.000000,-32.508090,0.000000,-35.668144,0.000000,-0.412745,0.034500,1.288896
0.601000,0.000000,0.000000,-32.616360,0.000000,-35.756092,0.000000,-0.413789,0.034500,1.287942
0.602000,0.000000,0.000000,-32.724810,0.000000,-35.844040,0.000000,-0.414832,0.034500,1.286985
0.603000,0.000000,0.000000,-32.833440,0.000000,-35.931988,0.000000,-0.415874,0.034500,1.286025
0.604000,0.000000,0.000000,-32.942250,0.000000,-36.019935,0.000000,-0.416915,0.034500,1.285061
0.605000,0.000000,0.000000,-33.051240,0.000000,-36.107883,0.000000,-0.417956,0.034500,1.284093
0.606000,0.000000,0.000000,-33.160410,0.000000,-36.195831,0.000000,-0.418995,0.034500,1.283122
0.607000,0.000000,0.000000,-33.269760,0.000000,-36.283779,0.000000,-0.420034,0.034500,1.282147
0.608000,0.000000,0.000000,-33.379290,0.000000,-36.371727,0.000000,-0.421072,0.034500,1.281169
0.609000,0.000000,0.000000,-33.489000,0.000000,-36.459674,0.000000,-0.422109,0.034500,1.280188
0.610000,0.000000,0.000000,-33.598890,0.000000,-36.547622,0.000000,-0.423145,0.034500,1.279203
0.611000,0.000000,0.000000,-33.708960,0.000000,-36.635570,0.000000,-0.424180,0.034500,1.278214
0.612000,0.000000,0.000000,-33.819210,0.000000,-36.723518,0.000000,-0.425215,0.034500,1.277222
0.613000,0.000000,0.000000,-33.929640,0.000000,-36.811465,0.000000,-0.426248,0.034500,1.276226
0.614000,0.000000,0.000000,-34.040250,0.000000,-36.899413,0.000000,-0.427281,0.034500,1.275227
0.615000,0.000000,0.000000,-34.151040,0.000000,-36.987361,0.000000,-0.428312,0.034500,1.274224
0.616000,0.000000,0.000000,-34.262010,0.000000,-37.075309,0.000000,-0.429342,0.034500,1.273217
0.617000,0.000000,0.000000,-34.373160,0.000000,-37.163257,0.000000,-0.430372,0.034500,1.272207
0.618000,0.000000,0.000000,-34.484490,0.000000,-37.251204,0.000000,-0.431400,0.034500,1.271194
0.619000,0.000000,0.000000,-34.596000,0.000000,-37.339152,0.000000,-0.432428,0.034500,1.270177
0.620000,0.000000,0.000000,-34.707690,0.000000,-37.427100,0.000000,-0.433454,0.034500,1.269156
0.621000,0.000000,0.000000,-34.819560,0.000000,-37.515048,0.000000,-0.434480,0.034500,1.268132
0.622000,0.000000,0.000000,-34.931610,0.000000,-37.602995,0.000000,-0.435504,0.034500,1.267104
0.623000,0.000000,0.000000,-35.043840,0.000000,-37.690943,0.000000,-0.436527,0.034500,1.266073
0.624000,0.000000,0.000000,-35.156250,0.000000,-37.778891,0.000000,-0.437550,0.034500,1.265038
0.625000,0.000000,0.000000,-35.268840,0.000000,-37.866839,0.000000,-0.438571,0.034500,1.263999
0.626000,0.000000,0.000000,-35.381610,0.000000,-37.954787,0.000000,-0.439590,0.034500,1.262957
0.627000,0.000000,0.000000,-35.494560,0.000000,-38.042734,0.000000,-0.440609,0.034500,1.261912
0.628000,0.000000,0.000000,-35.607690,0.000000,-38.130682,0.000000,-0.441627,0.034500,1.260863
0.629000,0.000000,0.000000,-35.721000,0.000000,-38.218630,0.000000,-0.442643,0.034500,1.259810
0.630000,0.000000,0.000000,-35.834490,0.000000,-38.306578,0.000000,-0.443659,0.034500,1.258753
0.631000,0.000000,0.000000,-35.948160,0.000000,-38.394525,0.000000,-0.444673,0.034500,1.257693
0.632000,0.000000,0.000000,-36.062010,0.000000,-38.482473,0.000000,-0.445686,0.034500,1.256630
0.633000,0.000000,0.000000,-36.176040,0.000000,-38.570421,0.000000,-0.446697,0.034500,1.255563
0.634000,0.000000,0.000000,-36.290250,0.000000,-38.658369,0.000000,-0.447708,0.034500,1.254492
0.635000,0.000000,0.000000,-36.404640,0.000000,-38.746317,0.000000,-0.448717,0.034500,1.253418
0.636000,0.000000,0.000000,-36.519210,0.000000,-38.834264,0.000000,-0.449725,0.034500,1.252340
0.637000,0.000000,0.000000,-36.633960,0.000000,-38.922212,0.000000,-0.450731,0.034500,1.251258
0.638000,0.000000,0.000000,-36.748890,0.000000,-39.010160,0.000000,-0.451736,0.034500,1.250173
0.639000,0.000000,0.000000,-36.864000,0.000000,-39.098108,0.000000,-0.452740,0.034500,1.249085
0.640000,0.000000,0.000000,-36.979290,0.000000,-39.186055,0.000000,-0.453743,0.034500,1.247992
0.641000,0.000000,0.000000,-37.094760,0.000000,-39.274003,0.000000,-0.454744,0.034500,1.246897
0.642000,0.000000,0.000000,-37.210410,0.000000,-39.361951,0.000000,-0.455744,0.034500,1.245797
0.643000,0.000000,0.000000,-37.326240,0.000000,-39.449899,0.000000,-0.456743,0.034500,1.244694
0.644000,0.000000,0.000000,-37.442250,0.000000,-39.537847,0.000000,-0.457740,0.034500,1.243587
0.645000,0.000000,0.000000,-37.558440,0.000000,-39.625794,0.000000,-0.458735,0.034500,1.242477
0.646000,0.000000,0.000000,-37.674810,0.000000,-39.713742,0.000000,-0.459730,0.034500,1.241363
0.647000,0.000000,0.000000,-37.791360,0.000000,-39.801690,0.000000,-0.460723,0.034500,1.240246
0.648000,0.000000,0.000000,-37.908090,0.000000,-39.889638,0.000000,-0.461714,0.034500,1.239125
0.649000,0.000000,0.000000,-38.025000,0.000000,-39.977585,0.000000,-0.462704,0.034500,1.238000
0.650000,0.000000,0.000000,-38.142090,0.000000,-40.065533,0.000000,-0.463692,0.034500,1.236871
0.651000,0.000000,0.000000,-38.259360,0.000000,-40.153481,0.000000,-0.464679,0.034500,1.235739
0.652000,0.000000,0.000000,-38.376810,0.000000,-40.241429,0.000000,-0.465665,0.034500,1.234604
0.653000,0.000000,0.000000,-38.494440,0.000000,-40.329377,0.000000,-0.466649,0.034500,1.233465
0.654000,0.000000,0.000000,-38.612250,0.000000,-40.417324,0.000000,-0.467631,0.034500,1.232322
0.655000,0.000000,0.000000,-38.730240,0.000000,-40.505272,0.000000,-0.468612,0.034500,1.231176
0.656000,0.000000,0.000000,-38.848410,0.000000,-40.593220,0.000000,-0.469591,0.034500,1.230026
0.657000,0.000000,0.000000,-38.966760,0.000000,-40.681168,0.000000,-0.470568,0.034500,1.228872
0.658000,0.000000,0.000000,-39.085290,0.000000,-40.769115,0.000000,-0.471544,0.034500,1.227715
0.659000,0.000000,0.000000,-39.204000,0.000000,-40.857063,0.000000,-0.472519,0.034500,1.226554
0.660000,0.000000,0.000000,-39.322890,0.000000,-40.945011,0.000000,-0.473491,0.034500,1.225389
0.661000,0.000000,0.000000,-39.441960,0.000000,-41.032959,0.000000,-0.474462,0.034500,1.224221
0.662000,0.000000,0.000000,-39.561210,0.000000,-41.120907,0.000000,-0.475432,0.034500,1.223049
0.663000,0.000000,0.000000,-39.680640,0.000000,-41.208854,0.000000,-0.476399,0.034500,1.221874
0.664000,0.000000,0.000000,-39.800250,0.000000,-41.296802,0.000000,-0.477365,0.034500,1.220695
0.665000,0.000000,0.000000,-39.920040,0.000000,-41.384750,0.000000,-0.478330,0.034500,1.219512
0.666000,0.000000,0.000000,-40.040010,0.000000,-41.472698,0.000000,-0.479292,0.034500,1.218326
0.667000,0.000000,0.000000,-40.160160,0.000000,-41.560645,0.000000,-0.480253,0.034500,1.217136
0.668000,0.000000,0.000000,-40.280490,0.000000,-41.648593,0.000000,-0.481212,0.034500,1.215943
0.669000,0.000000,0.000000,-40.401000,0.000000,-41.736541,0.000000,-0.482169,0.034500,1.214746
0.670000,0.000000,0.000000,-40.521690,0.000000,-41.824489,0.000000,-0.483124,0.034500,1.213545
0.671000,0.000000,0.000000,-40.642560,0.000000,-41.912437,0.000000,-0.484078,0.034500,1.212341
0.672000,0.000000,0.000000,-40.763610,0.000000,-42.000384,0.000000,-0.485030,0.034500,1.211133
0.673000,0.000000,0.000000,-40.884840,0.000000,-42.088332,0.000000,-0.485979,0.034500,1.209921
0.674000,0.000000,0.000000,-41.006250,0.000000,-42.176280,0.000000,-0.486927,0.034500,1.208706
0.675000,0.000000,0.000000,-41.127840,0.000000,-42.264228,0.000000,-0.487874,0.034500,1.207487
0.676000,0.000000,0.000000,-41.249610,0.000000,-42.352175,0.000000,-0.488818,0.034500,1.206265
0.677000,0.000000,0.000000,-41.371560,0.000000,-42.440123,0.000000,-0.489760,0.034500,1.205039
0.678000,0.000000,0.000000,-41.493690,0.000000,-42.528071,0.000000,-0.490700,0.034500,1.203809
0.679000,0.000000,0.000000,-41.616000,0.000000,-42.616019,0.000000,-0.491639,0.034500,1.202576
0.680000,0.000000,0.000000,-41.738490,0.000000,-42.703967,0.000000,-0.492575,0.034500,1.201339
0.681000,0.000000,0.000000,-41.861160,0.000000,-42.791914,0.000000,-0.493510,0.034500,1.200099
0.682000,0.000000,0.000000,-41.984010,0.000000,-42.879862,0.000000,-0.494442,0.034500,1.198855
0.683000,0.000000,0.000000,-42.107040,0.000000,-42.967810,0.000000,-0.495373,0.034500,1.197607
0.684000,0.000000,0.000000,-42.230250,0.000000,-43.055758,0.000000,-0.496301,0.034500,1.196355
0.685000,0.000000,0.000000,-42.353640,0.000000,-43.143705,0.000000,-0.497227,0.034500,1.195101
0.686000,0.000000,0.000000,-42.477210,0.000000,-43.231653,0.000000,-0.498152,0.034500,1.193842
0.687000,0.000000,0.000000,-42.600960,0.000000,-43.319601,0.000000,-0.499074,0.034500,1.192580
0.688000,0.000000,0.000000,-42.724890,0.000000,-43.407549,0.000000,-0.499994,0.034500,1.191314
0.689000,0.000000,0.000000,-42.849000,0.000000,-43.495497,0.000000,-0.500912,0.034500,1.190045
0.690000,0.000000,0.000000,-42.973290,0.000000,-43.583444,0.000000,-0.501828,0.034500,1.188772
0.691000,0.000000,0.000000,-43.097760,0.000000,-43.671392,0.000000,-0.502742,0.034500,1.187495
0.692000,0.000000,0.000000,-43.222410,0.000000,-43.759340,0.000000,-0.503653,0.034500,1.186215
0.693000,0.000000,0.000000,-43.347240,0.000000,-43.847288,0.000000,-0.504563,0.034500,1.184931
0.694000,0.000000,0.000000,-43.472250,0.000000,-43.935235,0.000000,-0.505470,0.034500,1.183644
0.695000,0.000000,0.000000,-43.597440,0.000000,-44.023183,0.000000,-0.506375,0.034500,1.182353
0.696000,0.000000,0.000000,-43.722810,0.000000,-44.111131,0.000000,-0.507278,0.034500,1.181058
0.697000,0.000000,0.000000,-43.848360,0.000000,-44.199079,0.000000,-0.508178,0.034500,1.179760
0.698000,0.000000,0.000000,-43.974090,0.000000,-44.287027,0.000000,-0.509076,0.034500,1.178458
0.699000,0.000000,0.000000,-44.100000,0.000000,-44.374974,0.000000,-0.509972,0.034500,1.177153
0.700000,0.000000,0.000000,-44.226090,0.000000,-44.462922,0.000000,-0.510866,0.034500,1.175844
0.701000,0.000000,0.000000,-44.352360,0.000000,-44.550870,0.000000,-0.511757,0.034500,1.174531
0.702000,0.000000,0.000000,-44.478810,0.000000,-44.638818,0.000000,-0.512646,0.034500,1.173215
0.703000,0.000000,0.000000,-44.605440,0.000000,-44.726765,0.000000,-0.513533,0.034500,1.171896
0.704000,0.000000,0.000000,-44.732250,0.000000,-44.814713,0.000000,-0.514417,0.034500,1.170572
0.705000,0.000000,0.000000,-44.859240,0.000000,-44.902661,0.000000,-0.515299,0.034500,1.169245
0.706000,0.000000,0.000000,-44.986410,0.000000,-44.990609,0.000000,-0.516179,0.034500,1.167915
0.707000,0.000000,0.000000,-45.113616,0.000000,-45.078557,0.000000,-0.517055,0.034500,1.166582
0.708000,0.000000,0.000000,-45.240645,0.000000,-45.166504,0.000000,-0.517926,0.034500,1.165249
0.709000,0.000000,0.000000,-45.367493,0.000000,-45.254452,0.000000,-0.518793,0.034500,1.163916
0.710000,0.000000,0.000000,-45.494162,0.000000,-45.342400,0.000000,-0.519654,0.034500,1.162582
0.711000,0.000000,0.000000,-45.620650,0.000000,-45.430348,0.000000,-0.520511,0.034500,1.161248
0.712000,0.000000,0.000000,-45.746959,0.000000,-45.518296,0.000000,-0.521363,0.034500,1.159914
0.713000,0.000000,0.000000,-45.873087,0.000000,-45.606243,0.000000,-0.522209,0.034500,1.158580
0.714000,0.000000,0.000000,-45.999035,0.000000,-45.694191,0.000000,-0.523052,0.034500,1.157245
0.715000,0.000000,0.000000,-46.124804,0.000000,-45.782139,0.000000,-0.523889,0.034500,1.155911
0.716000,0.000000,0.000000,-46.250392,0.000000,-45.870087,0.000000,-0.524721,0.034500,1.154576
0.717000,0.000000,0.000000,-46.375801,0.000000,-45.958034,0.000000,-0.525549,0.034500,1.153241
0.718000,0.000000,0.000000,-46.501029,0.000000,-46.045982,0.000000,-0.526372,0.034500,1.151906
0.719000,0.000000,0.000000,-46.626078,0.000000,-46.133930,0.000000,-0.527190,0.034500,1.150571
0.720000,0.000000,0.000000,-46.750946,0.000000,-46.221878,0.000000,-0.528003,0.034500,1.149235
0.721000,0.000000,0.000000,-46.875635,0.000000,-46.309826,0.000000,-0.528811,0.034500,1.147900
0.722000,0.000000,0.000000,-47.000143,0.000000,-46.397773,0.000000,-0.529615,0.034500,1.146564
0.723000,0.000000,0.000000,-47.124471,0.000000,-46.485721,0.000000,-0.530414,0.034500,1.145229
0.724000,0.000000,0.000000,-47.248620,0.000000,-46.573669,0.000000,-0.531208,0.034500,1.143893
0.725000,0.000000,0.000000,-47.372588,0.000000,-46.661617,0.000000,-0.531997,0.034500,1.142558
0.726000,0.000000,0.000000,-47.496377,0.000000,-46.749564,0.000000,-0.532782,0.034500,1.141222
0.727000,0.000000,0.000000,-47.619985,0.000000,-46.837512,0.000000,-0.533562,0.034500,1.139887
0.728000,0.000000,0.000000,-47.743414,0.000000,-46.925460,0.000000,-0.534337,0.034500,1.138552
0.729000,0.000000,0.000000,-47.866662,0.000000,-47.013408,0.000000,-0.535108,0.034500,1.137216
0.730000,0.000000,0.000000,-47.989731,0.000000,-47.101356,0.000000,-0.535874,0.034500,1.135881
0.731000,0.000000,0.000000,-48.112619,0.000000,-47.189303,0.000000,-0.536635,0.034500,1.134546
0.732000,0.000000,0.000000,-48.235327,0.000000,-47.277251,0.000000,-0.537391,0.034500,1.133211
0.733000,0.000000,0.000000,-48.357856,0.000000,-47.365199,0.000000,-0.538143,0.034500,1.131876
0.734000,0.000000,0.000000,-48.480204,0.000000,-47.453147,0.000000,-0.538890,0.034500,1.130541
0.735000,0.000000,0.000000,-48.602373,0.000000,-47.541094,0.000000,-0.539632,0.034500,1.129207
0.736000,0.000000,0.000000,-48.724361,0.000000,-47.629042,0.000000,-0.540370,0.034500,1.127872
0.737000,0.000000,0.000000,-48.846170,0.000000,-47.716990,0.000000,-0.541104,0.034500,1.126538
0.738000,0.000000,0.000000,-48.967798,0.000000,-47.804938,0.000000,-0.541832,0.034500,1.125204
0.739000,0.000000,0.000000,-49.089247,0.000000,-47.892886,0.000000,-0.542556,0.034500,1.123871
0.740000,0.000000,0.000000,-49.210515,0.000000,-47.980833,0.000000,-0.543275,0.034500,1.122537
0.741000,0.000000,0.000000,-49.331603,0.000000,-48.068781,0.000000,-0.543990,0.034500,1.121204
0.742000,0.000000,0.000000,-49.452512,0.000000,-48.156729,0.000000,-0.544700,0.034500,1.119871
0.743000,0.000000,0.000000,-49.573240,0.000000,-48.244677,0.000000,-0.545406,0.034500,1.118539
0.744000,0.000000,0.000000,-49.693789,0.000000,-48.332624,0.000000,-0.546107,0.034500,1.117207
0.745000,0.000000,0.000000,-49.814157,0.000000,-48.420572,0.000000,-0.546804,0.034500,1.115875
0.746000,0.000000,0.000000,-49.934346,0.000000,-48.508520,0.000000,-0.547496,0.034500,1.114543
0.747000,0.000000,0.000000,-50.054354,0.000000,-48.596468,0.000000,-0.548183,0.034500,1.113212
0.748000,0.000000,0.000000,-50.174183,0.000000,-48.684416,0.000000,-0.548866,0.034500,1.111881
0.749000,0.000000,0.000000,-50.293831,0.000000,-48.772363,0.000000,-0.549544,0.034500,1.110551
0.750000,0.000000,0.000000,-50.413299,0.000000,-48.860311,0.000000,-0.550218,0.034500,1.109221
0.751000,0.000000,0.000000,-50.532588,0.000000,-48.948259,0.000000,-0.550888,0.034500,1.107891
0.752000,0.000000,0.000000,-50.651696,0.000000,-49.036207,0.000000,-0.551552,0.034500,1.106562
0.753000,0.000000,0.000000,-50.770625,0.000000,-49.124154,0.000000,-0.552213,0.034500,1.105234
0.754000,0.000000,0.000000,-50.889373,0.000000,-49.212102,0.000000,-0.552869,0.034500,1.103906
0.755000,0.000000,0.000000,-51.007942,0.000000,-49.300050,0.000000,-0.553520,0.034500,1.102578
0.756000,0.000000,0.000000,-51.126330,0.000000,-49.387998,0.000000,-0.554168,0.034500,1.101251
0.757000,0.000000,0.000000,-51.244539,0.000000,-49.475946,0.000000,-0.554810,0.034500,1.099925
0.758000,0.000000,0.000000,-51.362567,0.000000,-49.563893,0.000000,-0.555448,0.034500,1.098599
0.759000,0.000000,0.000000,-51.480415,0.000000,-49.651841,0.000000,-0.556082,0.034500,1.097273
0.760000,0.000000,0.000000,-51.598084,0.000000,-49.739789,0.000000,-0.556712,0.034500,1.095948
0.761000,0.000000,0.000000,-51.715572,0.000000,-49.827737,0.000000,-0.557337,0.034500,1.094624
0.762000,0.000000,0.000000,-51.832881,0.000000,-49.915684,0.000000,-0.557957,0.034500,1.093300
0.763000,0.000000,0.000000,-51.950009,0.000000,-50.003632,0.000000,-0.558574,0.034500,1.091977
0.764000,0.000000,0.000000,-52.066958,0.000000,-50.091580,0.000000,-0.559186,0.034500,1.090655
0.765000,0.000000,0.000000,-52.183726,0.000000,-50.179528,0.000000,-0.559793,0.034500,1.089333
0.766000,0.000000,0.000000,-52.300315,0.000000,-50.267476,0.000000,-0.560397,0.034500,1.088012
0.767000,0.000000,0.000000,-52.416723,0.000000,-50.355423,0.000000,-0.560996,0.034500,1.086692
0.768000,0.000000,0.000000,-52.532951,0.000000,-50.443371,0.000000,-0.561590,0.034500,1.085372
0.769000,0.000000,0.000000,-52.649000,0.000000,-50.531319,0.000000,-0.562181,0.034500,1.084053
0.770000,0.000000,0.000000,-52.764868,0.000000,-50.619267,0.000000,-0.562767,0.034500,1.082735
0.771000,0.000000,0.000000,-52.880557,0.000000,-50.707214,0.000000,-0.563348,0.034500,1.081417
0.772000,0.000000,0.000000,-52.996065,0.000000,-50.795162,0.000000,-0.563926,0.034500,1.080101
0.773000,0.000000,0.000000,-53.111394,0.000000,-50.883110,0.000000,-0.564499,0.034500,1.078785
0.774000,0.000000,0.000000,-53.226542,0.000000,-50.971058,0.000000,-0.565068,0.034500,1.077470
0.775000,0.000000,0.000000,-53.341511,0.000000,-51.059006,0.000000,-0.565633,0.034500,1.076155
0.776000,0.000000,0.000000,-53.456299,0.000000,-51.146953,0.000000,-0.566193,0.034500,1.074842
0.777000,0.000000,0.000000,-53.570907,0.000000,-51.234901,0.000000,-0.566750,0.034500,1.073529
0.778000,0.000000,0.000000,-53.685336,0.000000,-51.322849,0.000000,-0.567302,0.034500,1.072217
0.779000,0.000000,0.000000,-53.799584,0.000000,-51.410797,0.000000,-0.567850,0.034500,1.070906
0.780000,0.000000,0.000000,-53.913653,0.000000,-51.498744,0.000000,-0.568393,0.034500,1.069596
0.781000,0.000000,0.000000,-54.027541,0.000000,-51.586692,0.000000,-0.568933,0.034500,1.068286
0.782000,0.000000,0.000000,-54.141250,0.000000,-51.674640,0.000000,-0.569468,0.034500,1.066978
0.783000,0.000000,0.000000,-54.254778,0.000000,-51.762588,0.000000,-0.570000,0.034500,1.065670
0.784000,0.000000,0.000000,-54.368127,0.000000,-51.850536,0.000000,-0.570527,0.034500,1.064364
0.785000,0.000000,0.000000,-54.481295,0.000000,-51.938483,0.000000,-0.571050,0.034500,1.063058
0.786000,0.000000,0.000000,-54.594283,0.000000,-52.026431,0.000000,-0.571569,0.034500,1.061753
0.787000,0.000000,0.000000,-54.707092,0.000000,-52.114379,0.000000,-0.572083,0.034500,1.060450
0.788000,0.000000,0.000000,-54.819720,0.000000,-52.202327,0.000000,-0.572594,0.034500,1.059147
0.789000,0.000000,0.000000,-54.932169,0.000000,-52.290274,0.000000,-0.573101,0.034500,1.057845
0.790000,0.000000,0.000000,-55.044437,0.000000,-52.378222,0.000000,-0.573603,0.034500,1.056544
0.791000,0.000000,0.000000,-55.156526,0.000000,-52.466170,0.000000,-0.574102,0.034500,1.055245
0.792000,0.000000,0.000000,-55.268434,0.000000,-52.554118,0.000000,-0.574596,0.034500,1.053946
0.793000,0.000000,0.000000,-55.380163,0.000000,-52.642066,0.000000,-0.575087,0.034500,1.052648
0.794000,0.000000,0.000000,-55.491711,0.000000,-52.730013,0.000000,-0.575573,0.034500,1.051352
0.795000,0.000000,0.000000,-55.603079,0.000000,-52.817961,0.000000,-0.576055,0.034500,1.050056
0.796000,0.000000,0.000000,-55.714268,0.000000,-52.905909,0.000000,-0.576534,0.034500,1.048762
0.797000,0.000000,0.000000,-55.825276,0.000000,-52.993857,0.000000,-0.577008,0.034500,1.047468
0.798000,0.000000,0.000000,-55.936105,0.000000,-53.081804,0.000000,-0.577479,0.034500,1.046176
0.799000,0.000000,0.000000,-56.046753,0.000000,-53.169752,0.000000,-0.577945,0.034500,1.044885
0.800000,0.000000,0.000000,-56.157222,0.000000,-53.257700,0.000000,-0.578407,0.034500,1.043595
0.801000,0.000000,0.000000,-56.267510,0.000000,-53.345648,0.000000,-0.578866,0.034500,1.042306
0.802000,0.000000,0.000000,-56.377619,0.000000,-53.433596,0.000000,-0.579321,0.034500,1.041018
0.803000,0.000000,0.000000,-56.487547,0.000000,-53.521543,0.000000,-0.579771,0.034500,1.039732
0.804000,0.000000,0.000000,-56.597295,0.000000,-53.609491,0.000000,-0.580218,0.034500,1.038446
0.805000,0.000000,0.000000,-56.706864,0.000000,-53.697439,0.000000,-0.580661,0.034500,1.037162
0.806000,0.000000,0.000000,-56.816252,0.000000,-53.785387,0.000000,-0.581100,0.034500,1.035879
0.807000,0.000000,0.000000,-56.925461,0.000000,-53.873334,0.000000,-0.581535,0.034500,1.034597
0.808000,0.000000,0.000000,-57.034489,0.000000,-53.961282,0.000000,-0.581966,0.034500,1.033317
0.809000,0.000000,0.000000,-57.143338,0.000000,-54.049230,0.000000,-0.582394,0.034500,1.032037
0.810000,0.000000,0.000000,-57.252006,0.000000,-54.137178,0.000000,-0.582817,0.034500,1.030759
0.811000,0.000000,0.000000,-57.360495,0.000000,-54.225126,0.000000,-0.583237,0.034500,1.029483
0.812000,0.000000,0.000000,-57.468803,0.000000,-54.313073,0.000000,-0.583653,0.034500,1.028207
0.813000,0.000000,0.000000,-57.576931,0.000000,-54.401021,0.000000,-0.584065,0.034500,1.026933
0.814000,0.000000,0.000000,-57.684880,0.000000,-54.488969,0.000000,-0.584474,0.034500,1.025660
0.815000,0.000000,0.000000,-57.792648,0.000000,-54.576917,0.000000,-0.584878,0.034500,1.024388
0.816000,0.000000,0.000000,-57.900237,0.000000,-54.664864,0.000000,-0.585279,0.034500,1.023118
0.817000,0.000000,0.000000,-58.007645,0.000000,-54.752812,0.000000,-0.585676,0.034500,1.021849
0.818000,0.000000,0.000000,-58.114874,0.000000,-54.840760,0.000000,-0.586070,0.034500,1.020582
0.819000,0.000000,0.000000,-58.221922,0.000000,-54.928708,0.000000,-0.586459,0.034500,1.019315
0.820000,0.000000,0.000000,-58.328791,0.000000,-55.016656,0.000000,-0.586845,0.034500,1.018050
0.821000,0.000000,0.000000,-58.435479,0.000000,-55.104603,0.000000,-0.587227,0.034500,1.016787
0.822000,0.000000,0.000000,-58.541987,0.000000,-55.192551,0.000000,-0.587606,0.034500,1.015525
0.823000,0.000000,0.000000,-58.648316,0.000000,-55.280499,0.000000,-0.587980,0.034500,1.014264
0.824000,0.000000,0.000000,-58.754464,0.000000,-55.368447,0.000000,-0.588351,0.034500,1.013005
0.825000,0.000000,0.000000,-58.860433,0.000000,-55.456394,0.000000,-0.588719,0.034500,1.011747
0.826000,0.000000,0.000000,-58.966221,0.000000,-55.544342,0.000000,-0.589083,0.034500,1.010491
0.827000,0.000000,0.000000,-59.071830,0.000000,-55.632290,0.000000,-0.589443,0.034500,1.009236
0.828000,0.000000,0.000000,-59.177258,0.000000,-55.720238,0.000000,-0.589799,0.034500,1.007982
0.829000,0.000000,0.000000,-59.282507,0.000000,-55.808186,0.000000,-0.590152,0.034500,1.006730
0.830000,0.000000,0.000000,-59.387575,0.000000,-55.896133,0.000000,-0.590502,0.034500,1.005479
0.831000,0.000000,0.000000,-59.492463,0.000000,-55.984081,0.000000,-0.590848,0.034500,1.004230
0.832000,0.000000,0.000000,-59.597172,0.000000,-56.072029,0.000000,-0.591190,0.034500,1.002983
0.833000,0.000000,0.000000,-59.701700,0.000000,-56.159977,0.000000,-0.591528,0.034500,1.001736
0.834000,0.000000,0.000000,-59.806049,0.000000,-56.247924,0.000000,-0.591863,0.034500,1.000492
0.835000,0.000000,0.000000,-59.910217,0.000000,-56.335872,0.000000,-0.592195,0.034500,0.999249
0.836000,0.000000,0.000000,-60.014206,0.000000,-56.423820,0.000000,-0.592523,0.034500,0.998007
0.837000,0.000000,0.000000,-60.118014,0.000000,-56.511768,0.000000,-0.592847,0.034500,0.996767
0.838000,0.000000,0.000000,-60.221643,0.000000,-56.599716,0.000000,-0.593168,0.034500,0.995529
0.839000,0.000000,0.000000,-60.325091,0.000000,-56.687663,0.000000,-0.593486,0.034500,0.994292
0.840000,0.000000,0.000000,-60.428359,0.000000,-56.775611,0.000000,-0.593800,0.034500,0.993057
0.841000,0.000000,0.000000,-60.531448,0.000000,-56.863559,0.000000,-0.594110,0.034500,0.991823
0.842000,0.000000,0.000000,-60.634356,0.000000,-56.951507,0.000000,-0.594417,0.034500,0.990591
0.843000,0.000000,0.000000,-60.737085,0.000000,-57.039454,0.000000,-0.594721,0.034500,0.989360
0.844000,0.000000,0.000000,-60.839633,0.000000,-57.127402,0.000000,-0.595021,0.034500,0.988131
0.845000,0.000000,0.000000,-60.942002,0.000000,-57.215350,0.000000,-0.595318,0.034500,0.986904
0.846000,0.000000,0.000000,-61.044190,0.000000,-57.303298,0.000000,-0.595611,0.034500,0.985678
0.847000,0.000000,0.000000,-61.146199,0.000000,-57.391246,0.000000,-0.595901,0.034500,0.984454
0.848000,0.000000,0.000000,-61.248027,0.000000,-57.479193,0.000000,-0.596188,0.034500,0.983232
0.849000,0.000000,0.000000,-61.349675,0.000000,-57.567141,0.000000,-0.596471,0.034500,0.982011
0.850000,0.000000,0.000000,-61.451144,0.000000,-57.655089,0.000000,-0.596751,0.034500,0.980792
0.851000,0.000000,0.000000,-61.552432,0.000000,-57.743037,0.000000,-0.597028,0.034500,0.979575
0.852000,0.000000,0.000000,-61.653541,0.000000,-57.830984,0.000000,-0.597301,0.034500,0.978360
0.853000,0.000000,0.000000,-61.754469,0.000000,-57.918932,0.000000,-0.597571,0.034500,0.977146
0.854000,0.000000,0.000000,-61.855218,0.000000,-58.006880,0.000000,-0.597837,0.034500,0.975933
0.855000,0.000000,0.000000,-61.955786,0.000000,-58.094828,0.000000,-0.598101,0.034500,0.974723
0.856000,0.000000,0.000000,-62.056175,0.000000,-58.182776,0.000000,-0.598361,0.034500,0.973514
0.857000,0.000000,0.000000,-62.156383,0.000000,-58.270723,0.000000,-0.598617,0.034500,0.972307
0.858000,0.000000,0.000000,-62.256411,0.000000,-58.358671,0.000000,-0.598871,0.034500,0.971102
0.859000,0.000000,0.000000,-62.356260,0.000000,-58.446619,0.000000,-0.599121,0.034500,0.969898
0.860000,0.000000,0.000000,-62.455928,0.000000,-58.534567,0.000000,-0.599368,0.034500,0.968696
0.861000,0.000000,0.000000,-62.555417,0.000000,-58.622514,0.000000,-0.599612,0.034500,0.967496
0.862000,0.000000,0.000000,-62.654725,0.000000,-58.710462,0.000000,-0.599852,0.034500,0.966298
0.863000,0.000000,0.000000,-62.753854,0.000000,-58.798410,0.000000,-0.600090,0.034500,0.965102
0.864000,0.000000,0.000000,-62.852802,0.000000,-58.886358,0.000000,-0.600324,0.034500,0.963907
0.865000,0.000000,0.000000,-62.951571,0.000000,-58.974306,0.000000,-0.600555,0.034500,0.962714
0.866000,0.000000,0.000000,-63.050159,0.000000,-59.062253,0.000000,-0.600782,0.034500,0.961523
0.867000,0.000000,0.000000,-63.148567,0.000000,-59.150201,0.000000,-0.601007,0.034500,0.960334
0.868000,0.000000,0.000000,-63.246796,0.000000,-59.238149,0.000000,-0.601229,0.034500,0.959147
0.869000,0.000000,0.000000,-63.344844,0.000000,-59.326097,0.000000,-0.601447,0.034500,0.957961
0.870000,0.000000,0.000000,-63.442713,0.000000,-59.414044,0.000000,-0.601662,0.034500,0.956777
0.871000,0.000000,0.000000,-63.540401,0.000000,-59.501992,0.000000,-0.601874,0.034500,0.955595
0.872000,0.000000,0.000000,-63.637910,0.000000,-59.589940,0.000000,-0.602083,0.034500,0.954415
0.873000,0.000000,0.000000,-63.735238,0.000000,-59.677888,0.000000,-0.602289,0.034500,0.953237
0.874000,0.000000,0.000000,-63.832387,0.000000,-59.765836,0.000000,-0.602492,0.034500,0.952061
0.875000,0.000000,0.000000,-63.929355,0.000000,-59.853783,0.000000,-0.602692,0.034500,0.950887
0.876000,0.000000,0.000000,-64.026143,0.000000,-59.941731,0.000000,-0.602889,0.034500,0.949714
0.877000,0.000000,0.000000,-64.122752,0.000000,-60.029679,0.000000,-0.603083,0.034500,0.948544
0.878000,0.000000,0.000000,-64.219180,0.000000,-60.117627,0.000000,-0.603274,0.034500,0.947375
0.879000,0.000000,0.000000,-64.315429,0.000000,-60.205574,0.000000,-0.603461,0.034500,0.946208
0.880000,0.000000,0.000000,-64.411497,0.000000,-60.293522,0.000000,-0.603646,0.034500,0.945043
0.881000,0.000000,0.000000,-64.507386,0.000000,-60.381470,0.000000,-0.603828,0.034500,0.943880
0.882000,0.000000,0.000000,-64.603094,0.000000,-60.469418,0.000000,-0.604007,0.034500,0.942719
0.883000,0.000000,0.000000,-64.698623,0.000000,-60.557366,0.000000,-0.604183,0.034500,0.941560
0.884000,0.000000,0.000000,-64.793971,0.000000,-60.645313,0.000000,-0.604356,0.034500,0.940403
0.885000,0.000000,0.000000,-64.889139,0.000000,-60.733261,0.000000,-0.604526,0.034500,0.939248
0.886000,0.000000,0.000000,-64.984128,0.000000,-60.821209,0.000000,-0.604693,0.034500,0.938095
0.887000,0.000000,0.000000,-65.078936,0.000000,-60.909157,0.000000,-0.604857,0.034500,0.936944
0.888000,0.000000,0.000000,-65.173565,0.000000,-60.997105,0.000000,-0.605018,0.034500,0.935795
0.889000,0.000000,0.000000,-65.268013,0.000000,-61.085052,0.000000,-0.605177,0.034500,0.934647
0.890000,0.000000,0.000000,-65.362282,0.000000,-61.173000,0.000000,-0.605332,0.034500,0.933502
0.891000,0.000000,0.000000,-65.456370,0.000000,-61.260948,0.000000,-0.605485,0.034500,0.932359
0.892000,0.000000,0.000000,-65.550279,0.000000,-61.348896,0.000000,-0.605634,0.034500,0.931218
0.893000,0.000000,0.000000,-65.644007,0.000000,-61.436843,0.000000,-0.605781,0.034500,0.930078
0.894000,0.000000,0.000000,-65.737555,0.000000,-61.524791,0.000000,-0.605926,0.034500,0.928941
0.895000,0.000000,0.000000,-65.830924,0.000000,-61.612739,0.000000,-0.606067,0.034500,0.927806
0.896000,0.000000,0.000000,-65.924112,0.000000,-61.700687,0.000000,-0.606205,0.034500,0.926673
0.897000,0.000000,0.000000,-66.017121,0.000000,-61.788635,0.000000,-0.606341,0.034500,0.925542
0.898000,0.000000,0.000000,-66.109949,0.000000,-61.876582,0.000000,-0.606474,0.034500,0.924413
0.899000,0.000000,0.000000,-66.202598,0.000000,-61.964530,0.000000,-0.606604,0.034500,0.923286
0.900000,0.000000,0.000000,-66.295066,0.000000,-62.052478,0.000000,-0.606732,0.034500,0.922161
0.901000,0.000000,0.000000,-66.387355,0.000000,-62.140426,0.000000,-0.606856,0.034500,0.921038
0.902000,0.000000,0.000000,-66.479463,0.000000,-62.228373,0.000000,-0.606978,0.034500,0.919917
0.903000,0.000000,0.000000,-66.571391,0.000000,-62.316321,0.000000,-0.607098,0.034500,0.918798
0.904000,0.000000,0.000000,-66.663140,0.000000,-62.404269,0.000000,-0.607214,0.034500,0.917682
0.905000,0.000000,0.000000,-66.754708,0.000000,-62.492217,0.000000,-0.607328,0.034500,0.916567
0.906000,0.000000,0.000000,-66.846097,0.000000,-62.580165,0.000000,-0.607439,0.034500,0.915455
0.907000,0.000000,0.000000,-66.937305,0.000000,-62.668112,0.000000,-0.607548,0.034500,0.914345
0.908000,0.000000,0.000000,-67.028334,0.000000,-62.756060,0.000000,-0.607654,0.034500,0.913236
0.909000,0.000000,0.000000,-67.119182,0.000000,-62.844008,0.000000,-0.607757,0.034500,0.912130
0.910000,0.000000,0.000000,-67.209851,0.000000,-62.931956,0.000000,-0.607857,0.034500,0.911026
0.911000,0.000000,0.000000,-67.300339,0.000000,-63.019903,0.000000,-0.607955,0.034500,0.909924
0.912000,0.000000,0.000000,-67.390647,0.000000,-63.107851,0.000000,-0.608051,0.034500,0.908825
0.913000,0.000000,0.000000,-67.480776,0.000000,-63.195799,0.000000,-0.608143,0.034500,0.907727
0.914000,0.000000,0.000000,-67.570724,0.000000,-63.283747,0.000000,-0.608234,0.034500,0.906631
0.915000,0.000000,0.000000,-67.660493,0.000000,-63.371695,0.000000,-0.608321,0.034500,0.905538
0.916000,0.000000,0.000000,-67.750081,0.000000,-63.459642,0.000000,-0.608406,0.034500,0.904447
0.917000,0.000000,0.000000,-67.839490,0.000000,-63.547590,0.000000,-0.608489,0.034500,0.903358
0.918000,0.000000,0.000000,-67.928718,0.000000,-63.635538,0.000000,-0.608569,0.034500,0.902271
0.919000,0.000000,0.000000,-68.017767,0.000000,-63.723486,0.000000,-0.608646,0.034500,0.901186
0.920000,0.000000,0.000000,-68.106635,0.000000,-63.811433,0.000000,-0.608721,0.034500,0.900104
0.921000,0.000000,0.000000,-68.195323,0.000000,-63.899381,0.000000,-0.608793,0.034500,0.899024
0.922000,0.000000,0.000000,-68.283832,0.000000,-63.987329,0.000000,-0.608863,0.034500,0.897946
0.923000,0.000000,0.000000,-68.372160,0.000000,-64.075277,0.000000,-0.608931,0.034500,0.896870
0.924000,0.000000,0.000000,-68.460309,0.000000,-64.163225,0.000000,-0.608995,0.034500,0.895796
0.925000,0.000000,0.000000,-68.548277,0.000000,-64.251172,0.000000,-0.609058,0.034500,0.894724
0.926000,0.000000,0.000000,-68.636066,0.000000,-64.339120,0.000000,-0.609118,0.034500,0.893655
0.927000,0.000000,0.000000,-68.723674,0.000000,-64.427068,0.000000,-0.609176,0.034500,0.892588
0.928000,0.000000,0.000000,-68.811103,0.000000,-64.515016,0.000000,-0.609231,0.034500,0.891523
0.929000,0.000000,0.000000,-68.898351,0.000000,-64.602963,0.000000,-0.609284,0.034500,0.890460
0.930000,0.000000,0.000000,-68.985419,0.000000,-64.690911,0.000000,-0.609334,0.034500,0.889400
0.931000,0.000000,0.000000,-69.072308,0.000000,-64.778859,0.000000,-0.609382,0.034500,0.888342
0.932000,0.000000,0.000000,-69.159016,0.000000,-64.866807,0.000000,-0.609428,0.034500,0.887286
0.933000,0.000000,0.000000,-69.245545,0.000000,-64.954755,0.000000,-0.609471,0.034500,0.886232
0.934000,0.000000,0.000000,-69.331893,0.000000,-65.042702,0.000000,-0.609512,0.034500,0.885180
0.935000,0.000000,0.000000,-69.418062,0.000000,-65.130650,0.000000,-0.609550,0.034500,0.884131
0.936000,0.000000,0.000000,-69.504050,0.000000,-65.218598,0.000000,-0.609587,0.034500,0.883084
0.937000,0.000000,0.000000,-69.589858,0.000000,-65.306546,0.000000,-0.609621,0.034500,0.882039
0.938000,0.000000,0.000000,-69.675487,0.000000,-65.394493,0.000000,-0.609652,0.034500,0.880997
0.939000,0.000000,0.000000,-69.760935,0.000000,-65.482441,0.000000,-0.609682,0.034500,0.879957
0.940000,0.000000,0.000000,-69.846204,0.000000,-65.570389,0.000000,-0.609709,0.034500,0.878919
0.941000,0.000000,0.000000,-69.931292,0.000000,-65.658337,0.000000,-0.609733,0.034500,0.877883
0.942000,0.000000,0.000000,-70.016201,0.000000,-65.746285,0.000000,-0.609756,0.034500,0.876850
0.943000,0.000000,0.000000,-70.100929,0.000000,-65.834232,0.000000,-0.609776,0.034500,0.875819
0.944000,0.000000,0.000000,-70.185478,0.000000,-65.922180,0.000000,-0.609794,0.034500,0.874790
0.945000,0.000000,0.000000,-70.269846,0.000000,-66.010128,0.000000,-0.609810,0.034500,0.873763
0.946000,0.000000,0.000000,-70.354034,0.000000,-66.098076,0.000000,-0.609824,0.034500,0.872739
0.947000,0.000000,0.000000,-70.438043,0.000000,-66.186023,0.000000,-0.609835,0.034500,0.871717
0.948000,0.000000,0.000000,-70.521871,0.000000,-66.273971,0.000000,-0.609844,0.034500,0.870698
0.949000,0.000000,0.000000,-70.605520,0.000000,-66.361919,0.000000,-0.609851,0.034500,0.869680
0.950000,0.000000,0.000000,-70.688988,0.000000,-66.449867,0.000000,-0.609856,0.034500,0.868665
0.951000,0.000000,0.000000,-70.772277,0.000000,-66.537815,0.000000,-0.609859,0.034500,0.867653
0.952000,0.000000,0.000000,-70.855385,0.000000,-66.625762,0.000000,-0.609860,0.034500,0.866642
0.953000,0.000000,0.000000,-70.938314,0.000000,-66.713710,0.000000,-0.609858,0.034500,0.865634
0.954000,0.000000,0.000000,-71.021062,0.000000,-66.801658,0.000000,-0.609854,0.034500,0.864629
0.955000,0.000000,0.000000,-71.103630,0.000000,-66.889606,0.000000,-0.609849,0.034500,0.863625
0.956000,0.000000,0.000000,-71.186019,0.000000,-66.977553,0.000000,-0.609841,0.034500,0.862624
0.957000,0.000000,0.000000,-71.268227,0.000000,-67.065501,0.000000,-0.609831,0.034500,0.861626
0.958000,0.000000,0.000000,-71.350256,0.000000,-67.153449,0.000000,-0.609819,0.034500,0.860629
0.959000,0.000000,0.000000,-71.432104,0.000000,-67.241397,0.000000,-0.609805,0.034500,0.859635
0.960000,0.000000,0.000000,-71.513773,0.000000,-67.329345,0.000000,-0.609788,0.034500,0.858644
0.961000,0.000000,0.000000,-71.595261,0.000000,-67.417292,0.000000,-0.609770,0.034500,0.857654
0.962000,0.000000,0.000000,-71.676570,0.000000,-67.505240,0.000000,-0.609750,0.034500,0.856668
0.963000,0.000000,0.000000,-71.757698,0.000000,-67.593188,0.000000,-0.609728,0.034500,0.855683
0.964000,0.000000,0.000000,-71.838646,0.000000,-67.681136,0.000000,-0.609703,0.034500,0.854701
0.965000,0.000000,0.000000,-71.919415,0.000000,-67.769083,0.000000,-0.609677,0.034500,0.853721
0.966000,0.000000,0.000000,-72.000003,0.000000,-67.857031,0.000000,-0.609649,0.034500,0.852743
0.967000,0.000000,0.000000,-72.080412,0.000000,-67.944979,0.000000,-0.609619,0.034500,0.851768
0.968000,0.000000,0.000000,-72.160640,0.000000,-68.032927,0.000000,-0.609587,0.034500,0.850796
0.969000,0.000000,0.000000,-72.240689,0.000000,-68.120875,0.000000,-0.609552,0.034500,0.849825
0.970000,0.000000,0.000000,-72.320557,0.000000,-68.208822,0.000000,-0.609516,0.034500,0.848857
0.971000,0.000000,0.000000,-72.400246,0.000000,-68.296770,0.000000,-0.609478,0.034500,0.847892
0.972000,0.000000,0.000000,-72.479754,0.000000,-68.384718,0.000000,-0.609438,0.034500,0.846929
0.973000,0.000000,0.000000,-72.559082,0.000000,-68.472666,0.000000,-0.609396,0.034500,0.845968
0.974000,0.000000,0.000000,-72.638231,0.000000,-68.560613,0.000000,-0.609353,0.034500,0.845009
0.975000,0.000000,0.000000,-72.717199,0.000000,-68.648561,0.000000,-0.609307,0.034500,0.844053
0.976000,0.000000,0.000000,-72.795988,0.000000,-68.736509,0.000000,-0.609260,0.034500,0.843100
0.977000,0.000000,0.000000,-72.874596,0.000000,-68.824457,0.000000,-0.609210,0.034500,0.842149
0.978000,0.000000,0.000000,-72.953025,0.000000,-68.912405,0.000000,-0.609159,0.034500,0.841200
0.979000,0.000000,0.000000,-73.031273,0.000000,-69.000352,0.000000,-0.609106,0.034500,0.840254
0.980000,0.000000,0.000000,-73.109342,0.000000,-69.088300,0.000000,-0.609051,0.034500,0.839310
0.981000,0.000000,0.000000,-73.187230,0.000000,-69.176248,0.000000,-0.608994,0.034500,0.838368
0.982000,0.000000,0.000000,-73.264938,0.000000,-69.264196,0.000000,-0.608936,0.034500,0.837429
0.983000,0.000000,0.000000,-73.342467,0.000000,-69.352143,0.000000,-0.608875,0.034500,0.836492
0.984000,0.000000,0.000000,-73.419815,0.000000,-69.440091,0.000000,-0.608813,0.034500,0.835558
0.985000,0.000000,0.000000,-73.496984,0.000000,-69.528039,0.000000,-0.608749,0.034500,0.834626
0.986000,0.000000,0.000000,-73.573972,0.000000,-69.615987,0.000000,-0.608684,0.034500,0.833697
0.987000,0.000000,0.000000,-73.650781,0.000000,-69.703935,0.000000,-0.608616,0.034500,0.832770
0.988000,0.000000,0.000000,-73.727409,0.000000,-69.791882,0.000000,-0.608547,0.034500,0.831845
0.989000,0.000000,0.000000,-73.803858,0.000000,-69.879830,0.000000,-0.608476,0.034500,0.830923
0.990000,0.000000,0.000000,-73.880126,0.000000,-69.967778,0.000000,-0.608403,0.034500,0.830003
0.991000,0.000000,0.000000,-73.956214,0.000000,-70.055726,0.000000,-0.608329,0.034500,0.829086
0.992000,0.000000,0.000000,-74.032123,0.000000,-70.143673,0.000000,-0.608253,0.034500,0.828171
0.993000,0.000000,0.000000,-74.107851,0.000000,-70.231621,0.000000,-0.608175,0.034500,0.827259
0.994000,0.000000,0.000000,-74.183400,0.000000,-70.319569,0.000000,-0.608096,0.034500,0.826349
0.995000,0.000000,0.000000,-74.258768,0.000000,-70.407517,0.000000,-0.608015,0.034500,0.825441
0.996000,0.000000,0.000000,-74.333957,0.000000,-70.495465,0.000000,-0.607932,0.034500,0.824536
0.997000,0.000000,0.000000,-74.408965,0.000000,-70.583412,0.000000,-0.607847,0.034500,0.823634
0.998000,0.000000,0.000000,-74.483794,0.000000,-70.671360,0.000000,-0.607761,0.034500,0.822734
0.999000,0.000000,0.000000,-74.558442,0.000000,-70.759308,0.000000,-0.607674,0.034500,0.821836
1.000000,0.000000,0.000000,-74.632910,0.000000,-70.847256,0.000000,-0.607584,0.034500,0.820941
1.001000,0.000000,0.000000,-74.707199,0.000000,-70.935203,0.000000,-0.607493,0.034500,0.820048
1.002000,0.000000,0.000000,-74.781307,0.000000,-71.023151,0.000000,-0.607401,0.034500,0.819158
1.003000,0.000000,0.000000,-74.855236,0.000000,-71.111099,0.000000,-0.607307,0.034500,0.818270
1.004000,0.000000,0.000000,-74.928984,0.000000,-71.199047,0.000000,-0.607211,0.034500,0.817384
1.005000,0.000000,0.000000,-75.002553,0.000000,-71.286995,0.000000,-0.607114,0.034500,0.816502
1.006000,0.000000,0.000000,-75.075941,0.000000,-71.374942,0.000000,-0.607015,0.034500,0.815621
1.007000,0.000000,0.000000,-75.149150,0.000000,-71.462890,0.000000,-0.606914,0.034500,0.814743
1.008000,0.000000,0.000000,-75.222178,0.000000,-71.550838,0.000000,-0.606812,0.034500,0.813868
1.009000,0.000000,0.000000,-75.295026,0.000000,-71.638786,0.000000,-0.606709,0.034500,0.812995
1.010000,0.000000,0.000000,-75.367695,0.000000,-71.726733,0.000000,-0.606604,0.034500,0.812124
1.011000,0.000000,0.000000,-75.440183,0.000000,-71.814681,0.000000,-0.606497,0.034500,0.811256
1.012000,0.000000,0.000000,-75.512492,0.000000,-71.902629,0.000000,-0.606389,0.034500,0.810390
1.013000,0.000000,0.000000,-75.584620,0.000000,-71.990577,0.000000,-0.606280,0.034500,0.809527
1.014000,0.000000,0.000000,-75.656569,0.000000,-72.078525,0.000000,-0.606169,0.034500,0.808667
1.015000,0.000000,0.000000,-75.728337,0.000000,-72.166472,0.000000,-0.606057,0.034500,0.807809
1.016000,0.000000,0.000000,-75.799926,0.000000,-72.254420,0.000000,-0.605943,0.034500,0.806953
1.017000,0.000000,0.000000,-75.871334,0.000000,-72.342368,0.000000,-0.605827,0.034500,0.806100
1.018000,0.000000,0.000000,-75.942562,0.000000,-72.430316,0.000000,-0.605711,0.034500,0.805249
1.019000,0.000000,0.000000,-76.013611,0.000000,-72.518263,0.000000,-0.605592,0.034500,0.804401
1.020000,0.000000,0.000000,-76.084479,0.000000,-72.606211,0.000000,-0.605473,0.034500,0.803555
1.021000,0.000000,0.000000,-76.155168,0.000000,-72.694159,0.000000,-0.605352,0.034500,0.802712
1.022000,0.000000,0.000000,-76.225676,0.000000,-72.782107,0.000000,-0.605229,0.034500,0.801871
1.023000,0.000000,0.000000,-76.296005,0.000000,-72.870005,0.000000,-0.605106,0.034500,0.801033
1.024000,0.000000,0.000000,-76.366153,0.000000,-72.957690,0.000000,-0.604981,0.034500,0.800198
1.025000,0.000000,0.000000,-76.436122,0.000000,-73.045151,0.000000,-0.604855,0.034500,0.799365
1.026000,0.000000,0.000000,-76.505910,0.000000,-73.132386,0.000000,-0.604729,0.034500,0.798535
1.027000,0.000000,0.000000,-76.575518,0.000000,-73.219397,0.000000,-0.604601,0.034500,0.797708
1.028000,0.000000,0.000000,-76.644947,0.000000,-73.306183,0.000000,-0.604473,0.034500,0.796883
1.029000,0.000000,0.000000,-76.714195,0.000000,-73.392743,0.000000,-0.604343,0.034500,0.796061
1.030000,0.000000,0.000000,-76.783264,0.000000,-73.479079,0.000000,-0.604213,0.034500,0.795242
1.031000,0.000000,0.000000,-76.852152,0.000000,-73.565189,0.000000,-0.604082,0.034500,0.794426
1.032000,0.000000,0.000000,-76.920861,0.000000,-73.651075,0.000000,-0.603950,0.034500,0.793612
1.033000,0.000000,0.000000,-76.989389,0.000000,-73.736735,0.000000,-0.603817,0.034500,0.792801
1.034000,0.000000,0.000000,-77.057738,0.000000,-73.822171,0.000000,-0.603683,0.034500,0.791993
1.035000,0.000000,0.000000,-77.125906,0.000000,-73.907381,0.000000,-0.603548,0.034500,0.791187
1.036000,0.000000,0.000000,-77.193894,0.000000,-73.992367,0.000000,-0.603413,0.034500,0.790385
1.037000,0.000000,0.000000,-77.261703,0.000000,-74.077127,0.000000,-0.603277,0.034500,0.789584
1.038000,0.000000,0.000000,-77.329331,0.000000,-74.161663,0.000000,-0.603140,0.034500,0.788787
1.039000,0.000000,0.000000,-77.396780,0.000000,-74.245974,0.000000,-0.603002,0.034500,0.787992
1.040000,0.000000,0.000000,-77.464048,0.000000,-74.330059,0.000000,-0.602863,0.034500,0.787200
1.041000,0.000000,0.000000,-77.531137,0.000000,-74.413920,0.000000,-0.602724,0.034500,0.786411
1.042000,0.000000,0.000000,-77.598045,0.000000,-74.497555,0.000000,-0.602583,0.034500,0.785624
1.043000,0.000000,0.000000,-77.664774,0.000000,-74.580966,0.000000,-0.602442,0.034500,0.784840
1.044000,0.000000,0.000000,-77.731322,0.000000,-74.664151,0.000000,-0.602301,0.034500,0.784059
1.045000,0.000000,0.000000,-77.797690,0.000000,-74.747112,0.000000,-0.602158,0.034500,0.783281
1.046000,0.000000,0.000000,-77.863879,0.000000,-74.829847,0.000000,-0.602015,0.034500,0.782505
1.047000,0.000000,0.000000,-77.929887,0.000000,-74.912358,0.000000,-0.601871,0.034500,0.781732
1.048000,0.000000,0.000000,-77.995716,0.000000,-74.994644,0.000000,-0.601727,0.034500,0.780961
1.049000,0.000000,0.000000,-78.061364,0.000000,-75.076704,0.000000,-0.601582,0.034500,0.780193
1.050000,0.000000,0.000000,-78.126833,0.000000,-75.158540,0.000000,-0.601436,0.034500,0.779428
1.051000,0.000000,0.000000,-78.192121,0.000000,-75.240150,0.000000,-0.601289,0.034500,0.778665
1.052000,0.000000,0.000000,-78.257230,0.000000,-75.321536,0.000000,-0.601142,0.034500,0.777906
1.053000,0.000000,0.000000,-78.322158,0.000000,-75.402696,0.000000,-0.600994,0.034500,0.777148
1.054000,0.000000,0.000000,-78.386906,0.000000,-75.483632,0.000000,-0.600845,0.034500,0.776394
1.055000,0.000000,0.000000,-78.451475,0.000000,-75.564342,0.000000,-0.600696,0.034500,0.775642
1.056000,0.000000,0.000000,-78.515863,0.000000,-75.644828,0.000000,-0.600546,0.034500,0.774893
1.057000,0.000000,0.000000,-78.580072,0.000000,-75.725089,0.000000,-0.600396,0.034500,0.774146
