GriTRini/uon_rt/demo/fk_output.csv
time,q1,q2,q3,q4,q5,q6,x0,y0,z0,x1,y1,z1,x2,y2,z2,x3,y3,z3,x4,y4,z4,x5,y5,z5,x6,y6,z6
0.0000,0.000000,0.000000,0.000000,0.000000,0.000000,0.000000,0.000000,0.000000,0.000000,0.000000,0.000000,0.152500,0.000000,0.034500,0.152500,0.000000,0.034500,0.772500,-0.000000,0.034500,1.331500,-0.000000,0.034500,1.331500,-0.000000,0.034500,1.452500
0.0010,0.000000,-0.000469,0.001406,-0.000937,0.000000,0.000000,0.000000,0.000000,0.000000,0.000000,0.000000,0.152500,0.000000,0.034500,0.152500,-0.000291,0.034500,0.772500,0.000233,0.034500,1.331500,0.000233,0.034500,1.331500,0.000347,0.034500,1.452500
0.0020,0.000000,-0.001875,0.005625,-0.003750,0.000000,0.000000,0.000000,0.000000,0.000000,0.000000,0.000000,0.152500,0.000000,0.034500,0.152500,-0.001162,0.034500,0.772499,0.000934,0.034500,1.331495,0.000934,0.034500,1.331495,0.001387,0.034500,1.452494
0.0030,0.000000,-0.004219,0.012656,-0.008438,0.000000,0.000000,0.000000,0.000000,0.000000,0.000000,0.000000,0.152500,0.000000,0.034500,0.152500,-0.002616,0.034500,0.772494,0.002101,0.034500,1.331475,0.002101,0.034500,1.331475,0.003122,0.034500,1.452470
0.0040,0.000000,-0.007500,0.022500,-0.015000,0.000000,0.000000,0.000000,0.000000,0.000000,0.000000,0.000000,0.152500,0.000000,0.034500,0.152500,-0.004650,0.034500,0.772483,0.003735,0.034500,1.331420,0.003735,0.034500,1.331420,0.005550,0.034500,1.452406
0.0050,0.000000,-0.011719,0.035156,-0.023437,0.000000,0.000000,0.000000,0.000000,0.000000,0.000000,0.000000,0.152500,0.000000,0.034500,0.152500,-0.007265,0.034500,0.772457,0.005835,0.034500,1.331304,0.005835,0.034500,1.331304,0.008671,0.034500,1.452271
0.0060,0.000000,-0.016875,0.050625,-0.033750,0.000000,0.000000,0.000000,0.000000,0.000000,0.000000,0.000000,0.152500,0.000000,0.034500,0.152500,-0.010462,0.034500,0.772412,0.008401,0.034500,1.331093,0.008401,0.034500,1.331093,0.012484,0.034500,1.452024
0.0070,0.000000,-0.022969,0.068906,-0.045937,0.000000,0.000000,0.000000,0.000000,0.000000,0.000000,0.000000,0.152500,0.000000,0.034500,0.152500,-0.014239,0.034500,0.772336,0.011431,0.034500,1.330747,0.011431,0.034500,1.330747,0.016987,0.034500,1.451619
0.0080,0.000000,-0.030000,0.090000,-0.060000,0.000000,0.000000,0.000000,0.000000,0.000000,0.000000,0.000000,0.152500,0.000000,0.034500,0.152500,-0.018597,0.034500,0.772221,0.014923,0.034500,1.330215,0.014923,0.034500,1.330215,0.022178,0.034500,1.450997
0.0090,0.000000,-0.037969,0.113906,-0.075938,0.000000,0.000000,0.000000,0.000000,0.000000,0.000000,0.000000,0.152500,0.000000,0.034500,0.152500,-0.023535,0.034500,0.772053,0.018873,0.034500,1.329442,0.018873,0.034500,1.329442,0.028053,0.034500,1.450093
0.0100,0.000000,-0.046875,0.140625,-0.093750,0.000000,0.000000,0.000000,0.000000,0.000000,0.000000,0.000000,0.152500,0.000000,0.034500,0.152500,-0.029052,0.034500,0.771819,0.023278,0.034500,1.328364,0.023278,0.034500,1.328364,0.034605,0.034500,1.448833
0.0110,0.000000,-0.056719,0.170156,-0.113438,0.000000,0.000000,0.000000,0.000000,0.000000,0.000000,0.000000,0.152500,0.000000,0.034500,0.152500,-0.035147,0.034500,0.771503,0.028129,0.034500,1.326910,0.028129,0.034500,1.326910,0.041825,0.034500,1.447133
0.0120,0.000000,-0.067484,0.202453,-0.134968,0.000000,0.000000,0.000000,0.000000,0.000000,0.000000,0.000000,0.152500,0.000000,0.034500,0.152500,-0.041808,0.034500,0.771089,0.033410,0.034500,1.325005,0.033410,0.034500,1.325005,0.049692,0.034500,1.444905
0.0130,0.000000,-0.078562,0.235686,-0.157124,0.000000,0.000000,0.000000,0.000000,0.000000,0.000000,0.000000,0.152500,0.000000,0.034500,0.152500,-0.048658,0.034500,0.770588,0.038813,0.034500,1.322702,0.038813,0.034500,1.322702,0.057747,0.034500,1.442211
0.0140,0.000000,-0.089640,0.268920,-0.179280,0.000000,0.000000,0.000000,0.000000,0.000000,0.000000,0.000000,0.152500,0.000000,0.034500,0.152500,-0.055502,0.034500,0.770011,0.044179,0.034500,1.320051,0.044179,0.034500,1.320051,0.065756,0.034500,1.439112
0.0150,0.000000,-0.100718,0.302153,-0.201435,0.000000,0.000000,0.000000,0.000000,0.000000,0.000000,0.000000,0.152500,0.000000,0.034500,0.152500,-0.062339,0.034500,0.769358,0.049503,0.034500,1.317055,0.049503,0.034500,1.317055,0.073712,0.034500,1.435609
0.0160,0.000000,-0.111796,0.335387,-0.223591,0.000000,0.000000,0.000000,0.000000,0.000000,0.000000,0.000000,0.152500,0.000000,0.034500,0.152500,-0.069169,0.034500,0.768630,0.054780,0.034500,1.313715,0.054780,0.034500,1.313715,0.081609,0.034500,1.431703
0.0170,0.000000,-0.122873,0.368620,-0.245747,0.000000,0.000000,0.000000,0.000000,0.000000,0.000000,0.000000,0.152500,0.000000,0.034500,0.152500,-0.075990,0.034500,0.767826,0.060004,0.034500,1.310031,0.060004,0.034500,1.310031,0.089441,0.034500,1.427396
0.0180,0.000000,-0.133951,0.401854,-0.267902,0.000000,0.000000,0.000000,0.000000,0.000000,0.000000,0.000000,0.152500,0.000000,0.034500,0.152500,-0.082802,0.034500,0.766946,0.065171,0.034500,1.306006,0.065171,0.034500,1.306006,0.097201,0.034500,1.422689
0.0190,0.000000,-0.145029,0.435087,-0.290058,0.000000,0.000000,0.000000,0.000000,0.000000,0.000000,0.000000,0.152500,0.000000,0.034500,0.152500,-0.089603,0.034500,0.765991,0.070275,0.034500,1.301640,0.070275,0.034500,1.301640,0.104882,0.034500,1.417586
0.0200,0.000000,-0.156107,0.468321,-0.312214,0.000000,0.000000,0.000000,0.000000,0.000000,0.000000,0.000000,0.152500,0.000000,0.034500,0.152500,-0.096394,0.034500,0.764961,0.075312,0.034500,1.296936,0.075312,0.034500,1.296936,0.112479,0.034500,1.412087
0.0210,0.000000,-0.167185,0.501554,-0.334369,0.000000,0.000000,0.000000,0.000000,0.000000,0.000000,0.000000,0.152500,0.000000,0.034500,0.152500,-0.103172,0.034500,0.763855,0.080277,0.034500,1.291897,0.080277,0.034500,1.291897,0.119986,0.034500,1.406195
0.0220,0.000000,-0.178263,0.534788,-0.356525,0.000000,0.000000,0.000000,0.000000,0.000000,0.000000,0.000000,0.152500,0.000000,0.034500,0.152500,-0.109938,0.034500,0.762675,0.085164,0.034500,1.286522,0.085164,0.034500,1.286522,0.127395,0.034500,1.399913
0.0230,0.000000,-0.189340,0.568021,-0.378681,0.000000,0.000000,0.000000,0.000000,0.000000,0.000000,0.000000,0.152500,0.000000,0.034500,0.152500,-0.116691,0.034500,0.761420,0.089969,0.034500,1.280816,0.089969,0.034500,1.280816,0.134702,0.034500,1.393244
0.0240,0.000000,-0.200418,0.601255,-0.400836,0.000000,0.000000,0.000000,0.000000,0.000000,0.000000,0.000000,0.152500,0.000000,0.034500,0.152500,-0.123429,0.034500,0.760090,0.094686,0.034500,1.274781,0.094686,0.034500,1.274781,0.141899,0.034500,1.386189
0.0250,0.000000,-0.211496,0.634488,-0.422992,0.000000,0.000000,0.000000,0.000000,0.000000,0.000000,0.000000,0.152500,0.000000,0.034500,0.152500,-0.130152,0.034500,0.758685,0.099312,0.034500,1.268418,0.099312,0.034500,1.268418,0.148982,0.034500,1.378753
0.0260,0.000000,-0.222574,0.667722,-0.445148,0.000000,0.000000,0.000000,0.000000,0.000000,0.000000,0.000000,0.152500,0.000000,0.034500,0.152500,-0.136859,0.034500,0.757206,0.103841,0.034500,1.261730,0.103841,0.034500,1.261730,0.155943,0.034500,1.370938
0.0270,0.000000,-0.233652,0.700955,-0.467303,0.000000,0.000000,0.000000,0.000000,0.000000,0.000000,0.000000,0.152500,0.000000,0.034500,0.152500,-0.143550,0.034500,0.755653,0.108269,0.034500,1.254721,0.108269,0.034500,1.254721,0.162777,0.034500,1.362748
0.0280,0.000000,-0.244730,0.734189,-0.489459,0.000000,0.000000,0.000000,0.000000,0.000000,0.000000,0.000000,0.152500,0.000000,0.034500,0.152500,-0.150222,0.034500,0.754026,0.112591,0.034500,1.247392,0.112591,0.034500,1.247392,0.169479,0.034500,1.354185
0.0290,0.000000,-0.255807,0.767422,-0.511615,0.000000,0.000000,0.000000,0.000000,0.000000,0.000000,0.000000,0.152500,0.000000,0.034500,0.152500,-0.156877,0.034500,0.752325,0.116802,0.034500,1.239748,0.116802,0.034500,1.239748,0.176042,0.034500,1.345254
0.0300,0.000000,-0.266885,0.800656,-0.533771,0.000000,0.000000,0.000000,0.000000,0.000000,0.000000,0.000000,0.152500,0.000000,0.034500,0.152500,-0.163512,0.034500,0.750550,0.120898,0.034500,1.231790,0.120898,0.034500,1.231790,0.182461,0.034500,1.335959
0.0310,0.000000,-0.277963,0.833889,-0.555926,0.000000,0.000000,0.000000,0.000000,0.000000,0.000000,0.000000,0.152500,0.000000,0.034500,0.152500,-0.170126,0.034500,0.748702,0.124875,0.034500,1.223523,0.124875,0.034500,1.223523,0.188730,0.034500,1.326302
0.0320,0.000000,-0.289041,0.867123,-0.578082,0.000000,0.000000,0.000000,0.000000,0.000000,0.000000,0.000000,0.152500,0.000000,0.034500,0.152500,-0.176720,0.034500,0.746781,0.128727,0.034500,1.214950,0.128727,0.034500,1.214950,0.194844,0.034500,1.316289
0.0330,0.000000,-0.300119,0.900356,-0.600238,0.000000,0.000000,0.000000,0.000000,0.000000,0.000000,0.000000,0.152500,0.000000,0.034500,0.152500,-0.183293,0.034500,0.744787,0.132452,0.034500,1.206074,0.132452,0.034500,1.206074,0.200797,0.034500,1.305924
0.0340,0.000000,-0.311197,0.933590,-0.622393,0.000000,0.000000,0.000000,0.000000,0.000000,0.000000,0.000000,0.152500,0.000000,0.034500,0.152500,-0.189843,0.034500,0.742720,0.136044,0.034500,1.196900,0.136044,0.034500,1.196900,0.206585,0.034500,1.295210
0.0350,0.000000,-0.322274,0.966823,-0.644549,0.000000,0.000000,0.000000,0.000000,0.000000,0.000000,0.000000,0.152500,0.000000,0.034500,0.152500,-0.196369,0.034500,0.740581,0.139499,0.034500,1.187429,0.139499,0.034500,1.187429,0.212200,0.034500,1.284153
0.0360,0.000000,-0.333352,1.000057,-0.666705,0.000000,0.000000,0.000000,0.000000,0.000000,0.000000,0.000000,0.152500,0.000000,0.034500,0.152500,-0.202872,0.034500,0.738369,0.142814,0.034500,1.177667,0.142814,0.034500,1.177667,0.217640,0.034500,1.272757
0.0370,0.000000,-0.344430,1.033290,-0.688860,0.000000,0.000000,0.000000,0.000000,0.000000,0.000000,0.000000,0.152500,0.000000,0.034500,0.152500,-0.209349,0.034500,0.736086,0.145983,0.034500,1.167618,0.145983,0.034500,1.167618,0.222898,0.034500,1.261026
0.0380,0.000000,-0.355508,1.066524,-0.711016,0.000000,0.000000,0.000000,0.000000,0.000000,0.000000,0.000000,0.152500,0.000000,0.034500,0.152500,-0.215801,0.034500,0.733731,0.149004,0.034500,1.157285,0.149004,0.034500,1.157285,0.227969,0.034500,1.248967
0.0390,0.000000,-0.366586,1.099757,-0.733172,0.000000,0.000000,0.000000,0.000000,0.000000,0.000000,0.000000,0.152500,0.000000,0.034500,0.152500,-0.222227,0.034500,0.731305,0.151873,0.034500,1.146673,0.151873,0.034500,1.146673,0.232849,0.034500,1.236583
0.0400,0.000000,-0.377664,1.132991,-0.755327,0.000000,0.000000,0.000000,0.000000,0.000000,0.000000,0.000000,0.152500,0.000000,0.034500,0.152500,-0.228625,0.034500,0.728808,0.154585,0.034500,1.135786,0.154585,0.034500,1.135786,0.237533,0.034500,1.223880
0.0410,0.000000,-0.388741,1.166224,-0.777483,0.000000,0.000000,0.000000,0.000000,0.000000,0.000000,0.000000,0.152500,0.000000,0.034500,0.152500,-0.234995,0.034500,0.726240,0.157137,0.034500,1.124629,0.157137,0.034500,1.124629,0.242017,0.034500,1.210863
0.0420,0.000000,-0.399819,1.199458,-0.799639,0.000000,0.000000,0.000000,0.000000,0.000000,0.000000,0.000000,0.152500,0.000000,0.034500,0.152500,-0.241336,0.034500,0.723601,0.159525,0.034500,1.113205,0.159525,0.034500,1.113205,0.246295,0.034500,1.197538
0.0430,0.000000,-0.410897,1.232691,-0.821794,0.000000,0.000000,0.000000,0.000000,0.000000,0.000000,0.000000,0.152500,0.000000,0.034500,0.152500,-0.247648,0.034500,0.720893,0.161746,0.034500,1.101521,0.161746,0.034500,1.101521,0.250363,0.034500,1.183911
0.0440,0.000000,-0.421975,1.265925,-0.843950,0.000000,0.000000,0.000000,0.000000,0.000000,0.000000,0.000000,0.152500,0.000000,0.034500,0.152500,-0.253929,0.034500,0.718115,0.163797,0.034500,1.089579,0.163797,0.034500,1.089579,0.254217,0.034500,1.169986
0.0450,0.000000,-0.433053,1.299158,-0.866106,0.000000,0.000000,0.000000,0.000000,0.000000,0.000000,0.000000,0.152500,0.000000,0.034500,0.152500,-0.260179,0.034500,0.715267,0.165674,0.034500,1.077386,0.165674,0.034500,1.077386,0.257853,0.034500,1.155770
0.0460,0.000000,-0.444131,1.332392,-0.888261,0.000000,0.000000,0.000000,0.000000,0.000000,0.000000,0.000000,0.152500,0.000000,0.034500,0.152500,-0.266397,0.034500,0.712350,0.167373,0.034500,1.064946,0.167373,0.034500,1.064946,0.261267,0.034500,1.141269
0.0470,0.000000,-0.455208,1.365625,-0.910417,0.000000,0.000000,0.000000,0.000000,0.000000,0.000000,0.000000,0.152500,0.000000,0.034500,0.152500,-0.272583,0.034500,0.709365,0.168893,0.034500,1.052265,0.168893,0.034500,1.052265,0.264454,0.034500,1.126488
0.0480,0.000000,-0.466033,1.398100,-0.932067,0.000000,0.000000,0.000000,0.000000,0.000000,0.000000,0.000000,0.152500,0.000000,0.034500,0.152500,-0.278595,0.034500,0.706382,0.170201,0.034500,1.039644,0.170201,0.034500,1.039644,0.267346,0.034500,1.111781
0.0490,0.000000,-0.475954,1.427861,-0.951908,0.000000,0.000000,0.000000,0.000000,0.000000,0.000000,0.000000,0.152500,0.000000,0.034500,0.152500,-0.284076,0.034500,0.703591,0.171243,0.034500,1.027884,0.171243,0.034500,1.027884,0.269800,0.034500,1.098079
0.0500,0.000000,-0.484937,1.454810,-0.969873,0.000000,0.000000,0.000000,0.000000,0.000000,0.000000,0.000000,0.152500,0.000000,0.034500,0.152500,-0.289014,0.034500,0.701017,0.172057,0.034500,1.017078,0.172057,0.034500,1.017078,0.271859,0.034500,1.085491
0.0510,0.000000,-0.492982,1.478947,-0.985964,0.000000,0.000000,0.000000,0.000000,0.000000,0.000000,0.000000,0.152500,0.000000,0.034500,0.152500,-0.293418,0.034500,0.698674,0.172679,0.034500,1.007275,0.172679,0.034500,1.007275,0.273569,0.034500,1.074074
0.0520,0.000000,-0.500090,1.500270,-1.000180,0.000000,0.000000,0.000000,0.000000,0.000000,0.000000,0.000000,0.152500,0.000000,0.034500,0.152500,-0.297293,0.034500,0.696574,0.173144,0.034500,0.998519,0.173144,0.034500,0.998519,0.274974,0.034500,1.063877
0.0530,0.000000,-0.506261,1.518782,-1.012521,0.000000,0.000000,0.000000,0.000000,0.000000,0.000000,0.000000,0.152500,0.000000,0.034500,0.152500,-0.300644,0.034500,0.694730,0.173483,0.034500,0.990845,0.173483,0.034500,0.990845,0.276111,0.034500,1.054942
0.0540,0.000000,-0.511493,1.534480,-1.022987,0.000000,0.000000,0.000000,0.000000,0.000000,0.000000,0.000000,0.152500,0.000000,0.034500,0.152500,-0.303478,0.034500,0.693149,0.173722,0.034500,0.984286,0.173722,0.034500,0.984286,0.277016,0.034500,1.047305
0.0550,0.000000,-0.515789,1.547367,-1.031578,0.000000,0.000000,0.000000,0.000000,0.000000,0.000000,0.000000,0.152500,0.000000,0.034500,0.152500,-0.305797,0.034500,0.691840,0.173886,0.034500,0.978868,0.173886,0.034500,0.978868,0.277718,0.034500,1.040997
0.0560,0.000000,-0.519147,1.557441,-1.038294,0.000000,0.000000,0.000000,0.000000,0.000000,0.000000,0.000000,0.152500,0.000000,0.034500,0.152500,-0.307607,0.034500,0.690811,0.173994,0.034500,0.974610,0.173994,0.034500,0.974610,0.278240,0.034500,1.036040
0.0570,0.000000,-0.521567,1.564702,-1.043135,0.000000,0.000000,0.000000,0.000000,0.000000,0.000000,0.000000,0.152500,0.000000,0.034500,0.152500,-0.308909,0.034500,0.690064,0.174060,0.034500,0.971529,0.174060,0.034500,0.971529,0.278602,0.034500,1.032454
0.0580,0.000000,-0.523050,1.569151,-1.046100,0.000000,0.000000,0.000000,0.000000,0.000000,0.000000,0.000000,0.152500,0.000000,0.034500,0.152500,-0.309705,0.034500,0.689606,0.174096,0.034500,0.969637,0.174096,0.034500,0.969637,0.278818,0.034500,1.030252
0.0590,0.000000,-0.523596,1.570787,-1.047191,0.000000,0.000000,0.000000,0.000000,0.000000,0.000000,0.000000,0.152500,0.000000,0.034500,0.152500,-0.309998,0.034500,0.689437,0.174108,0.034500,0.968940,0.174108,0.034500,0.968940,0.278897,0.034500,1.029440
2.0010,0.000000,-0.523599,1.570796,-1.047198,0.000000,0.000000,0.000000,0.000000,0.000000,0.000000,0.000000,0.152500,0.000000,0.034500,0.152500,-0.310000,0.034500,0.689436,0.174108,0.034500,0.968936,0.174108,0.034500,0.968936,0.278897,0.034500,1.029436
2.0020,0.000000,-0.523599,1.570796,-1.047198,0.000000,0.000000,0.000000,0.000000,0.000000,0.000000,0.000000,0.152500,0.000000,0.034500,0.152500,-0.310000,0.034500,0.689436,0.174108,0.034500,0.968936,0.174108,0.034500,0.968936,0.278897,0.034500,1.029436
2.0030,0.000000,-0.523599,1.570796,-1.047198,0.000000,0.000000,0.000000,0.000000,0.000000,0.000000,0.000000,0.152500,0.000000,0.034500,0.152500,-0.310000,0.034500,0.689436,0.174108,0.034500,0.968936,0.174108,0.034500,0.968936,0.278897,0.034500,1.029436
2.0040,0.000000,-0.523599,1.570796,-1.047198,0.000000,0.000000,0.000000,0.000000,0.000000,0.000000,0.000000,0.152500,0.000000,0.034500,0.152500,-0.310000,0.034500,0.689436,0.174108,0.034500,0.968936,0.174108,0.034500,0.968936,0.278897,0.034500,1.029436
2.0050,0.000000,-0.523599,1.570796,-1.047198,0.000000,0.000000,0.000000,0.000000,0.000000,0.000000,0.000000,0.152500,0.000000,0.034500,0.152500,-0.310000,0.034500,0.689436,0.174108,0.034500,0.968936,0.174108,0.034500,0.968936,0.278897,0.034500,1.029436
2.0060,0.000000,-0.523599,1.570796,-1.047198,0.000000,0.000000,0.000000,0.000000,0.000000,0.000000,0.000000,0.152500,0.000000,0.034500,0.152500,-0.310000,0.034500,0.689436,0.174108,0.034500,0.968936,0.174108,0.034500,0.968936,0.278897,0.034500,1.029436
2.0070,0.000000,-0.523599,1.570796,-1.047198,0.000000,0.000000,0.000000,0.000000,0.000000,0.000000,0.000000,0.152500,0.000000,0.034500,0.152500,-0.310000,0.034500,0.689436,0.174108,0.034500,0.968936,0.174108,0.034500,0.968936,0.278897,0.034500,1.029436
2.0080,0.000000,-0.523599,1.570796,-1.047198,0.000000,0.000000,0.000000,0.000000,0.000000,0.000000,0.000000,0.152500,0.000000,0.034500,0.152500,-0.310000,0.034500,0.689436,0.174108,0.034500,0.968936,0.174108,0.034500,0.968936,0.278897,0.034500,1.029436
2.0090,0.000000,-0.523599,1.570796,-1.047198,0.000000,0.000000,0.000000,0.000000,0.000000,0.000000,0.000000,0.152500,0.000000,0.034500,0.152500,-0.310000,0.034500,0.689436,0.174108,0.034500,0.968936,0.174108,0.034500,0.968936,0.278897,0.034500,1.029436
2.0100,0.000000,-0.523599,1.570796,-1.047198,0.000000,0.000000,0.000000,0.000000,0.000000,0.000000,0.000000,0.152500,0.000000,0.034500,0.152500,-0.310000,0.034500,0.689436,0.174108,0.034500,0.968936,0.174108,0.034500,0.968936,0.278897,0.034500,1.029436
2.0110,0.000000,-0.523599,1.570796,-1.047198,0.000000,0.000000,0.000000,0.000000,0.000000,0.000000,0.000000,0.152500,0.000000,0.034500,0.152500,-0.310000,0.034500,0.689436,0.174108,0.034500,0.968936,0.174108,0.034500,0.968936,0.278897,0.034500,1.029436
2.0120,0.000000,-0.523599,1.570796,-1.047198,0.000000,0.000000,0.000000,0.000000,0.000000,0.000000,0.000000,0.152500,0.000000,0.034500,0.152500,-0.310000,0.034500,0.689436,0.174108,0.034500,0.968936,0.174108,0.034500,0.968936,0.278897,0.034500,1.029436
2.0130,0.000000,-0.523599,1.570796,-1.047198,0.000000,0.000000,0.000000,0.000000,0.000000,0.000000,0.000000,0.152500,0.000000,0.034500,0.152500,-0.310000,0.034500,0.689436,0.174108,0.034500,0.968936,0.174108,0.034500,0.968936,0.278897,0.034500,1.029436
2.0140,0.000000,-0.523599,1.570796,-1.047198,0.000000,0.000000,0.000000,0.000000,0.000000,0.000000,0.000000,0.152500,0.000000,0.034500,0.152500,-0.310000,0.034500,0.689436,0.174108,0.034500,0.968936,0.174108,0.034500,0.968936,0.278897,0.034500,1.029436
2.0150,0.000000,-0.523599,1.570796,-1.047198,0.000000,0.000000,0.000000,0.000000,0.000000,0.000000,0.000000,0.152500,0.000000,0.034500,0.152500,-0.310000,0.034500,0.689436,0.174108,0.034500,0.968936,0.174108,0.034500,0.968936,0.278897,0.034500,1.029436
2.0160,0.000000,-0.523599,1.570796,-1.047198,0.000000,0.000000,0.000000,0.000000,0.000000,0.000000,0.000000,0.152500,0.000000,0.034500,0.152500,-0.310000,0.034500,0.689436,0.174108,0.034500,0.968936,0.174108,0.034500,0.968936,0.278897,0.034500,1.029436
2.0170,0.000000,-0.523599,1.570796,-1.047198,0.000000,0.000000,0.000000,0.000000,0.000000,0.000000,0.000000,0.152500,0.000000,0.034500,0.152500,-0.310000,0.034500,0.689436,0.174108,0.034500,0.968936,0.174108,0.034500,0.968936,0.278897,0.034500,1.029436
2.0180,0.000000,-0.523599,1.570796,-1.047198,0.000000,0.000000,0.000000,0.000000,0.000000,0.000000,0.000000,0.152500,0.000000,0.034500,0.152500,-0.310000,0.034500,0.689436,0.174108,0.034500,0.968936,0.174108,0.034500,0.968936,0.278897,0.034500,1.029436
2.0190,0.000000,-0.523599,1.570796,-1.047198,0.000000,0.000000,0.000000,0.000000,0.000000,0.000000,0.000000,0.152500,0.000000,0.034500,0.152500,-0.310000,0.034500,0.689436,0.174108,0.034500,0.968936,0.174108,0.034500,0.968936,0.278897,0.034500,1.029436
2.0200,0.000000,-0.523599,1.570796,-1.047198,0.000000,0.000000,0.000000,0.000000,0.000000,0.000000,0.000000,0.152500,0.000000,0.034500,0.152500,-0.310000,0.034500,0.689436,0.174108,0.034500,0.968936,0.174108,0.034500,0.968936,0.278897,0.034500,1.029436
2.0210,0.000000,-0.523599,1.570796,-1.047198,0.000000,0.000000,0.000000,0.000000,0.000000,0.000000,0.000000,0.152500,0.000000,0.034500,0.152500,-0.310000,0.034500,0.689436,0.174108,0.034500,0.968936,0.174108,0.034500,0.968936,0.278897,0.034500,1.029436
2.0220,0.000000,-0.523599,1.570796,-1.047198,0.000000,0.000000,0.000000,0.000000,0.000000,0.000000,0.000000,0.152500,0.000000,0.034500,0.152500,-0.310000,0.034500,0.689436,0.174108,0.034500,0.968936,0.174108,0.034500,0.968936,0.278897,0.034500,1.029436
2.0230,0.000000,-0.523599,1.570796,-1.047198,0.000000,0.000000,0.000000,0.000000,0.000000,0.000000,0.000000,0.152500,0.000000,0.034500,0.152500,-0.310000,0.034500,0.689436,0.174108,0.034500,0.968936,0.174108,0.034500,0.968936,0.278897,0.034500,1.029436
2.0240,0.000000,-0.523599,1.570796,-1.047198,0.000000,0.000000,0.000000,0.000000,0.000000,0.000000,0.000000,0.152500,0.000000,0.034500,0.152500,-0.310000,0.034500,0.689436,0.174108,0.034500,0.968936,0.174108,0.034500,0.968936,0.278897,0.034500,1.029436
2.0250,0.000000,-0.523599,1.570796,-1.047198,0.000000,0.000000,0.000000,0.000000,0.000000,0.000000,0.000000,0.152500,0.000000,0.034500,0.152500,-0.310000,0.034500,0.689436,0.174108,0.034500,0.968936,0.174108,0.034500,0.968936,0.278897,0.034500,1.029436
2.0260,0.000000,-0.523599,1.570796,-1.047198,0.000000,0.000000,0.000000,0.000000,0.000000,0.000000,0.000000,0.152500,0.000000,0.034500,0.152500,-0.310000,0.034500,0.689436,0.174108,0.034500,0.968936,0.174108,0.034500,0.968936,0.278897,0.034500,1.029436
2.0270,0.000000,-0.523599,1.570796,-1.047198,0.000000,0.000000,0.000000,0.000000,0.000000,0.000000,0.000000,0.152500,0.000000,0.034500,0.152500,-0.310000,0.034500,0.689436,0.174108,0.034500,0.968936,0.174108,0.034500,0.968936,0.278897,0.034500,1.029436
2.0280,0.000000,-0.523599,1.570796,-1.047198,0.000000,0.000000,0.000000,0.000000,0.000000,0.000000,0.000000,0.152500,0.000000,0.034500,0.152500,-0.310000,0.034500,0.689436,0.174108,0.034500,0.968936,0.174108,0.034500,0.968936,0.278897,0.034500,1.029436
2.0290,0.000000,-0.523599,1.570796,-1.047198,0.000000,0.000000,0.000000,0.000000,0.000000,0.000000,0.000000,0.152500,0.000000,0.034500,0.152500,-0.310000,0.034500,0.689436,0.174108,0.034500,0.968936,0.174108,0.034500,0.968936,0.278897,0.034500,1.029436
2.0300,0.000000,-0.523599,1.570796,-1.047198,0.000000,0.000000,0.000000,0.000000,0.000000,0.000000,0.000000,0.152500,0.000000,0.034500,0.152500,-0.310000,0.034500,0.689436,0.174108,0.034500,0.968936,0.174108,0.034500,0.968936,0.278897,0.034500,1.029436
2.0310,0.000000,-0.523599,1.570796,-1.047198,0.000000,0.000000,0.000000,0.000000,0.000000,0.000000,0.000000,0.152500,0.000000,0.034500,0.152500,-0.310000,0.034500,0.689436,0.174108,0.034500,0.968936,0.174108,0.034500,0.968936,0.278897,0.034500,1.029436
2.0320,0.000000,-0.523599,1.570796,-1.047198,0.000000,0.000000,0.000000,0.000000,0.000000,0.000000,0.000000,0.152500,0.000000,0.034500,0.152500,-0.310000,0.034500,0.689436,0.174108,0.034500,0.968936,0.174108,0.034500,0.968936,0.278897,0.034500,1.029436
2.0330,0.000000,-0.523599,1.570796,-1.047198,0.000000,0.000000,0.000000,0.000000,0.000000,0.000000,0.000000,0.152500,0.000000,0.034500,0.152500,-0.310000,0.034500,0.689436,0.174108,0.034500,0.968936,0.174108,0.034500,0.968936,0.278897,0.034500,1.029436
2.0340,0.000000,-0.523599,1.570796,-1.047198,0.000000,0.000000,0.000000,0.000000,0.000000,0.000000,0.000000,0.152500,0.000000,0.034500,0.152500,-0.310000,0.034500,0.689436,0.174108,0.034500,0.968936,0.174108,0.034500,0.968936,0.278897,0.034500,1.029436
2.0350,0.000000,-0.523599,1.570796,-1.047198,0.000000,0.000000,0.000000,0.000000,0.000000,0.000000,0.000000,0.152500,0.000000,0.034500,0.152500,-0.310000,0.034500,0.689436,0.174108,0.034500,0.968936,0.174108,0.034500,0.968936,0.278897,0.034500,1.029436
2.0360,0.000000,-0.523599,1.570796,-1.047198,0.000000,0.000000,0.000000,0.000000,0.000000,0.000000,0.000000,0.152500,0.000000,0.034500,0.152500,-0.310000,0.034500,0.689436,0.174108,0.034500,0.968936,0.174108,0.034500,0.968936,0.278897,0.034500,1.029436
2.0370,0.000000,-0.523599,1.570796,-1.047198,0.000000,0.000000,0.000000,0.000000,0.000000,0.000000,0.000000,0.152500,0.000000,0.034500,0.152500,-0.310000,0.034500,0.689436,0.174108,0.034500,0.968936,0.174108,0.034500,0.968936,0.278897,0.034500,1.029436
2.0380,0.000000,-0.523599,1.570796,-1.047198,0.000000,0.000000,0.000000,0.000000,0.000000,0.000000,0.000000,0.152500,0.000000,0.034500,0.152500,-0.310000,0.034500,0.689436,0.174108,0.034500,0.968936,0.174108,0.034500,0.968936,0.278897,0.034500,1.029436
2.0390,0.000000,-0.523599,1.570796,-1.047198,0.000000,0.000000,0.000000,0.000000,0.000000,0.000000,0.000000,0.152500,0.000000,0.034500,0.152500,-0.310000,0.034500,0.689436,0.174108,0.034500,0.968936,0.174108,0.034500,0.968936,0.278897,0.034500,1.029436
2.0400,0.000000,-0.523599,1.570796,-1.047198,0.000000,0.000000,0.000000,0.000000,0.000000,0.000000,0.000000,0.152500,0.000000,0.034500,0.152500,-0.310000,0.034500,0.689436,0.174108,0.034500,0.968936,0.174108,0.034500,0.968936,0.278897,0.034500,1.029436
2.0410,0.000000,-0.523599,1.570796,-1.047198,0.000000,0.000000,0.000000,0.000000,0.000000,0.000000,0.000000,0.152500,0.000000,0.034500,0.152500,-0.310000,0.034500,0.689436,0.174108,0.034500,0.968936,0.174108,0.034500,0.968936,0.278897,0.034500,1.029436
2.0420,0.000000,-0.523599,1.570796,-1.047198,0.000000,0.000000,0.000000,0.000000,0.000000,0.000000,0.000000,0.152500,0.000000,0.034500,0.152500,-0.310000,0.034500,0.689436,0.174108,0.034500,0.968936,0.174108,0.034500,0.968936,0.278897,0.034500,1.029436
2.0430,0.000000,-0.523599,1.570796,-1.047198,0.000000,0.000000,0.000000,0.000000,0.000000,0.000000,0.000000,0.152500,0.000000,0.034500,0.152500,-0.310000,0.034500,0.689436,0.174108,0.034500,0.968936,0.174108,0.034500,0.968936,0.278897,0.034500,1.029436
2.0440,0.000000,-0.523599,1.570796,-1.047198,0.000000,0.000000,0.000000,0.000000,0.000000,0.000000,0.000000,0.152500,0.000000,0.034500,0.152500,-0.310000,0.034500,0.689436,0.174108,0.034500,0.968936,0.174108,0.034500,0.968936,0.278897,0.034500,1.029436
2.0450,0.000000,-0.523599,1.570796,-1.047198,0.000000,0.000000,0.000000,0.000000,0.000000,0.000000,0.000000,0.152500,0.000000,0.034500,0.152500,-0.310000,0.034500,0.689436,0.174108,0.034500,0.968936,0.174108,0.034500,0.968936,0.278897,0.034500,1.029436
2.0460,0.000000,-0.523599,1.570796,-1.047198,0.000000,0.000000,0.000000,0.000000,0.000000,0.000000,0.000000,0.152500,0.000000,0.034500,0.152500,-0.310000,0.034500,0.689436,0.174108,0.034500,0.968936,0.174108,0.034500,0.968936,0.278897,0.034500,1.029436
2.0470,0.000000,-0.523599,1.570796,-1.047198,0.000000,0.000000,0.000000,0.000000,0.000000,0.000000,0.000000,0.152500,0.000000,0.034500,0.152500,-0.310000,0.034500,0.689436,0.174108,0.034500,0.968936,0.174108,0.034500,0.968936,0.278897,0.034500,1.029436
2.0480,0.000000,-0.523599,1.570796,-1.047198,0.000000,0.000000,0.000000,0.000000,0.000000,0.000000,0.000000,0.152500,0.000000,0.034500,0.152500,-0.310000,0.034500,0.689436,0.174108,0.034500,0.968936,0.174108,0.034500,0.968936,0.278897,0.034500,1.029436
2.0490,0.000000,-0.523599,1.570796,-1.047198,0.000000,0.000000,0.000000,0.000000,0.000000,0.000000,0.000000,0.152500,0.000000,0.034500,0.152500,-0.310000,0.034500,0.689436,0.174108,0.034500,0.968936,0.174108,0.034500,0.968936,0.278897,0.034500,1.029436
2.0500,0.000000,-0.523599,1.570796,-1.047198,0.000000,0.000000,0.000000,0.000000,0.000000,0.000000,0.000000,0.152500,0.000000,0.034500,0.152500,-0.310000,0.034500,0.689436,0.174108,0.034500,0.968936,0.174108,0.034500,0.968936,0.278897,0.034500,1.029436
2.0510,0.000000,-0.523599,1.570796,-1.047198,0.000000,0.000000,0.000000,0.000000,0.000000,0.000000,0.000000,0.152500,0.000000,0.034500,0.152500,-0.310000,0.034500,0.689436,0.174108,0.034500,0.968936,0.174108,0.034500,0.968936,0.278897,0.034500,1.029436
2.0520,0.000000,-0.523599,1.570796,-1.047198,0.000000,0.000000,0.000000,0.000000,0.000000,0.000000,0.000000,0.152500,0.000000,0.034500,0.152500,-0.310000,0.034500,0.689436,0.174108,0.034500,0.968936,0.174108,0.034500,0.968936,0.278897,0.034500,1.029436
2.0530,0.000000,-0.523599,1.570796,-1.047198,0.000000,0.000000,0.000000,0.000000,0.000000,0.000000,0.000000,0.152500,0.000000,0.034500,0.152500,-0.310000,0.034500,0.689436,0.174108,0.034500,0.968936,0.174108,0.034500,0.968936,0.278897,0.034500,1.029436
2.0540,0.000000,-0.523599,1.570796,-1.047198,0.000000,0.000000,0.000000,0.000000,0.000000,0.000000,0.000000,0.152500,0.000000,0.034500,0.152500,-0.310000,0.034500,0.689436,0.174108,0.034500,0.968936,0.174108,0.034500,0.968936,0.278897,0.034500,1.029436
2.0550,0.000000,-0.523599,1.570796,-1.047198,0.000000,0.000000,0.000000,0.000000,0.000000,0.000000,0.000000,0.152500,0.000000,0.034500,0.152500,-0.310000,0.034500,0.689436,0.174108,0.034500,0.968936,0.174108,0.034500,0.968936,0.278897,0.034500,1.029436
2.0560,0.000000,-0.523599,1.570796,-1.047198,0.000000,0.000000,0.000000,0.000000,0.000000,0.000000,0.000000,0.152500,0.000000,0.034500,0.152500,-0.310000,0.034500,0.689436,0.174108,0.034500,0.968936,0.174108,0.034500,0.968936,0.278897,0.034500,1.029436
2.0570,0.000000,-0.523599,1.570796,-1.047198,0.000000,0.000000,0.000000,0.000000,0.000000,0.000000,0.000000,0.152500,0.000000,0.034500,0.152500,-0.310000,0.034500,0.689436,0.174108,0.034500,0.968936,0.174108,0.034500,0.968936,0.278897,0.034500,1.029436
2.0580,0.000000,-0.523599,1.570796,-1.047198,0.000000,0.000000,0.000000,0.000000,0.000000,0.000000,0.000000,0.152500,0.000000,0.034500,0.152500,-0.310000,0.034500,0.689436,0.174108,0.034500,0.968936,0.174108,0.034500,0.968936,0.278897,0.034500,1.029436
2.0590,0.000000,-0.523599,1.570796,-1.047198,0.000000,0.000000,0.000000,0.000000,0.000000,0.000000,0.000000,0.152500,0.000000,0.034500,0.152500,-0.310000,0.034500,0.689436,0.174108,0.034500,0.968936,0.174108,0.034500,0.968936,0.278897,0.034500,1.029436
2.0600,0.000000,-0.523599,1.570796,-1.047198,0.000000,0.000000,0.000000,0.000000,0.000000,0.000000,0.000000,0.152500,0.000000,0.034500,0.152500,-0.310000,0.034500,0.689436,0.174108,0.034500,0.968936,0.174108,0.034500,0.968936,0.278897,0.034500,1.029436
2.0610,0.000000,-0.523599,1.570796,-1.047198,0.000000,0.000000,0.000000,0.000000,0.000000,0.000000,0.000000,0.152500,0.000000,0.034500,0.152500,-0.310000,0.034500,0.689436,0.174108,0.034500,0.968936,0.174108,0.034500,0.968936,0.278897,0.034500,1.029436
2.0620,0.000000,-0.523599,1.570796,-1.047198,0.000000,0.000000,0.000000,0.000000,0.000000,0.000000,0.000000,0.152500,0.000000,0.034500,0.152500,-0.310000,0.034500,0.689436,0.174108,0.034500,0.968936,0.174108,0.034500,0.968936,0.278897,0.034500,1.029436
2.0630,0.000000,-0.523599,1.570796,-1.047198,0.000000,0.000000,0.000000,0.000000,0.000000,0.000000,0.000000,0.152500,0.000000,0.034500,0.152500,-0.310000,0.034500,0.689436,0.174108,0.034500,0.968936,0.174108,0.034500,0.968936,0.278897,0.034500,1.029436
2.0640,0.000000,-0.523599,1.570796,-1.047198,0.000000,0.000000,0.000000,0.000000,0.000000,0.000000,0.000000,0.152500,0.000000,0.034500,0.152500,-0.310000,0.034500,0.689436,0.174108,0.034500,0.968936,0.174108,0.034500,0.968936,0.278897,0.034500,1.029436
2.0650,0.000000,-0.523599,1.570796,-1.047198,0.000000,0.000000,0.000000,0.000000,0.000000,0.000000,0.000000,0.152500,0.000000,0.034500,0.152500,-0.310000,0.034500,0.689436,0.174108,0.034500,0.968936,0.174108,0.034500,0.968936,0.278897,0.034500,1.029436
2.0660,0.000000,-0.523599,1.570796,-1.047198,0.000000,0.000000,0.000000,0.000000,0.000000,0.000000,0.000000,0.152500,0.000000,0.034500,0.152500,-0.310000,0.034500,0.689436,0.174108,0.034500,0.968936,0.174108,0.034500,0.968936,0.278897,0.034500,1.029436
2.0670,0.000000,-0.523599,1.570796,-1.047198,0.000000,0.000000,0.000000,0.000000,0.000000,0.000000,0.000000,0.152500,0.000000,0.034500,0.152500,-0.310000,0.034500,0.689436,0.174108,0.034500,0.968936,0.174108,0.034500,0.968936,0.278897,0.034500,1.029436
2.0680,0.000000,-0.523599,1.570796,-1.047198,0.000000,0.000000,0.000000,0.000000,0.000000,0.000000,0.000000,0.152500,0.000000,0.034500,0.152500,-0.310000,0.034500,0.689436,0.174108,0.034500,0.968936,0.174108,0.034500,0.968936,0.278897,0.034500,1.029436
2.0690,0.000000,-0.523599,1.570796,-1.047198,0.000000,0.000000,0.000000,0.000000,0.000000,0.000000,0.000000,0.152500,0.000000,0.034500,0.152500,-0.310000,0.034500,0.689436,0.174108,0.034500,0.968936,0.174108,0.034500,0.968936,0.278897,0.034500,1.029436
2.0700,0.000000,-0.523599,1.570796,-1.047198,0.000000,0.000000,0.000000,0.000000,0.000000,0.000000,0.000000,0.152500,0.000000,0.034500,0.152500,-0.310000,0.034500,0.689436,0.174108,0.034500,0.968936,0.174108,0.034500,0.968936,0.278897,0.034500,1.029436
2.0710,0.000000,-0.523599,1.570796,-1.047198,0.000000,0.000000,0.000000,0.000000,0.000000,0.000000,0.000000,0.152500,0.000000,0.034500,0.152500,-0.310000,0.034500,0.689436,0.174108,0.034500,0.968936,0.174108,0.034500,0.968936,0.278897,0.034500,1.029436
2.0720,0.000000,-0.523599,1.570796,-1.047198,0.000000,0.000000,0.000000,0.000000,0.000000,0.000000,0.000000,0.152500,0.000000,0.034500,0.152500,-0.310000,0.034500,0.689436,0.174108,0.034500,0.968936,0.174108,0.034500,0.968936,0.278897,0.034500,1.029436
2.0730,0.000000,-0.523599,1.570796,-1.047198,0.000000,0.000000,0.000000,0.000000,0.000000,0.000000,0.000000,0.152500,0.000000,0.034500,0.152500,-0.310000,0.034500,0.689436,0.174108,0.034500,0.968936,0.174108,0.034500,0.968936,0.278897,0.034500,1.029436
2.0740,0.000000,-0.523599,1.570796,-1.047198,0.000000,0.000000,0.000000,0.000000,0.000000,0.000000,0.000000,0.152500,0.000000,0.034500,0.152500,-0.310000,0.034500,0.689436,0.174108,0.034500,0.968936,0.174108,0.034500,0.968936,0.278897,0.034500,1.029436
2.0750,0.000000,-0.523599,1.570796,-1.047198,0.000000,0.000000,0.000000,0.000000,0.000000,0.000000,0.000000,0.152500,0.000000,0.034500,0.152500,-0.310000,0.034500,0.689436,0.174108,0.034500,0.968936,0.174108,0.034500,0.968936,0.278897,0.034500,1.029436
2.0760,0.000000,-0.523599,1.570796,-1.047198,0.000000,0.000000,0.000000,0.000000,0.000000,0.000000,0.000000,0.152500,0.000000,0.034500,0.152500,-0.310000,0.034500,0.689436,0.174108,0.034500,0.968936,0.174108,0.034500,0.968936,0.278897,0.034500,1.029436
2.0770,0.000000,-0.523599,1.570796,-1.047198,0.000000,0.000000,0.000000,0.000000,0.000000,0.000000,0.000000,0.152500,0.000000,0.034500,0.152500,-0.310000,0.034500,0.689436,0.174108,0.034500,0.968936,0.174108,0.034500,0.968936,0.278897,0.034500,1.029436
2.0780,0.000000,-0.523599,1.570796,-1.047198,0.000000,0.000000,0.000000,0.000000,0.000000,0.000000,0.000000,0.152500,0.000000,0.034500,0.152500,-0.310000,0.034500,0.689436,0.174108,0.034500,0.968936,0.174108,0.034500,0.968936,0.278897,0.034500,1.029436
2.0790,0.000000,-0.523599,1.570796,-1.047198,0.000000,0.000000,0.000000,0.000000,0.000000,0.000000,0.000000,0.152500,0.000000,0.034500,0.152500,-0.310000,0.034500,0.689436,0.174108,0.034500,0.968936,0.174108,0.034500,0.968936,0.278897,0.034500,1.029436
2.0800,0.000000,-0.523599,1.570796,-1.047198,0.000000,0.000000,0.000000,0.000000,0.000000,0.000000,0.000000,0.152500,0.000000,0.034500,0.152500,-0.310000,0.034500,0.689436,0.174108,0.034500,0.968936,0.174108,0.034500,0.968936,0.278897,0.034500,1.029436
2.0810,0.000000,-0.523599,1.570796,-1.047198,0.000000,0.000000,0.000000,0.000000,0.000000,0.000000,0.000000,0.152500,0.000000,0.034500,0.152500,-0.310000,0.034500,0.689436,0.174108,0.034500,0.968936,0.174108,0.034500,0.968936,0.278897,0.034500,1.029436
2.0820,0.000000,-0.523599,1.570796,-1.047198,0.000000,0.000000,0.000000,0.000000,0.000000,0.000000,0.000000,0.152500,0.000000,0.034500,0.152500,-0.310000,0.034500,0.689436,0.174108,0.034500,0.968936,0.174108,0.034500,0.968936,0.278897,0.034500,1.029436
2.0830,0.000000,-0.523599,1.570796,-1.047198,0.000000,0.000000,0.000000,0.000000,0.000000,0.000000,0.000000,0.152500,0.000000,0.034500,0.152500,-0.310000,0.034500,0.689436,0.174108,0.034500,0.968936,0.174108,0.034500,0.968936,0.278897,0.034500,1.029436
2.0840,0.000000,-0.523599,1.570796,-1.047198,0.000000,0.000000,0.000000,0.000000,0.000000,0.000000,0.000000,0.152500,0.000000,0.034500,0.152500,-0.310000,0.034500,0.689436,0.174108,0.034500,0.968936,0.174108,0.034500,0.968936,0.278897,0.034500,1.029436
2.0850,0.000000,-0.523599,1.570796,-1.047198,0.000000,0.000000,0.000000,0.000000,0.000000,0.000000,0.000000,0.152500,0.000000,0.034500,0.152500,-0.310000,0.034500,0.689436,0.174108,0.034500,0.968936,0.174108,0.034500,0.968936,0.278897,0.034500,1.029436
2.0860,0.000000,-0.523599,1.570796,-1.047198,0.000000,0.000000,0.000000,0.000000,0.000000,0.000000,0.000000,0.152500,0.000000,0.034500,0.152500,-0.310000,0.034500,0.689436,0.174108,0.034500,0.968936,0.174108,0.034500,0.968936,0.278897,0.034500,1.029436
2.0870,0.000000,-0.523599,1.570796,-1.047198,0.000000,0.000000,0.000000,0.000000,0.000000,0.000000,0.000000,0.152500,0.000000,0.034500,0.152500,-0.310000,0.034500,0.689436,0.174108,0.034500,0.968936,0.174108,0.034500,0.968936,0.278897,0.034500,1.029436
2.0880,0.000000,-0.523599,1.570796,-1.047198,0.000000,0.000000,0.000000,0.000000,0.000000,0.000000,0.000000,0.152500,0.000000,0.034500,0.152500,-0.310000,0.034500,0.689436,0.174108,0.034500,0.968936,0.174108,0.034500,0.968936,0.278897,0.034500,1.029436
2.0890,0.000000,-0.523599,1.570796,-1.047198,0.000000,0.000000,0.000000,0.000000,0.000000,0.000000,0.000000,0.152500,0.000000,0.034500,0.152500,-0.310000,0.034500,0.689436,0.174108,0.034500,0.968936,0.174108,0.034500,0.968936,0.278897,0.034500,1.029436
2.0900,0.000000,-0.523599,1.570796,-1.047198,0.000000,0.000000,0.000000,0.000000,0.000000,0.000000,0.000000,0.152500,0.000000,0.034500,0.152500,-0.310000,0.034500,0.689436,0.174108,0.034500,0.968936,0.174108,0.034500,0.968936,0.278897,0.034500,1.029436
2.0910,0.000000,-0.523599,1.570796,-1.047198,0.000000,0.000000,0.000000,0.000000,0.000000,0.000000,0.000000,0.152500,0.000000,0.034500,0.152500,-0.310000,0.034500,0.689436,0.174108,0.034500,0.968936,0.174108,0.034500,0.968936,0.278897,0.034500,1.029436
2.0920,0.000000,-0.523599,1.570796,-1.047198,0.000000,0.000000,0.000000,0.000000,0.000000,0.000000,0.000000,0.152500,0.000000,0.034500,0.152500,-0.310000,0.034500,0.689436,0.174108,0.034500,0.968936,0.174108,0.034500,0.968936,0.278897,0.034500,1.029436
2.0930,0.000000,-0.523599,1.570796,-1.047198,0.000000,0.000000,0.000000,0.000000,0.000000,0.000000,0.000000,0.152500,0.000000,0.034500,0.152500,-0.310000,0.034500,0.689436,0.174108,0.034500,0.968936,0.174108,0.034500,0.968936,0.278897,0.034500,1.029436
2.0940,0.000000,-0.523599,1.570796,-1.047198,0.000000,0.000000,0.000000,0.000000,0.000000,0.000000,0.000000,0.152500,0.000000,0.034500,0.152500,-0.310000,0.034500,0.689436,0.174108,0.034500,0.968936,0.174108,0.034500,0.968936,0.278897,0.034500,1.029436
2.0950,0.000000,-0.523599,1.570796,-1.047198,0.000000,0.000000,0.000000,0.000000,0.000000,0.000000,0.000000,0.152500,0.000000,0.034500,0.152500,-0.310000,0.034500,0.689436,0.174108,0.034500,0.968936,0.174108,0.034500,0.968936,0.278897,0.034500,1.029436
2.0960,0.000000,-0.523599,1.570796,-1.047198,0.000000,0.000000,0.000000,0.000000,0.000000,0.000000,0.000000,0.152500,0.000000,0.034500,0.152500,-0.310000,0.034500,0.689436,0.174108,0.034500,0.968936,0.174108,0.034500,0.968936,0.278897,0.034500,1.029436
2.0970,0.000000,-0.523599,1.570796,-1.047198,0.000000,0.000000,0.000000,0.000000,0.000000,0.000000,0.000000,0.152500,0.000000,0.034500,0.152500,-0.310000,0.034500,0.689436,0.174108,0.034500,0.968936,0.174108,0.034500,0.968936,0.278897,0.034500,1.029436
2.0980,0.000000,-0.523599,1.570796,-1.047198,0.000000,0.000000,0.000000,0.000000,0.000000,0.000000,0.000000,0.152500,0.000000,0.034500,0.152500,-0.310000,0.034500,0.689436,0.174108,0.034500,0.968936,0.174108,0.034500,0.968936,0.278897,0.034500,1.029436
2.0990,0.000000,-0.523599,1.570796,-1.047198,0.000000,0.000000,0.000000,0.000000,0.000000,0.000000,0.000000,0.152500,0.000000,0.034500,0.152500,-0.310000,0.034500,0.689436,0.174108,0.034500,0.968936,0.174108,0.034500,0.968936,0.278897,0.034500,1.029436
2.1000,0.000000,-0.523599,1.570796,-1.047198,0.000000,0.000000,0.000000,0.000000,0.000000,0.000000,0.000000,0.152500,0.000000,0.034500,0.152500,-0.310000,0.034500,0.689436,0.174108,0.034500,0.968936,0.174108,0.034500,0.968936,0.278897,0.034500,1.029436
2.1010,0.000000,-0.523599,1.570796,-1.047198,0.000000,0.000000,0.000000,0.000000,0.000000,0.000000,0.000000,0.152500,0.000000,0.034500,0.152500,-0.310000,0.034500,0.689436,0.174108,0.034500,0.968936,0.174108,0.034500,0.968936,0.278897,0.034500,1.029436
2.1020,0.000000,-0.523599,1.570796,-1.047198,0.000000,0.000000,0.000000,0.000000,0.000000,0.000000,0.000000,0.152500,0.000000,0.034500,0.152500,-0.310000,0.034500,0.689436,0.174108,0.034500,0.968936,0.174108,0.034500,0.968936,0.278897,0.034500,1.029436
2.1030,0.000000,-0.523599,1.570796,-1.047198,0.000000,0.000000,0.000000,0.000000,0.000000,0.000000,0.000000,0.152500,0.000000,0.034500,0.152500,-0.310000,0.034500,0.689436,0.174108,0.034500,0.968936,0.174108,0.034500,0.968936,0.278897,0.034500,1.029436
2.1040,0.000000,-0.523599,1.570796,-1.047198,0.000000,0.000000,0.000000,0.000000,0.000000,0.000000,0.000000,0.152500,0.000000,0.034500,0.152500,-0.310000,0.034500,0.689436,0.174108,0.034500,0.968936,0.174108,0.034500,0.968936,0.278897,0.034500,1.029436
2.1050,0.000000,-0.523599,1.570796,-1.047198,0.000000,0.000000,0.000000,0.000000,0.000000,0.000000,0.000000,0.152500,0.000000,0.034500,0.152500,-0.310000,0.034500,0.689436,0.174108,0.034500,0.968936,0.174108,0.034500,0.968936,0.278897,0.034500,1.029436
2.1060,0.000000,-0.523599,1.570796,-1.047198,0.000000,0.000000,0.000000,0.000000,0.000000,0.000000,0.000000,0.152500,0.000000,0.034500,0.152500,-0.310000,0.034500,0.689436,0.174108,0.034500,0.968936,0.174108,0.034500,0.968936,0.278897,0.034500,1.029436
2.1070,0.000000,-0.523599,1.570796,-1.047198,0.000000,0.000000,0.000000,0.000000,0.000000,0.000000,0.000000,0.152500,0.000000,0.034500,0.152500,-0.310000,0.034500,0.689436,0.174108,0.034500,0.968936,0.174108,0.034500,0.968936,0.278897,0.034500,1.029436
2.1080,0.000000,-0.523599,1.570796,-1.047198,0.000000,0.000000,0.000000,0.000000,0.000000,0.000000,0.000000,0.152500,0.000000,0.034500,0.152500,-0.310000,0.034500,0.689436,0.174108,0.034500,0.968936,0.174108,0.034500,0.968936,0.278897,0.034500,1.029436
2.1090,0.000000,-0.523599,1.570796,-1.047198,0.000000,0.000000,0.000000,0.000000,0.000000,0.000000,0.000000,0.152500,0.000000,0.034500,0.152500,-0.310000,0.034500,0.689436,0.174108,0.034500,0.968936,0.174108,0.034500,0.968936,0.278897,0.034500,1.029436
2.1100,0.000000,-0.523599,1.570796,-1.047198,0.000000,0.000000,0.000000,0.000000,0.000000,0.000000,0.000000,0.152500,0.000000,0.034500,0.152500,-0.310000,0.034500,0.689436,0.174108,0.034500,0.968936,0.174108,0.034500,0.968936,0.278897,0.034500,1.029436
2.1110,0.000000,-0.523599,1.570796,-1.047198,0.000000,0.000000,0.000000,0.000000,0.000000,0.000000,0.000000,0.152500,0.000000,0.034500,0.152500,-0.310000,0.034500,0.689436,0.174108,0.034500,0.968936,0.174108,0.034500,0.968936,0.278897,0.034500,1.029436
2.1120,0.000000,-0.523599,1.570796,-1.047198,0.000000,0.000000,0.000000,0.000000,0.000000,0.000000,0.000000,0.152500,0.000000,0.034500,0.152500,-0.310000,0.034500,0.689436,0.174108,0.034500,0.968936,0.174108,0.034500,0.968936,0.278897,0.034500,1.029436
2.1130,0.000000,-0.523599,1.570796,-1.047198,0.000000,0.000000,0.000000,0.000000,0.000000,0.000000,0.000000,0.152500,0.000000,0.034500,0.152500,-0.310000,0.034500,0.689436,0.174108,0.034500,0.968936,0.174108,0.034500,0.968936,0.278897,0.034500,1.029436
2.1140,0.000000,-0.523599,1.570796,-1.047198,0.000000,0.000000,0.000000,0.000000,0.000000,0.000000,0.000000,0.152500,0.000000,0.034500,0.152500,-0.310000,0.034500,0.689436,0.174108,0.034500,0.968936,0.174108,0.034500,0.968936,0.278897,0.034500,1.029436
2.1150,0.000000,-0.523599,1.570796,-1.047198,0.000000,0.000000,0.000000,0.000000,0.000000,0.000000,0.000000,0.152500,0.000000,0.034500,0.152500,-0.310000,0.034500,0.689436,0.174108,0.034500,0.968936,0.174108,0.034500,0.968936,0.278897,0.034500,1.029436
2.1160,0.000000,-0.523599,1.570796,-1.047198,0.000000,0.000000,0.000000,0.000000,0.000000,0.000000,0.000000,0.152500,0.000000,0.034500,0.152500,-0.310000,0.034500,0.689436,0.174108,0.034500,0.968936,0.174108,0.034500,0.968936,0.278897,0.034500,1.029436
2.1170,0.000000,-0.523599,1.570796,-1.047198,0.000000,0.000000,0.000000,0.000000,0.000000,0.000000,0.000000,0.152500,0.000000,0.034500,0.152500,-0.310000,0.034500,0.689436,0.174108,0.034500,0.968936,0.174108,0.034500,0.968936,0.278897,0.034500,1.029436
2.1180,0.000000,-0.523599,1.570796,-1.047198,0.000000,0.000000,0.000000,0.000000,0.000000,0.000000,0.000000,0.152500,0.000000,0.034500,0.152500,-0.310000,0.034500,0.689436,0.174108,0.034500,0.968936,0.174108,0.034500,0.968936,0.278897,0.034500,1.029436
2.1190,0.000000,-0.523599,1.570796,-1.047198,0.000000,0.000000,0.000000,0.000000,0.000000,0.000000,0.000000,0.152500,0.000000,0.034500,0.152500,-0.310000,0.034500,0.689436,0.174108,0.034500,0.968936,0.174108,0.034500,0.968936,0.278897,0.034500,1.029436
2.1200,0.000000,-0.523599,1.570796,-1.047198,0.000000,0.000000,0.000000,0.000000,0.000000,0.000000,0.000000,0.152500,0.000000,0.034500,0.152500,-0.310000,0.034500,0.689436,0.174108,0.034500,0.968936,0.174108,0.034500,0.968936,0.278897,0.034500,1.029436
2.1210,0.000000,-0.523599,1.570796,-1.047198,0.000000,0.000000,0.000000,0.000000,0.000000,0.000000,0.000000,0.152500,0.000000,0.034500,0.152500,-0.310000,0.034500,0.689436,0.174108,0.034500,0.968936,0.174108,0.034500,0.968936,0.278897,0.034500,1.029436
2.1220,0.000000,-0.523599,1.570796,-1.047198,0.000000,0.000000,0.000000,0.000000,0.000000,0.000000,0.000000,0.152500,0.000000,0.034500,0.152500,-0.310000,0.034500,0.689436,0.174108,0.034500,0.968936,0.174108,0.034500,0.968936,0.278897,0.034500,1.029436
2.1230,0.000000,-0.523599,1.570796,-1.047198,0.000000,0.000000,0.000000,0.000000,0.000000,0.000000,0.000000,0.152500,0.000000,0.034500,0.152500,-0.310000,0.034500,0.689436,0.174108,0.034500,0.968936,0.174108,0.034500,0.968936,0.278897,0.034500,1.029436
2.1240,0.000000,-0.523599,1.570796,-1.047198,0.000000,0.000000,0.000000,0.000000,0.000000,0.000000,0.000000,0.152500,0.000000,0.034500,0.152500,-0.310000,0.034500,0.689436,0.174108,0.034500,0.968936,0.174108,0.034500,0.968936,0.278897,0.034500,1.029436
2.1250,0.000000,-0.523599,1.570796,-1.047198,0.000000,0.000000,0.000000,0.000000,0.000000,0.000000,0.000000,0.152500,0.000000,0.034500,0.152500,-0.310000,0.034500,0.689436,0.174108,0.034500,0.968936,0.174108,0.034500,0.968936,0.278897,0.034500,1.029436
2.1260,0.000000,-0.523599,1.570796,-1.047198,0.000000,0.000000,0.000000,0.000000,0.000000,0.000000,0.000000,0.152500,0.000000,0.034500,0.152500,-0.310000,0.034500,0.689436,0.174108,0.034500,0.968936,0.174108,0.034500,0.968936,0.278897,0.034500,1.029436
2.1270,0.000000,-0.523599,1.570796,-1.047198,0.000000,0.000000,0.000000,0.000000,0.000000,0.000000,0.000000,0.152500,0.000000,0.034500,0.152500,-0.310000,0.034500,0.689436,0.174108,0.034500,0.968936,0.174108,0.034500,0.968936,0.278897,0.034500,1.029436
2.1280,0.000000,-0.523599,1.570796,-1.047198,0.000000,0.000000,0.000000,0.000000,0.000000,0.000000,0.000000,0.152500,0.000000,0.034500,0.152500,-0.310000,0.034500,0.689436,0.174108,0.034500,0.968936,0.174108,0.034500,0.968936,0.278897,0.034500,1.029436
2.1290,0.000000,-0.523599,1.570796,-1.047198,0.000000,0.000000,0.000000,0.000000,0.000000,0.000000,0.000000,0.152500,0.000000,0.034500,0.152500,-0.310000,0.034500,0.689436,0.174108,0.034500,0.968936,0.174108,0.034500,0.968936,0.278897,0.034500,1.029436
2.1300,0.000000,-0.523599,1.570796,-1.047198,0.000000,0.000000,0.000000,0.000000,0.000000,0.000000,0.000000,0.152500,0.000000,0.034500,0.152500,-0.310000,0.034500,0.689436,0.174108,0.034500,0.968936,0.174108,0.034500,0.968936,0.278897,0.034500,1.029436
2.1310,0.000000,-0.523599,1.570796,-1.047198,0.000000,0.000000,0.000000,0.000000,0.000000,0.000000,0.000000,0.152500,0.000000,0.034500,0.152500,-0.310000,0.034500,0.689436,0.174108,0.034500,0.968936,0.174108,0.034500,0.968936,0.278897,0.034500,1.029436
2.1320,0.000000,-0.523599,1.570796,-1.047198,0.000000,0.000000,0.000000,0.000000,0.000000,0.000000,0.000000,0.152500,0.000000,0.034500,0.152500,-0.310000,0.034500,0.689436,0.174108,0.034500,0.968936,0.174108,0.034500,0.968936,0.278897,0.034500,1.029436
2.1330,0.000000,-0.523599,1.570796,-1.047198,0.000000,0.000000,0.000000,0.000000,0.000000,0.000000,0.000000,0.152500,0.000000,0.034500,0.152500,-0.310000,0.034500,0.689436,0.174108,0.034500,0.968936,0.174108,0.034500,0.968936,0.278897,0.034500,1.029436
2.1340,0.000000,-0.523599,1.570796,-1.047198,0.000000,0.000000,0.000000,0.000000,0.000000,0.000000,0.000000,0.152500,0.000000,0.034500,0.152500,-0.310000,0.034500,0.689436,0.174108,0.034500,0.968936,0.174108,0.034500,0.968936,0.278897,0.034500,1.029436
2.1350,0.000000,-0.523599,1.570796,-1.047198,0.000000,0.000000,0.000000,0.000000,0.000000,0.000000,0.000000,0.152500,0.000000,0.034500,0.152500,-0.310000,0.034500,0.689436,0.174108,0.034500,0.968936,0.174108,0.034500,0.968936,0.278897,0.034500,1.029436
2.1360,0.000000,-0.523599,1.570796,-1.047198,0.000000,0.000000,0.000000,0.000000,0.000000,0.000000,0.000000,0.152500,0.000000,0.034500,0.152500,-0.310000,0.034500,0.689436,0.174108,0.034500,0.968936,0.174108,0.034500,0.968936,0.278897,0.034500,1.029436
2.1370,0.000000,-0.523599,1.570796,-1.047198,0.000000,0.000000,0.000000,0.000000,0.000000,0.000000,0.000000,0.152500,0.000000,0.034500,0.152500,-0.310000,0.034500,0.689436,0.174108,0.034500,0.968936,0.174108,0.034500,0.968936,0.278897,0.034500,1.029436
2.1380,0.000000,-0.523599,1.570796,-1.047198,0.000000,0.000000,0.000000,0.000000,0.000000,0.000000,0.000000,0.152500,0.000000,0.034500,0.152500,-0.310000,0.034500,0.689436,0.174108,0.034500,0.968936,0.174108,0.034500,0.968936,0.278897,0.034500,1.029436
2.1390,0.000000,-0.523599,1.570796,-1.047198,0.000000,0.000000,0.000000,0.000000,0.000000,0.000000,0.000000,0.152500,0.000000,0.034500,0.152500,-0.310000,0.034500,0.689436,0.174108,0.034500,0.968936,0.174108,0.034500,0.968936,0.278897,0.034500,1.029436
2.1400,0.000000,-0.523599,1.570796,-1.047198,0.000000,0.000000,0.000000,0.000000,0.000000,0.000000,0.000000,0.152500,0.000000,0.034500,0.152500,-0.310000,0.034500,0.689436,0.174108,0.034500,0.968936,0.174108,0.034500,0.968936,0.278897,0.034500,1.029436
2.1410,0.000000,-0.523599,1.570796,-1.047198,0.000000,0.000000,0.000000,0.000000,0.000000,0.000000,0.000000,0.152500,0.000000,0.034500,0.152500,-0.310000,0.034500,0.689436,0.174108,0.034500,0.968936,0.174108,0.034500,0.968936,0.278897,0.034500,1.029436
2.1420,0.000000,-0.523599,1.570796,-1.047198,0.000000,0.000000,0.000000,0.000000,0.000000,0.000000,0.000000,0.152500,0.000000,0.034500,0.152500,-0.310000,0.034500,0.689436,0.174108,0.034500,0.968936,0.174108,0.034500,0.968936,0.278897,0.034500,1.029436
2.1430,0.000000,-0.523599,1.570796,-1.047198,0.000000,0.000000,0.000000,0.000000,0.000000,0.000000,0.000000,0.152500,0.000000,0.034500,0.152500,-0.310000,0.034500,0.689436,0.174108,0.034500,0.968936,0.174108,0.034500,0.968936,0.278897,0.034500,1.029436
2.1440,0.000000,-0.523599,1.570796,-1.047198,0.000000,0.000000,0.000000,0.000000,0.000000,0.000000,0.000000,0.152500,0.000000,0.034500,0.152500,-0.310000,0.034500,0.689436,0.174108,0.034500,0.968936,0.174108,0.034500,0.968936,0.278897,0.034500,1.029436
2.1450,0.000000,-0.523599,1.570796,-1.047198,0.000000,0.000000,0.000000,0.000000,0.000000,0.000000,0.000000,0.152500,0.000000,0.034500,0.152500,-0.310000,0.034500,0.689436,0.174108,0.034500,0.968936,0.174108,0.034500,0.968936,0.278897,0.034500,1.029436
2.1460,0.000000,-0.523599,1.570796,-1.047198,0.000000,0.000000,0.000000,0.000000,0.000000,0.000000,0.000000,0.152500,0.000000,0.034500,0.152500,-0.310000,0.034500,0.689436,0.174108,0.034500,0.968936,0.174108,0.034500,0.968936,0.278897,0.034500,1.029436
2.1470,0.000000,-0.523599,1.570796,-1.047198,0.000000,0.000000,0.000000,0.000000,0.000000,0.000000,0.000000,0.152500,0.000000,0.034500,0.152500,-0.310000,0.034500,0.689436,0.174108,0.034500,0.968936,0.174108,0.034500,0.968936,0.278897,0.034500,1.029436
2.1480,0.000000,-0.523599,1.570796,-1.047198,0.000000,0.000000,0.000000,0.000000,0.000000,0.000000,0.000000,0.152500,0.000000,0.034500,0.152500,-0.310000,0.034500,0.689436,0.174108,0.034500,0.968936,0.174108,0.034500,0.968936,0.278897,0.034500,1.029436
2.1490,0.000000,-0.523599,1.570796,-1.047198,0.000000,0.000000,0.000000,0.000000,0.000000,0.000000,0.000000,0.152500,0.000000,0.034500,0.152500,-0.310000,0.034500,0.689436,0.174108,0.034500,0.968936,0.174108,0.034500,0.968936,0.278897,0.034500,1.029436
2.1500,0.000000,-0.523599,1.570796,-1.047198,0.000000,0.000000,0.000000,0.000000,0.000000,0.000000,0.000000,0.152500,0.000000,0.034500,0.152500,-0.310000,0.034500,0.689436,0.174108,0.034500,0.968936,0.174108,0.034500,0.968936,0.278897,0.034500,1.029436
2.1510,0.000000,-0.523599,1.570796,-1.047198,0.000000,0.000000,0.000000,0.000000,0.000000,0.000000,0.000000,0.152500,0.000000,0.034500,0.152500,-0.310000,0.034500,0.689436,0.174108,0.034500,0.968936,0.174108,0.034500,0.968936,0.278897,0.034500,1.029436
2.1520,0.000000,-0.523599,1.570796,-1.047198,0.000000,0.000000,0.000000,0.000000,0.000000,0.000000,0.000000,0.152500,0.000000,0.034500,0.152500,-0.310000,0.034500,0.689436,0.174108,0.034500,0.968936,0.174108,0.034500,0.968936,0.278897,0.034500,1.029436
2.1530,0.000000,-0.523599,1.570796,-1.047198,0.000000,0.000000,0.000000,0.000000,0.000000,0.000000,0.000000,0.152500,0.000000,0.034500,0.152500,-0.310000,0.034500,0.689436,0.174108,0.034500,0.968936,0.174108,0.034500,0.968936,0.278897,0.034500,1.029436
2.1540,0.000000,-0.523599,1.570796,-1.047198,0.000000,0.000000,0.000000,0.000000,0.000000,0.000000,0.000000,0.152500,0.000000,0.034500,0.152500,-0.310000,0.034500,0.689436,0.174108,0.034500,0.968936,0.174108,0.034500,0.968936,0.278897,0.034500,1.029436
2.1550,0.000000,-0.523599,1.570796,-1.047198,0.000000,0.000000,0.000000,0.000000,0.000000,0.000000,0.000000,0.152500,0.000000,0.034500,0.152500,-0.310000,0.034500,0.689436,0.174108,0.034500,0.968936,0.174108,0.034500,0.968936,0.278897,0.034500,1.029436
2.1560,0.000000,-0.523599,1.570796,-1.047198,0.000000,0.000000,0.000000,0.000000,0.000000,0.000000,0.000000,0.152500,0.000000,0.034500,0.152500,-0.310000,0.034500,0.689436,0.174108,0.034500,0.968936,0.174108,0.034500,0.968936,0.278897,0.034500,1.029436
2.1570,0.000000,-0.523599,1.570796,-1.047198,0.000000,0.000000,0.000000,0.000000,0.000000,0.000000,0.000000,0.152500,0.000000,0.034500,0.152500,-0.310000,0.034500,0.689436,0.174108,0.034500,0.968936,0.174108,0.034500,0.968936,0.278897,0.034500,1.029436
2.1580,0.000000,-0.523599,1.570796,-1.047198,0.000000,0.000000,0.000000,0.000000,0.000000,0.000000,0.000000,0.152500,0.000000,0.034500,0.152500,-0.310000,0.034500,0.689436,0.174108,0.034500,0.968936,0.174108,0.034500,0.968936,0.278897,0.034500,1.029436
2.1590,0.000000,-0.523599,1.570796,-1.047198,0.000000,0.000000,0.000000,0.000000,0.000000,0.000000,0.000000,0.152500,0.000000,0.034500,0.152500,-0.310000,0.034500,0.689436,0.174108,0.034500,0.968936,0.174108,0.034500,0.968936,0.278897,0.034500,1.029436
2.1600,0.000000,-0.523599,1.570796,-1.047198,0.000000,0.000000,0.000000,0.000000,0.000000,0.000000,0.000000,0.152500,0.000000,0.034500,0.152500,-0.310000,0.034500,0.689436,0.174108,0.034500,0.968936,0.174108,0.034500,0.968936,0.278897,0.034500,1.029436
2.1610,0.000000,-0.523599,1.570796,-1.047198,0.000000,0.000000,0.000000,0.000000,0.000000,0.000000,0.000000,0.152500,0.000000,0.034500,0.152500,-0.310000,0.034500,0.689436,0.174108,0.034500,0.968936,0.174108,0.034500,0.968936,0.278897,0.034500,1.029436
2.1620,0.000000,-0.523599,1.570796,-1.047198,0.000000,0.000000,0.000000,0.000000,0.000000,0.000000,0.000000,0.152500,0.000000,0.034500,0.152500,-0.310000,0.034500,0.689436,0.174108,0.034500,0.968936,0.174108,0.034500,0.968936,0.278897,0.034500,1.029436
2.1630,0.000000,-0.523599,1.570796,-1.047198,0.000000,0.000000,0.000000,0.000000,0.000000,0.000000,0.000000,0.152500,0.000000,0.034500,0.152500,-0.310000,0.034500,0.689436,0.174108,0.034500,0.968936,0.174108,0.034500,0.968936,0.278897,0.034500,1.029436
2.1640,0.000000,-0.523599,1.570796,-1.047198,0.000000,0.000000,0.000000,0.000000,0.000000,0.000000,0.000000,0.152500,0.000000,0.034500,0.152500,-0.310000,0.034500,0.689436,0.174108,0.034500,0.968936,0.174108,0.034500,0.968936,0.278897,0.034500,1.029436
2.1650,0.000000,-0.523599,1.570796,-1.047198,0.000000,0.000000,0.000000,0.000000,0.000000,0.000000,0.000000,0.152500,0.000000,0.034500,0.152500,-0.310000,0.034500,0.689436,0.174108,0.034500,0.968936,0.174108,0.034500,0.968936,0.278897,0.034500,1.029436
2.1660,0.000000,-0.523599,1.570796,-1.047198,0.000000,0.000000,0.000000,0.000000,0.000000,0.000000,0.000000,0.152500,0.000000,0.034500,0.152500,-0.310000,0.034500,0.689436,0.174108,0.034500,0.968936,0.174108,0.034500,0.968936,0.278897,0.034500,1.029436
2.1670,0.000000,-0.523599,1.570796,-1.047198,0.000000,0.000000,0.000000,0.000000,0.000000,0.000000,0.000000,0.152500,0.000000,0.034500,0.152500,-0.310000,0.034500,0.689436,0.174108,0.034500,0.968936,0.174108,0.034500,0.968936,0.278897,0.034500,1.029436
2.1680,0.000000,-0.523599,1.570796,-1.047198,0.000000,0.000000,0.000000,0.000000,0.000000,0.000000,0.000000,0.152500,0.000000,0.034500,0.152500,-0.310000,0.034500,0.689436,0.174108,0.034500,0.968936,0.174108,0.034500,0.968936,0.278897,0.034500,1.029436
2.1690,0.000000,-0.523599,1.570796,-1.047198,0.000000,0.000000,0.000000,0.000000,0.000000,0.000000,0.000000,0.152500,0.000000,0.034500,0.152500,-0.310000,0.034500,0.689436,0.174108,0.034500,0.968936,0.174108,0.034500,0.968936,0.278897,0.034500,1.029436
2.1700,0.000000,-0.523599,1.570796,-1.047198,0.000000,0.000000,0.000000,0.000000,0.000000,0.000000,0.000000,0.152500,0.000000,0.034500,0.152500,-0.310000,0.034500,0.689436,0.174108,0.034500,0.968936,0.174108,0.034500,0.968936,0.278897,0.034500,1.029436
2.1710,0.000000,-0.523599,1.570796,-1.047198,0.000000,0.000000,0.000000,0.000000,0.000000,0.000000,0.000000,0.152500,0.000000,0.034500,0.152500,-0.310000,0.034500,0.689436,0.174108,0.034500,0.968936,0.174108,0.034500,0.968936,0.278897,0.034500,1.029436
2.1720,0.000000,-0.523599,1.570796,-1.047198,0.000000,0.000000,0.000000,0.000000,0.000000,0.000000,0.000000,0.152500,0.000000,0.034500,0.152500,-0.310000,0.034500,0.689436,0.174108,0.034500,0.968936,0.174108,0.034500,0.968936,0.278897,0.034500,1.029436
2.1730,0.000000,-0.523599,1.570796,-1.047198,0.000000,0.000000,0.000000,0.000000,0.000000,0.000000,0.000000,0.152500,0.000000,0.034500,0.152500,-0.310000,0.034500,0.689436,0.174108,0.034500,0.968936,0.174108,0.034500,0.968936,0.278897,0.034500,1.029436
2.1740,0.000000,-0.523599,1.570796,-1.047198,0.000000,0.000000,0.000000,0.000000,0.000000,0.000000,0.000000,0.152500,0.000000,0.034500,0.152500,-0.310000,0.034500,0.689436,0.174108,0.034500,0.968936,0.174108,0.034500,0.968936,0.278897,0.034500,1.029436
2.1750,0.000000,-0.523599,1.570796,-1.047198,0.000000,0.000000,0.000000,0.000000,0.000000,0.000000,0.000000,0.152500,0.000000,0.034500,0.152500,-0.310000,0.034500,0.689436,0.174108,0.034500,0.968936,0.174108,0.034500,0.968936,0.278897,0.034500,1.029436
2.1760,0.000000,-0.523599,1.570796,-1.047198,0.000000,0.000000,0.000000,0.000000,0.000000,0.000000,0.000000,0.152500,0.000000,0.034500,0.152500,-0.310000,0.034500,0.689436,0.174108,0.034500,0.968936,0.174108,0.034500,0.968936,0.278897,0.034500,1.029436
2.1770,0.000000,-0.523599,1.570796,-1.047198,0.000000,0.000000,0.000000,0.000000,0.000000,0.000000,0.000000,0.152500,0.000000,0.034500,0.152500,-0.310000,0.034500,0.689436,0.174108,0.034500,0.968936,0.174108,0.034500,0.968936,0.278897,0.034500,1.029436
2.1780,0.000000,-0.523599,1.570796,-1.047198,0.000000,0.000000,0.000000,0.000000,0.000000,0.000000,0.000000,0.152500,0.000000,0.034500,0.152500,-0.310000,0.034500,0.689436,0.174108,0.034500,0.968936,0.174108,0.034500,0.968936,0.278897,0.034500,1.029436
2.1790,0.000000,-0.523599,1.570796,-1.047198,0.000000,0.000000,0.000000,0.000000,0.000000,0.000000,0.000000,0.152500,0.000000,0.034500,0.152500,-0.310000,0.034500,0.689436,0.174108,0.034500,0.968936,0.174108,0.034500,0.968936,0.278897,0.034500,1.029436
2.1800,0.000000,-0.523599,1.570796,-1.047198,0.000000,0.000000,0.000000,0.000000,0.000000,0.000000,0.000000,0.152500,0.000000,0.034500,0.152500,-0.310000,0.034500,0.689436,0.174108,0.034500,0.968936,0.174108,0.034500,0.968936,0.278897,0.034500,1.029436
2.1810,0.000000,-0.523599,1.570796,-1.047198,0.000000,0.000000,0.000000,0.000000,0.000000,0.000000,0.000000,0.152500,0.000000,0.034500,0.152500,-0.310000,0.034500,0.689436,0.174108,0.034500,0.968936,0.174108,0.034500,0.968936,0.278897,0.034500,1.029436
2.1820,0.000000,-0.523599,1.570796,-1.047198,0.000000,0.000000,0.000000,0.000000,0.000000,0.000000,0.000000,0.152500,0.000000,0.034500,0.152500,-0.310000,0.034500,0.689436,0.174108,0.034500,0.968936,0.174108,0.034500,0.968936,0.278897,0.034500,1.029436
2.1830,0.000000,-0.523599,1.570796,-1.047198,0.000000,0.000000,0.000000,0.000000,0.000000,0.000000,0.000000,0.152500,0.000000,0.034500,0.152500,-0.310000,0.034500,0.689436,0.174108,0.034500,0.968936,0.174108,0.034500,0.968936,0.278897,0.034500,1.029436
2.1840,0.000000,-0.523599,1.570796,-1.047198,0.000000,0.000000,0.000000,0.000000,0.000000,0.000000,0.000000,0.152500,0.000000,0.034500,0.152500,-0.310000,0.034500,0.689436,0.174108,0.034500,0.968936,0.174108,0.034500,0.968936,0.278897,0.034500,1.029436
2.1850,0.000000,-0.523599,1.570796,-1.047198,0.000000,0.000000,0.000000,0.000000,0.000000,0.000000,0.000000,0.152500,0.000000,0.034500,0.152500,-0.310000,0.034500,0.689436,0.174108,0.034500,0.968936,0.174108,0.034500,0.968936,0.278897,0.034500,1.029436
2.1860,0.000000,-0.523599,1.570796,-1.047198,0.000000,0.000000,0.000000,0.000000,0.000000,0.000000,0.000000,0.152500,0.000000,0.034500,0.152500,-0.310000,0.034500,0.689436,0.174108,0.034500,0.968936,0.174108,0.034500,0.968936,0.278897,0.034500,1.029436
2.1870,0.000000,-0.523599,1.570796,-1.047198,0.000000,0.000000,0.000000,0.000000,0.000000,0.000000,0.000000,0.152500,0.000000,0.034500,0.152500,-0.310000,0.034500,0.689436,0.174108,0.034500,0.968936,0.174108,0.034500,0.968936,0.278897,0.034500,1.029436
2.1880,0.000000,-0.523599,1.570796,-1.047198,0.000000,0.000000,0.000000,0.000000,0.000000,0.000000,0.000000,0.152500,0.000000,0.034500,0.152500,-0.310000,0.034500,0.689436,0.174108,0.034500,0.968936,0.174108,0.034500,0.968936,0.278897,0.034500,1.029436
2.1890,0.000000,-0.523599,1.570796,-1.047198,0.000000,0.000000,0.000000,0.000000,0.000000,0.000000,0.000000,0.152500,0.000000,0.034500,0.152500,-0.310000,0.034500,0.689436,0.174108,0.034500,0.968936,0.174108,0.034500,0.968936,0.278897,0.034500,1.029436
2.1900,0.000000,-0.523599,1.570796,-1.047198,0.000000,0.000000,0.000000,0.000000,0.000000,0.000000,0.000000,0.152500,0.000000,0.034500,0.152500,-0.310000,0.034500,0.689436,0.174108,0.034500,0.968936,0.174108,0.034500,0.968936,0.278897,0.034500,1.029436
2.1910,0.000000,-0.523599,1.570796,-1.047198,0.000000,0.000000,0.000000,0.000000,0.000000,0.000000,0.000000,0.152500,0.000000,0.034500,0.152500,-0.310000,0.034500,0.689436,0.174108,0.034500,0.968936,0.174108,0.034500,0.968936,0.278897,0.034500,1.029436
2.1920,0.000000,-0.523599,1.570796,-1.047198,0.000000,0.000000,0.000000,0.000000,0.000000,0.000000,0.000000,0.152500,0.000000,0.034500,0.152500,-0.310000,0.034500,0.689436,0.174108,0.034500,0.968936,0.174108,0.034500,0.968936,0.278897,0.034500,1.029436
2.1930,0.000000,-0.523599,1.570796,-1.047198,0.000000,0.000000,0.000000,0.000000,0.000000,0.000000,0.000000,0.152500,0.000000,0.034500,0.152500,-0.310000,0.034500,0.689436,0.174108,0.034500,0.968936,0.174108,0.034500,0.968936,0.278897,0.034500,1.029436
2.1940,0.000000,-0.523599,1.570796,-1.047198,0.000000,0.000000,0.000000,0.000000,0.000000,0.000000,0.000000,0.152500,0.000000,0.034500,0.152500,-0.310000,0.034500,0.689436,0.174108,0.034500,0.968936,0.174108,0.034500,0.968936,0.278897,0.034500,1.029436
2.1950,0.000000,-0.523599,1.570796,-1.047198,0.000000,0.000000,0.000000,0.000000,0.000000,0.000000,0.000000,0.152500,0.000000,0.034500,0.152500,-0.310000,0.034500,0.689436,0.174108,0.034500,0.968936,0.174108,0.034500,0.968936,0.278897,0.034500,1.029436
2.1960,0.000000,-0.523599,1.570796,-1.047198,0.000000,0.000000,0.000000,0.000000,0.000000,0.000000,0.000000,0.152500,0.000000,0.034500,0.152500,-0.310000,0.034500,0.689436,0.174108,0.034500,0.968936,0.174108,0.034500,0.968936,0.278897,0.034500,1.029436
2.1970,0.000000,-0.523599,1.570796,-1.047198,0.000000,0.000000,0.000000,0.000000,0.000000,0.000000,0.000000,0.152500,0.000000,0.034500,0.152500,-0.310000,0.034500,0.689436,0.174108,0.034500,0.968936,0.174108,0.034500,0.968936,0.278897,0.034500,1.029436
2.1980,0.000000,-0.523599,1.570796,-1.047198,0.000000,0.000000,0.000000,0.000000,0.000000,0.000000,0.000000,0.152500,0.000000,0.034500,0.152500,-0.310000,0.034500,0.689436,0.174108,0.034500,0.968936,0.174108,0.034500,0.968936,0.278897,0.034500,1.029436
2.1990,0.000000,-0.523599,1.570796,-1.047198,0.000000,0.000000,0.000000,0.000000,0.000000,0.000000,0.000000,0.152500,0.000000,0.034500,0.152500,-0.310000,0.034500,0.689436,0.174108,0.034500,0.968936,0.174108,0.034500,0.968936,0.278897,0.034500,1.029436
2.2000,0.000000,-0.523599,1.570796,-1.047198,0.000000,0.000000,0.000000,0.000000,0.000000,0.000000,0.000000,0.152500,0.000000,0.034500,0.152500,-0.310000,0.034500,0.689436,0.174108,0.034500,0.968936,0.174108,0.034500,0.968936,0.278897,0.034500,1.029436
2.2010,0.000000,-0.523599,1.570796,-1.047198,0.000000,0.000000,0.000000,0.000000,0.000000,0.000000,0.000000,0.152500,0.000000,0.034500,0.152500,-0.310000,0.034500,0.689436,0.174108,0.034500,0.968936,0.174108,0.034500,0.968936,0.278897,0.034500,1.029436
2.2020,0.000000,-0.523599,1.570796,-1.047198,0.000000,0.000000,0.000000,0.000000,0.000000,0.000000,0.000000,0.152500,0.000000,0.034500,0.152500,-0.310000,0.034500,0.689436,0.174108,0.034500,0.968936,0.174108,0.034500,0.968936,0.278897,0.034500,1.029436
2.2030,0.000000,-0.523599,1.570796,-1.047198,0.000000,0.000000,0.000000,0.000000,0.000000,0.000000,0.000000,0.152500,0.000000,0.034500,0.152500,-0.310000,0.034500,0.689436,0.174108,0.034500,0.968936,0.174108,0.034500,0.968936,0.278897,0.034500,1.029436
2.2040,0.000000,-0.523599,1.570796,-1.047198,0.000000,0.000000,0.000000,0.000000,0.000000,0.000000,0.000000,0.152500,0.000000,0.034500,0.152500,-0.310000,0.034500,0.689436,0.174108,0.034500,0.968936,0.174108,0.034500,0.968936,0.278897,0.034500,1.029436
2.2050,0.000000,-0.523599,1.570796,-1.047198,0.000000,0.000000,0.000000,0.000000,0.000000,0.000000,0.000000,0.152500,0.000000,0.034500,0.152500,-0.310000,0.034500,0.689436,0.174108,0.034500,0.968936,0.174108,0.034500,0.968936,0.278897,0.034500,1.029436
2.2060,0.000000,-0.523599,1.570796,-1.047198,0.000000,0.000000,0.000000,0.000000,0.000000,0.000000,0.000000,0.152500,0.000000,0.034500,0.152500,-0.310000,0.034500,0.689436,0.174108,0.034500,0.968936,0.174108,0.034500,0.968936,0.278897,0.034500,1.029436
2.2070,0.000000,-0.523599,1.570796,-1.047198,0.000000,0.000000,0.000000,0.000000,0.000000,0.000000,0.000000,0.152500,0.000000,0.034500,0.152500,-0.310000,0.034500,0.689436,0.174108,0.034500,0.968936,0.174108,0.034500,0.968936,0.278897,0.034500,1.029436
2.2080,0.000000,-0.523599,1.570796,-1.047198,0.000000,0.000000,0.000000,0.000000,0.000000,0.000000,0.000000,0.152500,0.000000,0.034500,0.152500,-0.310000,0.034500,0.689436,0.174108,0.034500,0.968936,0.174108,0.034500,0.968936,0.278897,0.034500,1.029436
2.2090,0.000000,-0.523599,1.570796,-1.047198,0.000000,0.000000,0.000000,0.000000,0.000000,0.000000,0.000000,0.152500,0.000000,0.034500,0.152500,-0.310000,0.034500,0.689436,0.174108,0.034500,0.968936,0.174108,0.034500,0.968936,0.278897,0.034500,1.029436
2.2100,0.000000,-0.523599,1.570796,-1.047198,0.000000,0.000000,0.000000,0.000000,0.000000,0.000000,0.000000,0.152500,0.000000,0.034500,0.152500,-0.310000,0.034500,0.689436,0.174108,0.034500,0.968936,0.174108,0.034500,0.968936,0.278897,0.034500,1.029436
2.2110,0.000000,-0.523599,1.570796,-1.047198,0.000000,0.000000,0.000000,0.000000,0.000000,0.000000,0.000000,0.152500,0.000000,0.034500,0.152500,-0.310000,0.034500,0.689436,0.174108,0.034500,0.968936,0.174108,0.034500,0.968936,0.278897,0.034500,1.029436
2.2120,0.000000,-0.523599,1.570796,-1.047198,0.000000,0.000000,0.000000,0.000000,0.000000,0.000000,0.000000,0.152500,0.000000,0.034500,0.152500,-0.310000,0.034500,0.689436,0.174108,0.034500,0.968936,0.174108,0.034500,0.968936,0.278897,0.034500,1.029436
2.2130,0.000000,-0.523599,1.570796,-1.047198,0.000000,0.000000,0.000000,0.000000,0.000000,0.000000,0.000000,0.152500,0.000000,0.034500,0.152500,-0.310000,0.034500,0.689436,0.174108,0.034500,0.968936,0.174108,0.034500,0.968936,0.278897,0.034500,1.029436
2.2140,0.000000,-0.523599,1.570796,-1.047198,0.000000,0.000000,0.000000,0.000000,0.000000,0.000000,0.000000,0.152500,0.000000,0.034500,0.152500,-0.310000,0.034500,0.689436,0.174108,0.034500,0.968936,0.174108,0.034500,0.968936,0.278897,0.034500,1.029436
2.2150,0.000000,-0.523599,1.570796,-1.047198,0.000000,0.000000,0.000000,0.000000,0.000000,0.000000,0.000000,0.152500,0.000000,0.034500,0.152500,-0.310000,0.034500,0.689436,0.174108,0.034500,0.968936,0.174108,0.034500,0.968936,0.278897,0.034500,1.029436
2.2160,0.000000,-0.523599,1.570796,-1.047198,0.000000,0.000000,0.000000,0.000000,0.000000,0.000000,0.000000,0.152500,0.000000,0.034500,0.152500,-0.310000,0.034500,0.689436,0.174108,0.034500,0.968936,0.174108,0.034500,0.968936,0.278897,0.034500,1.029436
2.2170,0.000000,-0.523599,1.570796,-1.047198,0.000000,0.000000,0.000000,0.000000,0.000000,0.000000,0.000000,0.152500,0.000000,0.034500,0.152500,-0.310000,0.034500,0.689436,0.174108,0.034500,0.968936,0.174108,0.034500,0.968936,0.278897,0.034500,1.029436
2.2180,0.000000,-0.523599,1.570796,-1.047198,0.000000,0.000000,0.000000,0.000000,0.000000,0.000000,0.000000,0.152500,0.000000,0.034500,0.152500,-0.310000,0.034500,0.689436,0.174108,0.034500,0.968936,0.174108,0.034500,0.968936,0.278897,0.034500,1.029436
2.2190,0.000000,-0.523599,1.570796,-1.047198,0.000000,0.000000,0.000000,0.000000,0.000000,0.000000,0.000000,0.152500,0.000000,0.034500,0.152500,-0.310000,0.034500,0.689436,0.174108,0.034500,0.968936,0.174108,0.034500,0.968936,0.278897,0.034500,1.029436
2.2200,0.000000,-0.523599,1.570796,-1.047198,0.000000,0.000000,0.000000,0.000000,0.000000,0.000000,0.000000,0.152500,0.000000,0.034500,0.152500,-0.310000,0.034500,0.689436,0.174108,0.034500,0.968936,0.174108,0.034500,0.968936,0.278897,0.034500,1.029436
2.2210,0.000000,-0.523599,1.570796,-1.047198,0.000000,0.000000,0.000000,0.000000,0.000000,0.000000,0.000000,0.152500,0.000000,0.034500,0.152500,-0.310000,0.034500,0.689436,0.174108,0.034500,0.968936,0.174108,0.034500,0.968936,0.278897,0.034500,1.029436
2.2220,0.000000,-0.523599,1.570796,-1.047198,0.000000,0.000000,0.000000,0.000000,0.000000,0.000000,0.000000,0.152500,0.000000,0.034500,0.152500,-0.310000,0.034500,0.689436,0.174108,0.034500,0.968936,0.174108,0.034500,0.968936,0.278897,0.034500,1.029436
2.2230,0.000000,-0.523599,1.570796,-1.047198,0.000000,0.000000,0.000000,0.000000,0.000000,0.000000,0.000000,0.152500,0.000000,0.034500,0.152500,-0.310000,0.034500,0.689436,0.174108,0.034500,0.968936,0.174108,0.034500,0.968936,0.278897,0.034500,1.029436
2.2240,0.000000,-0.523599,1.570796,-1.047198,0.000000,0.000000,0.000000,0.000000,0.000000,0.000000,0.000000,0.152500,0.000000,0.034500,0.152500,-0.310000,0.034500,0.689436,0.174108,0.034500,0.968936,0.174108,0.034500,0.968936,0.278897,0.034500,1.029436
2.2250,0.000000,-0.523599,1.570796,-1.047198,0.000000,0.000000,0.000000,0.000000,0.000000,0.000000,0.000000,0.152500,0.000000,0.034500,0.152500,-0.310000,0.034500,0.689436,0.174108,0.034500,0.968936,0.174108,0.034500,0.968936,0.278897,0.034500,1.029436
2.2260,0.000000,-0.523599,1.570796,-1.047198,0.000000,0.000000,0.000000,0.000000,0.000000,0.000000,0.000000,0.152500,0.000000,0.034500,0.152500,-0.310000,0.034500,0.689436,0.174108,0.034500,0.968936,0.174108,0.034500,0.968936,0.278897,0.034500,1.029436
2.2270,0.000000,-0.523599,1.570796,-1.047198,0.000000,0.000000,0.000000,0.000000,0.000000,0.000000,0.000000,0.152500,0.000000,0.034500,0.152500,-0.310000,0.034500,0.689436,0.174108,0.034500,0.968936,0.174108,0.034500,0.968936,0.278897,0.034500,1.029436
2.2280,0.000000,-0.523599,1.570796,-1.047198,0.000000,0.000000,0.000000,0.000000,0.000000,0.000000,0.000000,0.152500,0.000000,0.034500,0.152500,-0.310000,0.034500,0.689436,0.174108,0.034500,0.968936,0.174108,0.034500,0.968936,0.278897,0.034500,1.029436
2.2290,0.000000,-0.523599,1.570796,-1.047198,0.000000,0.000000,0.000000,0.000000,0.000000,0.000000,0.000000,0.152500,0.000000,0.034500,0.152500,-0.310000,0.034500,0.689436,0.174108,0.034500,0.968936,0.174108,0.034500,0.968936,0.278897,0.034500,1.029436
2.2300,0.000000,-0.523599,1.570796,-1.047198,0.000000,0.000000,0.000000,0.000000,0.000000,0.000000,0.000000,0.152500,0.000000,0.034500,0.152500,-0.310000,0.034500,0.689436,0.174108,0.034500,0.968936,0.174108,0.034500,0.968936,0.278897,0.034500,1.029436
2.2310,0.000000,-0.523599,1.570796,-1.047198,0.000000,0.000000,0.000000,0.000000,0.000000,0.000000,0.000000,0.152500,0.000000,0.034500,0.152500,-0.310000,0.034500,0.689436,0.174108,0.034500,0.968936,0.174108,0.034500,0.968936,0.278897,0.034500,1.029436
2.2320,0.000000,-0.523599,1.570796,-1.047198,0.000000,0.000000,0.000000,0.000000,0.000000,0.000000,0.000000,0.152500,0.000000,0.034500,0.152500,-0.310000,0.034500,0.689436,0.174108,0.034500,0.968936,0.174108,0.034500,0.968936,0.278897,0.034500,1.029436
2.2330,0.000000,-0.523599,1.570796,-1.047198,0.000000,0.000000,0.000000,0.000000,0.000000,0.000000,0.000000,0.152500,0.000000,0.034500,0.152500,-0.310000,0.034500,0.689436,0.174108,0.034500,0.968936,0.174108,0.034500,0.968936,0.278897,0.034500,1.029436
2.2340,0.000000,-0.523599,1.570796,-1.047198,0.000000,0.000000,0.000000,0.000000,0.000000,0.000000,0.000000,0.152500,0.000000,0.034500,0.152500,-0.310000,0.034500,0.689436,0.174108,0.034500,0.968936,0.174108,0.034500,0.968936,0.278897,0.034500,1.029436
2.2350,0.000000,-0.523599,1.570796,-1.047198,0.000000,0.000000,0.000000,0.000000,0.000000,0.000000,0.000000,0.152500,0.000000,0.034500,0.152500,-0.310000,0.034500,0.689436,0.174108,0.034500,0.968936,0.174108,0.034500,0.968936,0.278897,0.034500,1.029436
2.2360,0.000000,-0.523599,1.570796,-1.047198,0.000000,0.000000,0.000000,0.000000,0.000000,0.000000,0.000000,0.152500,0.000000,0.034500,0.152500,-0.310000,0.034500,0.689436,0.174108,0.034500,0.968936,0.174108,0.034500,0.968936,0.278897,0.034500,1.029436
2.2370,0.000000,-0.523599,1.570796,-1.047198,0.000000,0.000000,0.000000,0.000000,0.000000,0.000000,0.000000,0.152500,0.000000,0.034500,0.152500,-0.310000,0.034500,0.689436,0.174108,0.034500,0.968936,0.174108,0.034500,0.968936,0.278897,0.034500,1.029436
2.2380,0.000000,-0.523599,1.570796,-1.047198,0.000000,0.000000,0.000000,0.000000,0.000000,0.000000,0.000000,0.152500,0.000000,0.034500,0.152500,-0.310000,0.034500,0.689436,0.174108,0.034500,0.968936,0.174108,0.034500,0.968936,0.278897,0.034500,1.029436
2.2390,0.000000,-0.523599,1.570796,-1.047198,0.000000,0.000000,0.000000,0.000000,0.000000,0.000000,0.000000,0.152500,0.000000,0.034500,0.152500,-0.310000,0.034500,0.689436,0.174108,0.034500,0.968936,0.174108,0.034500,0.968936,0.278897,0.034500,1.029436
2.2400,0.000000,-0.523599,1.570796,-1.047198,0.000000,0.000000,0.000000,0.000000,0.000000,0.000000,0.000000,0.152500,0.000000,0.034500,0.152500,-0.310000,0.034500,0.689436,0.174108,0.034500,0.968936,0.174108,0.034500,0.968936,0.278897,0.034500,1.029436
2.2410,0.000000,-0.523599,1.570796,-1.047198,0.000000,0.000000,0.000000,0.000000,0.000000,0.000000,0.000000,0.152500,0.000000,0.034500,0.152500,-0.310000,0.034500,0.689436,0.174108,0.034500,0.968936,0.174108,0.034500,0.968936,0.278897,0.034500,1.029436
2.2420,0.000000,-0.523599,1.570796,-1.047198,0.000000,0.000000,0.000000,0.000000,0.000000,0.000000,0.000000,0.152500,0.000000,0.034500,0.152500,-0.310000,0.034500,0.689436,0.174108,0.034500,0.968936,0.174108,0.034500,0.968936,0.278897,0.034500,1.029436
2.2430,0.000000,-0.523599,1.570796,-1.047198,0.000000,0.000000,0.000000,0.000000,0.000000,0.000000,0.000000,0.152500,0.000000,0.034500,0.152500,-0.310000,0.034500,0.689436,0.174108,0.034500,0.968936,0.174108,0.034500,0.968936,0.278897,0.034500,1.029436
2.2440,0.000000,-0.523599,1.570796,-1.047198,0.000000,0.000000,0.000000,0.000000,0.000000,0.000000,0.000000,0.152500,0.000000,0.034500,0.152500,-0.310000,0.034500,0.689436,0.174108,0.034500,0.968936,0.174108,0.034500,0.968936,0.278897,0.034500,1.029436
2.2450,0.000000,-0.523599,1.570796,-1.047198,0.000000,0.000000,0.000000,0.000000,0.000000,0.000000,0.000000,0.152500,0.000000,0.034500,0.152500,-0.310000,0.034500,0.689436,0.174108,0.034500,0.968936,0.174108,0.034500,0.968936,0.278897,0.034500,1.029436
2.2460,0.000000,-0.523599,1.570796,-1.047198,0.000000,0.000000,0.000000,0.000000,0.000000,0.000000,0.000000,0.152500,0.000000,0.034500,0.152500,-0.310000,0.034500,0.689436,0.174108,0.034500,0.968936,0.174108,0.034500,0.968936,0.278897,0.034500,1.029436
2.2470,0.000000,-0.523599,1.570796,-1.047198,0.000000,0.000000,0.000000,0.000000,0.000000,0.000000,0.000000,0.152500,0.000000,0.034500,0.152500,-0.310000,0.034500,0.689436,0.174108,0.034500,0.968936,0.174108,0.034500,0.968936,0.278897,0.034500,1.029436
2.2480,0.000000,-0.523599,1.570796,-1.047198,0.000000,0.000000,0.000000,0.000000,0.000000,0.000000,0.000000,0.152500,0.000000,0.034500,0.152500,-0.310000,0.034500,0.689436,0.174108,0.034500,0.968936,0.174108,0.034500,0.968936,0.278897,0.034500,1.029436
2.2490,0.000000,-0.523599,1.570796,-1.047198,0.000000,0.000000,0.000000,0.000000,0.000000,0.000000,0.000000,0.152500,0.000000,0.034500,0.152500,-0.310000,0.034500,0.689436,0.174108,0.034500,0.968936,0.174108,0.034500,0.968936,0.278897,0.034500,1.029436
2.2500,0.000000,-0.523599,1.570796,-1.047198,0.000000,0.000000,0.000000,0.000000,0.000000,0.000000,0.000000,0.152500,0.000000,0.034500,0.152500,-0.310000,0.034500,0.689436,0.174108,0.034500,0.968936,0.174108,0.034500,0.968936,0.278897,0.034500,1.029436
2.2510,0.000000,-0.523599,1.570796,-1.047198,0.000000,0.000000,0.000000,0.000000,0.000000,0.000000,0.000000,0.152500,0.000000,0.034500,0.152500,-0.310000,0.034500,0.689436,0.174108,0.034500,0.968936,0.174108,0.034500,0.968936,0.278897,0.034500,1.029436
2.2520,0.000000,-0.523599,1.570796,-1.047198,0.000000,0.000000,0.000000,0.000000,0.000000,0.000000,0.000000,0.152500,0.000000,0.034500,0.152500,-0.310000,0.034500,0.689436,0.174108,0.034500,0.968936,0.174108,0.034500,0.968936,0.278897,0.034500,1.029436
2.2530,0.000000,-0.523599,1.570796,-1.047198,0.000000,0.000000,0.000000,0.000000,0.000000,0.000000,0.000000,0.152500,0.000000,0.034500,0.152500,-0.310000,0.034500,0.689436,0.174108,0.034500,0.968936,0.174108,0.034500,0.968936,0.278897,0.034500,1.029436
2.2540,0.000000,-0.523599,1.570796,-1.047198,0.000000,0.000000,0.000000,0.000000,0.000000,0.000000,0.000000,0.152500,0.000000,0.034500,0.152500,-0.310000,0.034500,0.689436,0.174108,0.034500,0.968936,0.174108,0.034500,0.968936,0.278897,0.034500,1.029436
2.2550,0.000000,-0.523599,1.570796,-1.047198,0.000000,0.000000,0.000000,0.000000,0.000000,0.000000,0.000000,0.152500,0.000000,0.034500,0.152500,-0.310000,0.034500,0.689436,0.174108,0.034500,0.968936,0.174108,0.034500,0.968936,0.278897,0.034500,1.029436
2.2560,0.000000,-0.523599,1.570796,-1.047198,0.000000,0.000000,0.000000,0.000000,0.000000,0.000000,0.000000,0.152500,0.000000,0.034500,0.152500,-0.310000,0.034500,0.689436,0.174108,0.034500,0.968936,0.174108,0.034500,0.968936,0.278897,0.034500,1.029436
2.2570,0.000000,-0.523599,1.570796,-1.047198,0.000000,0.000000,0.000000,0.000000,0.000000,0.000000,0.000000,0.152500,0.000000,0.034500,0.152500,-0.310000,0.034500,0.689436,0.174108,0.034500,0.968936,0.174108,0.034500,0.968936,0.278897,0.034500,1.029436
2.2580,0.000000,-0.523599,1.570796,-1.047198,0.000000,0.000000,0.000000,0.000000,0.000000,0.000000,0.000000,0.152500,0.000000,0.034500,0.152500,-0.310000,0.034500,0.689436,0.174108,0.034500,0.968936,0.174108,0.034500,0.968936,0.278897,0.034500,1.029436
2.2590,0.000000,-0.523599,1.570796,-1.047198,0.000000,0.000000,0.000000,0.000000,0.000000,0.000000,0.000000,0.152500,0.000000,0.034500,0.152500,-0.310000,0.034500,0.689436,0.174108,0.034500,0.968936,0.174108,0.034500,0.968936,0.278897,0.034500,1.029436
2.2600,0.000000,-0.523599,1.570796,-1.047198,0.000000,0.000000,0.000000,0.000000,0.000000,0.000000,0.000000,0.152500,0.000000,0.034500,0.152500,-0.310000,0.034500,0.689436,0.174108,0.034500,0.968936,0.174108,0.034500,0.968936,0.278897,0.034500,1.029436
2.2610,0.000000,-0.523599,1.570796,-1.047198,0.000000,0.000000,0.000000,0.000000,0.000000,0.000000,0.000000,0.152500,0.000000,0.034500,0.152500,-0.310000,0.034500,0.689436,0.174108,0.034500,0.968936,0.174108,0.034500,0.968936,0.278897,0.034500,1.029436
2.2620,0.000000,-0.523599,1.570796,-1.047198,0.000000,0.000000,0.000000,0.000000,0.000000,0.000000,0.000000,0.152500,0.000000,0.034500,0.152500,-0.310000,0.034500,0.689436,0.174108,0.034500,0.968936,0.174108,0.034500,0.968936,0.278897,0.034500,1.029436
2.2630,0.000000,-0.523599,1.570796,-1.047198,0.000000,0.000000,0.000000,0.000000,0.000000,0.000000,0.000000,0.152500,0.000000,0.034500,0.152500,-0.310000,0.034500,0.689436,0.174108,0.034500,0.968936,0.174108,0.034500,0.968936,0.278897,0.034500,1.029436
2.2640,0.000000,-0.523599,1.570796,-1.047198,0.000000,0.000000,0.000000,0.000000,0.000000,0.000000,0.000000,0.152500,0.000000,0.034500,0.152500,-0.310000,0.034500,0.689436,0.174108,0.034500,0.968936,0.174108,0.034500,0.968936,0.278897,0.034500,1.029436
2.2650,0.000000,-0.523599,1.570796,-1.047198,0.000000,0.000000,0.000000,0.000000,0.000000,0.000000,0.000000,0.152500,0.000000,0.034500,0.152500,-0.310000,0.034500,0.689436,0.174108,0.034500,0.968936,0.174108,0.034500,0.968936,0.278897,0.034500,1.029436
2.2660,0.000000,-0.523599,1.570796,-1.047198,0.000000,0.000000,0.000000,0.000000,0.000000,0.000000,0.000000,0.152500,0.000000,0.034500,0.152500,-0.310000,0.034500,0.689436,0.174108,0.034500,0.968936,0.174108,0.034500,0.968936,0.278897,0.034500,1.029436
2.2670,0.000000,-0.523599,1.570796,-1.047198,0.000000,0.000000,0.000000,0.000000,0.000000,0.000000,0.000000,0.152500,0.000000,0.034500,0.152500,-0.310000,0.034500,0.689436,0.174108,0.034500,0.968936,0.174108,0.034500,0.968936,0.278897,0.034500,1.029436
2.2680,0.000000,-0.523599,1.570796,-1.047198,0.000000,0.000000,0.000000,0.000000,0.000000,0.000000,0.000000,0.152500,0.000000,0.034500,0.152500,-0.310000,0.034500,0.689436,0.174108,0.034500,0.968936,0.174108,0.034500,0.968936,0.278897,0.034500,1.029436
2.2690,0.000000,-0.523599,1.570796,-1.047198,0.000000,0.000000,0.000000,0.000000,0.000000,0.000000,0.000000,0.152500,0.000000,0.034500,0.152500,-0.310000,0.034500,0.689436,0.174108,0.034500,0.968936,0.174108,0.034500,0.968936,0.278897,0.034500,1.029436
2.2700,0.000000,-0.523599,1.570796,-1.047198,0.000000,0.000000,0.000000,0.000000,0.000000,0.000000,0.000000,0.152500,0.000000,0.034500,0.152500,-0.310000,0.034500,0.689436,0.174108,0.034500,0.968936,0.174108,0.034500,0.968936,0.278897,0.034500,1.029436
2.2710,0.000000,-0.523599,1.570796,-1.047198,0.000000,0.000000,0.000000,0.000000,0.000000,0.000000,0.000000,0.152500,0.000000,0.034500,0.152500,-0.310000,0.034500,0.689436,0.174108,0.034500,0.968936,0.174108,0.034500,0.968936,0.278897,0.034500,1.029436
2.2720,0.000000,-0.523599,1.570796,-1.047198,0.000000,0.000000,0.000000,0.000000,0.000000,0.000000,0.000000,0.152500,0.000000,0.034500,0.152500,-0.310000,0.034500,0.689436,0.174108,0.034500,0.968936,0.174108,0.034500,0.968936,0.278897,0.034500,1.029436
2.2730,0.000000,-0.523599,1.570796,-1.047198,0.000000,0.000000,0.000000,0.000000,0.000000,0.000000,0.000000,0.152500,0.000000,0.034500,0.152500,-0.310000,0.034500,0.689436,0.174108,0.034500,0.968936,0.174108,0.034500,0.968936,0.278897,0.034500,1.029436
2.2740,0.000000,-0.523599,1.570796,-1.047198,0.000000,0.000000,0.000000,0.000000,0.000000,0.000000,0.000000,0.152500,0.000000,0.034500,0.152500,-0.310000,0.034500,0.689436,0.174108,0.034500,0.968936,0.174108,0.034500,0.968936,0.278897,0.034500,1.029436
2.2750,0.000000,-0.523599,1.570796,-1.047198,0.000000,0.000000,0.000000,0.000000,0.000000,0.000000,0.000000,0.152500,0.000000,0.034500,0.152500,-0.310000,0.034500,0.689436,0.174108,0.034500,0.968936,0.174108,0.034500,0.968936,0.278897,0.034500,1.029436
2.2760,0.000000,-0.523599,1.570796,-1.047198,0.000000,0.000000,0.000000,0.000000,0.000000,0.000000,0.000000,0.152500,0.000000,0.034500,0.152500,-0.310000,0.034500,0.689436,0.174108,0.034500,0.968936,0.174108,0.034500,0.968936,0.278897,0.034500,1.029436
2.2770,0.000000,-0.523599,1.570796,-1.047198,0.000000,0.000000,0.000000,0.000000,0.000000,0.000000,0.000000,0.152500,0.000000,0.034500,0.152500,-0.310000,0.034500,0.689436,0.174108,0.034500,0.968936,0.174108,0.034500,0.968936,0.278897,0.034500,1.029436
2.2780,0.000000,-0.523599,1.570796,-1.047198,0.000000,0.000000,0.000000,0.000000,0.000000,0.000000,0.000000,0.152500,0.000000,0.034500,0.152500,-0.310000,0.034500,0.689436,0.174108,0.034500,0.968936,0.174108,0.034500,0.968936,0.278897,0.034500,1.029436
2.2790,0.000000,-0.523599,1.570796,-1.047198,0.000000,0.000000,0.000000,0.000000,0.000000,0.000000,0.000000,0.152500,0.000000,0.034500,0.152500,-0.310000,0.034500,0.689436,0.174108,0.034500,0.968936,0.174108,0.034500,0.968936,0.278897,0.034500,1.029436
2.2800,0.000000,-0.523599,1.570796,-1.047198,0.000000,0.000000,0.000000,0.000000,0.000000,0.000000,0.000000,0.152500,0.000000,0.034500,0.152500,-0.310000,0.034500,0.689436,0.174108,0.034500,0.968936,0.174108,0.034500,0.968936,0.278897,0.034500,1.029436
2.2810,0.000000,-0.523599,1.570796,-1.047198,0.000000,0.000000,0.000000,0.000000,0.000000,0.000000,0.000000,0.152500,0.000000,0.034500,0.152500,-0.310000,0.034500,0.689436,0.174108,0.034500,0.968936,0.174108,0.034500,0.968936,0.278897,0.034500,1.029436
2.2820,0.000000,-0.523599,1.570796,-1.047198,0.000000,0.000000,0.000000,0.000000,0.000000,0.000000,0.000000,0.152500,0.000000,0.034500,0.152500,-0.310000,0.034500,0.689436,0.174108,0.034500,0.968936,0.174108,0.034500,0.968936,0.278897,0.034500,1.029436
2.2830,0.000000,-0.523599,1.570796,-1.047198,0.000000,0.000000,0.000000,0.000000,0.000000,0.000000,0.000000,0.152500,0.000000,0.034500,0.152500,-0.310000,0.034500,0.689436,0.174108,0.034500,0.968936,0.174108,0.034500,0.968936,0.278897,0.034500,1.029436
2.2840,0.000000,-0.523599,1.570796,-1.047198,0.000000,0.000000,0.000000,0.000000,0.000000,0.000000,0.000000,0.152500,0.000000,0.034500,0.152500,-0.310000,0.034500,0.689436,0.174108,0.034500,0.968936,0.174108,0.034500,0.968936,0.278897,0.034500,1.029436
2.2850,0.000000,-0.523599,1.570796,-1.047198,0.000000,0.000000,0.000000,0.000000,0.000000,0.000000,0.000000,0.152500,0.000000,0.034500,0.152500,-0.310000,0.034500,0.689436,0.174108,0.034500,0.968936,0.174108,0.034500,0.968936,0.278897,0.034500,1.029436
2.2860,0.000000,-0.523599,1.570796,-1.047198,0.000000,0.000000,0.000000,0.000000,0.000000,0.000000,0.000000,0.152500,0.000000,0.034500,0.152500,-0.310000,0.034500,0.689436,0.174108,0.034500,0.968936,0.174108,0.034500,0.968936,0.278897,0.034500,1.029436
2.2870,0.000000,-0.523599,1.570796,-1.047198,0.000000,0.000000,0.000000,0.000000,0.000000,0.000000,0.000000,0.152500,0.000000,0.034500,0.152500,-0.310000,0.034500,0.689436,0.174108,0.034500,0.968936,0.174108,0.034500,0.968936,0.278897,0.034500,1.029436
2.2880,0.000000,-0.523599,1.570796,-1.047198,0.000000,0.000000,0.000000,0.000000,0.000000,0.000000,0.000000,0.152500,0.000000,0.034500,0.152500,-0.310000,0.034500,0.689436,0.174108,0.034500,0.968936,0.174108,0.034500,0.968936,0.278897,0.034500,1.029436
2.2890,0.000000,-0.523599,1.570796,-1.047198,0.000000,0.000000,0.000000,0.000000,0.000000,0.000000,0.000000,0.152500,0.000000,0.034500,0.152500,-0.310000,0.034500,0.689436,0.174108,0.034500,0.968936,0.174108,0.034500,0.968936,0.278897,0.034500,1.029436
2.2900,0.000000,-0.523599,1.570796,-1.047198,0.000000,0.000000,0.000000,0.000000,0.000000,0.000000,0.000000,0.152500,0.000000,0.034500,0.152500,-0.310000,0.034500,0.689436,0.174108,0.034500,0.968936,0.174108,0.034500,0.968936,0.278897,0.034500,1.029436
2.2910,0.000000,-0.523599,1.570796,-1.047198,0.000000,0.000000,0.000000,0.000000,0.000000,0.000000,0.000000,0.152500,0.000000,0.034500,0.152500,-0.310000,0.034500,0.689436,0.174108,0.034500,0.968936,0.174108,0.034500,0.968936,0.278897,0.034500,1.029436
2.2920,0.000000,-0.523599,1.570796,-1.047198,0.000000,0.000000,0.000000,0.000000,0.000000,0.000000,0.000000,0.152500,0.000000,0.034500,0.152500,-0.310000,0.034500,0.689436,0.174108,0.034500,0.968936,0.174108,0.034500,0.968936,0.278897,0.034500,1.029436
2.2930,0.000000,-0.523599,1.570796,-1.047198,0.000000,0.000000,0.000000,0.000000,0.000000,0.000000,0.000000,0.152500,0.000000,0.034500,0.152500,-0.310000,0.034500,0.689436,0.174108,0.034500,0.968936,0.174108,0.034500,0.968936,0.278897,0.034500,1.029436
2.2940,0.000000,-0.523599,1.570796,-1.047198,0.000000,0.000000,0.000000,0.000000,0.000000,0.000000,0.000000,0.152500,0.000000,0.034500,0.152500,-0.310000,0.034500,0.689436,0.174108,0.034500,0.968936,0.174108,0.034500,0.968936,0.278897,0.034500,1.029436
2.2950,0.000000,-0.523599,1.570796,-1.047198,0.000000,0.000000,0.000000,0.000000,0.000000,0.000000,0.000000,0.152500,0.000000,0.034500,0.152500,-0.310000,0.034500,0.689436,0.174108,0.034500,0.968936,0.174108,0.034500,0.968936,0.278897,0.034500,1.029436
2.2960,0.000000,-0.523599,1.570796,-1.047198,0.000000,0.000000,0.000000,0.000000,0.000000,0.000000,0.000000,0.152500,0.000000,0.034500,0.152500,-0.310000,0.034500,0.689436,0.174108,0.034500,0.968936,0.174108,0.034500,0.968936,0.278897,0.034500,1.029436
2.2970,0.000000,-0.523599,1.570796,-1.047198,0.000000,0.000000,0.000000,0.000000,0.000000,0.000000,0.000000,0.152500,0.000000,0.034500,0.152500,-0.310000,0.034500,0.689436,0.174108,0.034500,0.968936,0.174108,0.034500,0.968936,0.278897,0.034500,1.029436
2.2980,0.000000,-0.523599,1.570796,-1.047198,0.000000,0.000000,0.000000,0.000000,0.000000,0.000000,0.000000,0.152500,0.000000,0.034500,0.152500,-0.310000,0.034500,0.689436,0.174108,0.034500,0.968936,0.174108,0.034500,0.968936,0.278897,0.034500,1.029436
2.2990,0.000000,-0.523599,1.570796,-1.047198,0.000000,0.000000,0.000000,0.000000,0.000000,0.000000,0.000000,0.152500,0.000000,0.034500,0.152500,-0.310000,0.034500,0.689436,0.174108,0.034500,0.968936,0.174108,0.034500,0.968936,0.278897,0.034500,1.029436
2.3000,0.000000,-0.523599,1.570796,-1.047198,0.000000,0.000000,0.000000,0.000000,0.000000,0.000000,0.000000,0.152500,0.000000,0.034500,0.152500,-0.310000,0.034500,0.689436,0.174108,0.034500,0.968936,0.174108,0.034500,0.968936,0.278897,0.034500,1.029436
2.3010,0.000000,-0.523599,1.570796,-1.047198,0.000000,0.000000,0.000000,0.000000,0.000000,0.000000,0.000000,0.152500,0.000000,0.034500,0.152500,-0.310000,0.034500,0.689436,0.174108,0.034500,0.968936,0.174108,0.034500,0.968936,0.278897,0.034500,1.029436
2.3020,0.000000,-0.523599,1.570796,-1.047198,0.000000,0.000000,0.000000,0.000000,0.000000,0.000000,0.000000,0.152500,0.000000,0.034500,0.152500,-0.310000,0.034500,0.689436,0.174108,0.034500,0.968936,0.174108,0.034500,0.968936,0.278897,0.034500,1.029436
2.3030,0.000000,-0.523599,1.570796,-1.047198,0.000000,0.000000,0.000000,0.000000,0.000000,0.000000,0.000000,0.152500,0.000000,0.034500,0.152500,-0.310000,0.034500,0.689436,0.174108,0.034500,0.968936,0.174108,0.034500,0.968936,0.278897,0.034500,1.029436
2.3040,0.000000,-0.523599,1.570796,-1.047198,0.000000,0.000000,0.000000,0.000000,0.000000,0.000000,0.000000,0.152500,0.000000,0.034500,0.152500,-0.310000,0.034500,0.689436,0.174108,0.034500,0.968936,0.174108,0.034500,0.968936,0.278897,0.034500,1.029436
2.3050,0.000000,-0.523599,1.570796,-1.047198,0.000000,0.000000,0.000000,0.000000,0.000000,0.000000,0.000000,0.152500,0.000000,0.034500,0.152500,-0.310000,0.034500,0.689436,0.174108,0.034500,0.968936,0.174108,0.034500,0.968936,0.278897,0.034500,1.029436
2.3060,0.000000,-0.523599,1.570796,-1.047198,0.000000,0.000000,0.000000,0.000000,0.000000,0.000000,0.000000,0.152500,0.000000,0.034500,0.152500,-0.310000,0.034500,0.689436,0.174108,0.034500,0.968936,0.174108,0.034500,0.968936,0.278897,0.034500,1.029436
2.3070,0.000000,-0.523599,1.570796,-1.047198,0.000000,0.000000,0.000000,0.000000,0.000000,0.000000,0.000000,0.152500,0.000000,0.034500,0.152500,-0.310000,0.034500,0.689436,0.174108,0.034500,0.968936,0.174108,0.034500,0.968936,0.278897,0.034500,1.029436
2.3080,0.000000,-0.523599,1.570796,-1.047198,0.000000,0.000000,0.000000,0.000000,0.000000,0.000000,0.000000,0.152500,0.000000,0.034500,0.152500,-0.310000,0.034500,0.689436,0.174108,0.034500,0.968936,0.174108,0.034500,0.968936,0.278897,0.034500,1.029436
2.3090,0.000000,-0.523599,1.570796,-1.047198,0.000000,0.000000,0.000000,0.000000,0.000000,0.000000,0.000000,0.152500,0.000000,0.034500,0.152500,-0.310000,0.034500,0.689436,0.174108,0.034500,0.968936,0.174108,0.034500,0.968936,0.278897,0.034500,1.029436
2.3100,0.000000,-0.523599,1.570796,-1.047198,0.000000,0.000000,0.000000,0.000000,0.000000,0.000000,0.000000,0.152500,0.000000,0.034500,0.152500,-0.310000,0.034500,0.689436,0.174108,0.034500,0.968936,0.174108,0.034500,0.968936,0.278897,0.034500,1.029436
2.3110,0.000000,-0.523599,1.570796,-1.047198,0.000000,0.000000,0.000000,0.000000,0.000000,0.000000,0.000000,0.152500,0.000000,0.034500,0.152500,-0.310000,0.034500,0.689436,0.174108,0.034500,0.968936,0.174108,0.034500,0.968936,0.278897,0.034500,1.029436
2.3120,0.000000,-0.523599,1.570796,-1.047198,0.000000,0.000000,0.000000,0.000000,0.000000,0.000000,0.000000,0.152500,0.000000,0.034500,0.152500,-0.310000,0.034500,0.689436,0.174108,0.034500,0.968936,0.174108,0.034500,0.968936,0.278897,0.034500,1.029436
2.3130,0.000000,-0.523599,1.570796,-1.047198,0.000000,0.000000,0.000000,0.000000,0.000000,0.000000,0.000000,0.152500,0.000000,0.034500,0.152500,-0.310000,0.034500,0.689436,0.174108,0.034500,0.968936,0.174108,0.034500,0.968936,0.278897,0.034500,1.029436
2.3140,0.000000,-0.523599,1.570796,-1.047198,0.000000,0.000000,0.000000,0.000000,0.000000,0.000000,0.000000,0.152500,0.000000,0.034500,0.152500,-0.310000,0.034500,0.689436,0.174108,0.034500,0.968936,0.174108,0.034500,0.968936,0.278897,0.034500,1.029436
2.3150,0.000000,-0.523599,1.570796,-1.047198,0.000000,0.000000,0.000000,0.000000,0.000000,0.000000,0.000000,0.152500,0.000000,0.034500,0.152500,-0.310000,0.034500,0.689436,0.174108,0.034500,0.968936,0.174108,0.034500,0.968936,0.278897,0.034500,1.029436
2.3160,0.000000,-0.523599,1.570796,-1.047198,0.000000,0.000000,0.000000,0.000000,0.000000,0.000000,0.000000,0.152500,0.000000,0.034500,0.152500,-0.310000,0.034500,0.689436,0.174108,0.034500,0.968936,0.174108,0.034500,0.968936,0.278897,0.034500,1.029436
2.3170,0.000000,-0.523599,1.570796,-1.047198,0.000000,0.000000,0.000000,0.000000,0.000000,0.000000,0.000000,0.152500,0.000000,0.034500,0.152500,-0.310000,0.034500,0.689436,0.174108,0.034500,0.968936,0.174108,0.034500,0.968936,0.278897,0.034500,1.029436
2.3180,0.000000,-0.523599,1.570796,-1.047198,0.000000,0.000000,0.000000,0.000000,0.000000,0.000000,0.000000,0.152500,0.000000,0.034500,0.152500,-0.310000,0.034500,0.689436,0.174108,0.034500,0.968936,0.174108,0.034500,0.968936,0.278897,0.034500,1.029436
2.3190,0.000000,-0.523599,1.570796,-1.047198,0.000000,0.000000,0.000000,0.000000,0.000000,0.000000,0.000000,0.152500,0.000000,0.034500,0.152500,-0.310000,0.034500,0.689436,0.174108,0.034500,0.968936,0.174108,0.034500,0.968936,0.278897,0.034500,1.029436
2.3200,0.000000,-0.523599,1.570796,-1.047198,0.000000,0.000000,0.000000,0.000000,0.000000,0.000000,0.000000,0.152500,0.000000,0.034500,0.152500,-0.310000,0.034500,0.689436,0.174108,0.034500,0.968936,0.174108,0.034500,0.968936,0.278897,0.034500,1.029436
2.3210,0.000000,-0.523599,1.570796,-1.047198,0.000000,0.000000,0.000000,0.000000,0.000000,0.000000,0.000000,0.152500,0.000000,0.034500,0.152500,-0.310000,0.034500,0.689436,0.174108,0.034500,0.968936,0.174108,0.034500,0.968936,0.278897,0.034500,1.029436
2.3220,0.000000,-0.523599,1.570796,-1.047198,0.000000,0.000000,0.000000,0.000000,0.000000,0.000000,0.000000,0.152500,0.000000,0.034500,0.152500,-0.310000,0.034500,0.689436,0.174108,0.034500,0.968936,0.174108,0.034500,0.968936,0.278897,0.034500,1.029436
2.3230,0.000000,-0.523599,1.570796,-1.047198,0.000000,0.000000,0.000000,0.000000,0.000000,0.000000,0.000000,0.152500,0.000000,0.034500,0.152500,-0.310000,0.034500,0.689436,0.174108,0.034500,0.968936,0.174108,0.034500,0.968936,0.278897,0.034500,1.029436
2.3240,0.000000,-0.523599,1.570796,-1.047198,0.000000,0.000000,0.000000,0.000000,0.000000,0.000000,0.000000,0.152500,0.000000,0.034500,0.152500,-0.310000,0.034500,0.689436,0.174108,0.034500,0.968936,0.174108,0.034500,0.968936,0.278897,0.034500,1.029436
2.3250,0.000000,-0.523599,1.570796,-1.047198,0.000000,0.000000,0.000000,0.000000,0.000000,0.000000,0.000000,0.152500,0.000000,0.034500,0.152500,-0.310000,0.034500,0.689436,0.174108,0.034500,0.968936,0.174108,0.034500,0.968936,0.278897,0.034500,1.029436
2.3260,0.000000,-0.523599,1.570796,-1.047198,0.000000,0.000000,0.000000,0.000000,0.000000,0.000000,0.000000,0.152500,0.000000,0.034500,0.152500,-0.310000,0.034500,0.689436,0.174108,0.034500,0.968936,0.174108,0.034500,0.968936,0.278897,0.034500,1.029436
2.3270,0.000000,-0.523599,1.570796,-1.047198,0.000000,0.000000,0.000000,0.000000,0.000000,0.000000,0.000000,0.152500,0.000000,0.034500,0.152500,-0.310000,0.034500,0.689436,0.174108,0.034500,0.968936,0.174108,0.034500,0.968936,0.278897,0.034500,1.029436
2.3280,0.000000,-0.523599,1.570796,-1.047198,0.000000,0.000000,0.000000,0.000000,0.000000,0.000000,0.000000,0.152500,0.000000,0.034500,0.152500,-0.310000,0.034500,0.689436,0.174108,0.034500,0.968936,0.174108,0.034500,0.968936,0.278897,0.034500,1.029436
2.3290,0.000000,-0.523599,1.570796,-1.047198,0.000000,0.000000,0.000000,0.000000,0.000000,0.000000,0.000000,0.152500,0.000000,0.034500,0.152500,-0.310000,0.034500,0.689436,0.174108,0.034500,0.968936,0.174108,0.034500,0.968936,0.278897,0.034500,1.029436
2.3300,0.000000,-0.523599,1.570796,-1.047198,0.000000,0.000000,0.000000,0.000000,0.000000,0.000000,0.000000,0.152500,0.000000,0.034500,0.152500,-0.310000,0.034500,0.689436,0.174108,0.034500,0.968936,0.174108,0.034500,0.968936,0.278897,0.034500,1.029436
2.3310,0.000000,-0.523599,1.570796,-1.047198,0.000000,0.000000,0.000000,0.000000,0.000000,0.000000,0.000000,0.152500,0.000000,0.034500,0.152500,-0.310000,0.034500,0.689436,0.174108,0.034500,0.968936,0.174108,0.034500,0.968936,0.278897,0.034500,1.029436
2.3320,0.000000,-0.523599,1.570796,-1.047198,0.000000,0.000000,0.000000,0.000000,0.000000,0.000000,0.000000,0.152500,0.000000,0.034500,0.152500,-0.310000,0.034500,0.689436,0.174108,0.034500,0.968936,0.174108,0.034500,0.968936,0.278897,0.034500,1.029436
2.3330,0.000000,-0.523599,1.570796,-1.047198,0.000000,0.000000,0.000000,0.000000,0.000000,0.000000,0.000000,0.152500,0.000000,0.034500,0.152500,-0.310000,0.034500,0.689436,0.174108,0.034500,0.968936,0.174108,0.034500,0.968936,0.278897,0.034500,1.029436
2.3340,0.000000,-0.523599,1.570796,-1.047198,0.000000,0.000000,0.000000,0.000000,0.000000,0.000000,0.000000,0.152500,0.000000,0.034500,0.152500,-0.310000,0.034500,0.689436,0.174108,0.034500,0.968936,0.174108,0.034500,0.968936,0.278897,0.034500,1.029436
