GriTRini/uon_rt/demo/simulation_result.csv
Time,J1,J2,J3,J4,J5,J6,TCP_X,TCP_Y,TCP_Z
0.0000,-0.0001,-0.0001,0.0002,0.0001,-0.0002,0.0001,-0.0000,0.0345,1.4525
0.0010,-0.0002,-0.0004,0.0005,0.0001,-0.0007,0.0001,-0.0000,0.0345,1.4525
0.0020,-0.0004,-0.0007,0.0011,0.0002,-0.0014,0.0002,-0.0000,0.0345,1.4525
0.0030,-0.0005,-0.0012,0.0018,0.0002,-0.0023,0.0002,-0.0000,0.0345,1.4525
0.0040,-0.0006,-0.0018,0.0027,0.0003,-0.0034,0.0003,-0.0000,0.0345,1.4525
0.0050,-0.0007,-0.0025,0.0038,0.0003,-0.0047,0.0004,-0.0000,0.0345,1.4525
0.0060,-0.0008,-0.0034,0.0050,0.0004,-0.0063,0.0005,-0.0000,0.0345,1.4525
0.0070,-0.0009,-0.0043,0.0065,0.0004,-0.0081,0.0006,-0.0000,0.0345,1.4525
0.0080,-0.0010,-0.0054,0.0081,0.0004,-0.0101,0.0006,-0.0000,0.0345,1.4525
0.0090,-0.0012,-0.0066,0.0099,0.0004,-0.0124,0.0007,-0.0001,0.0345,1.4525
0.0100,-0.0013,-0.0079,0.0119,0.0004,-0.0149,0.0009,-0.0001,0.0345,1.4525
0.0110,-0.0014,-0.0094,0.0140,0.0004,-0.0176,0.0010,-0.0001,0.0345,1.4525
0.0120,-0.0015,-0.0109,0.0164,0.0004,-0.0205,0.0011,-0.0001,0.0345,1.4525
0.0130,-0.0016,-0.0126,0.0189,0.0004,-0.0236,0.0012,-0.0001,0.0345,1.4525
0.0140,-0.0017,-0.0144,0.0216,0.0004,-0.0270,0.0013,-0.0001,0.0345,1.4525
0.0150,-0.0018,-0.0163,0.0245,0.0004,-0.0306,0.0014,-0.0001,0.0345,1.4525
0.0160,-0.0019,-0.0184,0.0275,0.0004,-0.0344,0.0015,-0.0002,0.0345,1.4525
0.0170,-0.0021,-0.0205,0.0308,0.0004,-0.0385,0.0016,-0.0002,0.0345,1.4525
0.0180,-0.0022,-0.0228,0.0342,0.0004,-0.0428,0.0018,-0.0002,0.0345,1.4525
0.0190,-0.0023,-0.0252,0.0378,0.0004,-0.0473,0.0019,-0.0002,0.0345,1.4525
0.0200,-0.0024,-0.0277,0.0416,0.0004,-0.0520,0.0020,-0.0002,0.0345,1.4525
0.0210,-0.0025,-0.0304,0.0455,0.0004,-0.0569,0.0021,-0.0003,0.0345,1.4525
0.0220,-0.0026,-0.0331,0.0497,0.0004,-0.0621,0.0022,-0.0003,0.0345,1.4525
0.0230,-0.0028,-0.0360,0.0540,0.0004,-0.0675,0.0023,-0.0003,0.0345,1.4525
0.0240,-0.0029,-0.0390,0.0585,0.0004,-0.0731,0.0025,-0.0003,0.0345,1.4525
0.0250,-0.0030,-0.0421,0.0632,0.0004,-0.0790,0.0026,-0.0004,0.0345,1.4525
0.0260,-0.0031,-0.0454,0.0680,0.0004,-0.0850,0.0027,-0.0004,0.0345,1.4525
0.0270,-0.0033,-0.0487,0.0731,0.0004,-0.0913,0.0028,-0.0004,0.0345,1.4525
0.0280,-0.0034,-0.0522,0.0783,0.0004,-0.0979,0.0030,-0.0005,0.0345,1.4525
0.0290,-0.0035,-0.0558,0.0837,0.0004,-0.1046,0.0031,-0.0005,0.0345,1.4525
0.0300,-0.0037,-0.0595,0.0893,0.0004,-0.1116,0.0032,-0.0005,0.0345,1.4525
0.0310,-0.0038,-0.0634,0.0950,0.0004,-0.1188,0.0034,-0.0006,0.0345,1.4525
0.0320,-0.0040,-0.0673,0.1010,0.0005,-0.1262,0.0035,-0.0006,0.0345,1.4525
0.0330,-0.0041,-0.0714,0.1071,0.0005,-0.1339,0.0036,-0.0006,0.0345,1.4525
0.0340,-0.0043,-0.0756,0.1134,0.0005,-0.1417,0.0038,-0.0007,0.0345,1.4525
0.0350,-0.0044,-0.0799,0.1199,0.0005,-0.1498,0.0039,-0.0007,0.0345,1.4525
0.0360,-0.0046,-0.0844,0.1265,0.0005,-0.1582,0.0041,-0.0007,0.0345,1.4525
0.0370,-0.0047,-0.0889,0.1334,0.0005,-0.1667,0.0042,-0.0008,0.0345,1.4525
0.0380,-0.0049,-0.0936,0.1404,0.0005,-0.1755,0.0044,-0.0008,0.0345,1.4525
0.0390,-0.0050,-0.0984,0.1476,0.0005,-0.1845,0.0045,-0.0009,0.0345,1.4525
0.0400,-0.0052,-0.1033,0.1550,0.0005,-0.1937,0.0047,-0.0009,0.0345,1.4525
0.0410,-0.0054,-0.1084,0.1625,0.0005,-0.2032,0.0048,-0.0010,0.0345,1.4525
0.0420,-0.0055,-0.1135,0.1703,0.0006,-0.2128,0.0050,-0.0010,0.0345,1.4525
0.0430,-0.0057,-0.1188,0.1782,0.0006,-0.2227,0.0051,-0.0010,0.0345,1.4525
0.0440,-0.0059,-0.1242,0.1863,0.0006,-0.2329,0.0053,-0.0011,0.0345,1.4525
0.0450,-0.0061,-0.1297,0.1946,0.0006,-0.2432,0.0055,-0.0011,0.0345,1.4525
0.0460,-0.0063,-0.1354,0.2030,0.0006,-0.2538,0.0056,-0.0012,0.0345,1.4525
0.0470,-0.0064,-0.1411,0.2117,0.0007,-0.2646,0.0058,-0.0012,0.0345,1.4525
0.0480,-0.0066,-0.1470,0.2205,0.0007,-0.2756,0.0060,-0.0013,0.0345,1.4525
0.0490,-0.0068,-0.1530,0.2295,0.0007,-0.2869,0.0061,-0.0013,0.0345,1.4525
0.0500,-0.0070,-0.1591,0.2387,0.0007,-0.2983,0.0063,-0.0014,0.0345,1.4525
0.0510,-0.0072,-0.1654,0.2480,0.0007,-0.3100,0.0065,-0.0015,0.0345,1.4525
0.0520,-0.0074,-0.1717,0.2576,0.0008,-0.3220,0.0066,-0.0015,0.0345,1.4525
0.0530,-0.0076,-0.1782,0.2673,0.0008,-0.3341,0.0068,-0.0016,0.0345,1.4525
0.0540,-0.0078,-0.1848,0.2772,0.0008,-0.3465,0.0070,-0.0016,0.0345,1.4525
0.0550,-0.0080,-0.1915,0.2873,0.0008,-0.3591,0.0072,-0.0017,0.0345,1.4525
0.0560,-0.0082,-0.1984,0.2975,0.0009,-0.3719,0.0074,-0.0017,0.0345,1.4525
0.0570,-0.0085,-0.2053,0.3080,0.0009,-0.3850,0.0075,-0.0018,0.0345,1.4525
0.0580,-0.0087,-0.2124,0.3186,0.0009,-0.3978,0.0077,-0.0019,0.0345,1.4525
0.0590,-0.0089,-0.2196,0.3294,0.0010,-0.4104,0.0079,-0.0019,0.0345,1.4525
0.0600,-0.0091,-0.2269,0.3404,0.0010,-0.4228,0.0081,-0.0020,0.0345,1.4525
0.0610,-0.0093,-0.2344,0.3515,0.0011,-0.4350,0.0083,-0.0021,0.0345,1.4525
0.0620,-0.0095,-0.2419,0.3629,0.0011,-0.4472,0.0084,-0.0021,0.0345,1.4525
0.0630,-0.0098,-0.2496,0.3744,0.0011,-0.4594,0.0086,-0.0022,0.0345,1.4525
0.0640,-0.0100,-0.2574,0.3861,0.0012,-0.4717,0.0088,-0.0022,0.0345,1.4525
0.0650,-0.0102,-0.2653,0.3980,0.0012,-0.4839,0.0090,-0.0023,0.0345,1.4525
0.0660,-0.0105,-0.2734,0.4100,0.0013,-0.4962,0.0092,-0.0024,0.0345,1.4525
0.0670,-0.0107,-0.2815,0.4223,0.0013,-0.5085,0.0094,-0.0024,0.0345,1.4525
0.0680,-0.0109,-0.2898,0.4347,0.0013,-0.5208,0.0096,-0.0025,0.0345,1.4525
0.0690,-0.0112,-0.2982,0.4473,0.0014,-0.5331,0.0098,-0.0026,0.0345,1.4525
0.0700,-0.0114,-0.3067,0.4601,0.0014,-0.5454,0.0100,-0.0026,0.0345,1.4525
0.0710,-0.0116,-0.3154,0.4730,0.0015,-0.5577,0.0102,-0.0027,0.0345,1.4525
0.0720,-0.0119,-0.3241,0.4862,0.0015,-0.5700,0.0103,-0.0028,0.0345,1.4525
0.0730,-0.0121,-0.3330,0.4995,0.0016,-0.5822,0.0105,-0.0028,0.0345,1.4525
0.0740,-0.0124,-0.3420,0.5130,0.0016,-0.5945,0.0107,-0.0029,0.0345,1.4525
0.0750,-0.0126,-0.3511,0.5267,0.0017,-0.6067,0.0109,-0.0030,0.0345,1.4525
0.0760,-0.0128,-0.3604,0.5405,0.0017,-0.6189,0.0111,-0.0031,0.0345,1.4525
0.0770,-0.0131,-0.3697,0.5546,0.0018,-0.6309,0.0113,-0.0031,0.0345,1.4525
0.0780,-0.0133,-0.3792,0.5688,0.0018,-0.6427,0.0115,-0.0032,0.0345,1.4525
0.0790,-0.0136,-0.3888,0.5832,0.0019,-0.6542,0.0117,-0.0033,0.0345,1.4525
0.0800,-0.0138,-0.3985,0.5978,0.0019,-0.6655,0.0119,-0.0033,0.0345,1.4525
0.0810,-0.0141,-0.4084,0.6125,0.0020,-0.6766,0.0121,-0.0034,0.0345,1.4525
0.0820,-0.0143,-0.4183,0.6275,0.0021,-0.6876,0.0122,-0.0035,0.0345,1.4525
0.0830,-0.0146,-0.4284,0.6426,0.0021,-0.6987,0.0124,-0.0036,0.0345,1.4525
0.0840,-0.0148,-0.4386,0.6579,0.0022,-0.7097,0.0126,-0.0036,0.0345,1.4525
0.0850,-0.0151,-0.4489,0.6734,0.0022,-0.7208,0.0128,-0.0037,0.0345,1.4525
0.0860,-0.0153,-0.4592,0.6890,0.0023,-0.7318,0.0130,-0.0038,0.0345,1.4525
0.0870,-0.0155,-0.4695,0.7049,0.0024,-0.7429,0.0132,-0.0038,0.0345,1.4525
0.0880,-0.0158,-0.4798,0.7209,0.0024,-0.7539,0.0134,-0.0039,0.0345,1.4525
0.0890,-0.0160,-0.4900,0.7371,0.0025,-0.7649,0.0136,-0.0040,0.0345,1.4525
0.0900,-0.0163,-0.5003,0.7535,0.0025,-0.7759,0.0138,-0.0040,0.0345,1.4525
0.0910,-0.0165,-0.5105,0.7700,0.0026,-0.7868,0.0139,-0.0041,0.0345,1.4525
0.0920,-0.0168,-0.5207,0.7868,0.0026,-0.7978,0.0141,-0.0042,0.0345,1.4525
0.0930,-0.0170,-0.5309,0.8037,0.0027,-0.8087,0.0143,-0.0042,0.0345,1.4525
0.0940,-0.0172,-0.5411,0.8208,0.0028,-0.8196,0.0145,-0.0043,0.0345,1.4525
0.0950,-0.0175,-0.5512,0.8381,0.0028,-0.8304,0.0147,-0.0043,0.0345,1.4525
0.0960,-0.0177,-0.5613,0.8555,0.0029,-0.8413,0.0149,-0.0043,0.0345,1.4525
0.0970,-0.0180,-0.5714,0.8732,0.0029,-0.8521,0.0150,-0.0044,0.0345,1.4525
0.0980,-0.0182,-0.5814,0.8910,0.0030,-0.8628,0.0152,-0.0044,0.0345,1.4525
0.0990,-0.0184,-0.5915,0.9090,0.0030,-0.8736,0.0154,-0.0045,0.0345,1.4525
0.1000,-0.0186,-0.6015,0.9272,0.0031,-0.8843,0.0156,-0.0045,0.0345,1.4525
0.1010,-0.0189,-0.6113,0.9455,0.0031,-0.8947,0.0157,-0.0045,0.0345,1.4524
0.1020,-0.0191,-0.6211,0.9639,0.0032,-0.9050,0.0159,-0.0046,0.0345,1.4524
0.1030,-0.0193,-0.6307,0.9823,0.0032,-0.9150,0.0161,-0.0046,0.0345,1.4524
0.1040,-0.0195,-0.6402,1.0007,0.0033,-0.9248,0.0162,-0.0046,0.0345,1.4524
0.1050,-0.0197,-0.6496,1.0190,0.0034,-0.9344,0.0164,-0.0046,0.0345,1.4524
0.1060,-0.0199,-0.6589,1.0373,0.0034,-0.9438,0.0165,-0.0046,0.0345,1.4524
0.1070,-0.0202,-0.6680,1.0556,0.0035,-0.9532,0.0167,-0.0046,0.0345,1.4524
0.1080,-0.0204,-0.6771,1.0739,0.0035,-0.9626,0.0169,-0.0046,0.0345,1.4524
0.1090,-0.0206,-0.6860,1.0922,0.0036,-0.9720,0.0170,-0.0046,0.0345,1.4524
0.1100,-0.0208,-0.6948,1.1104,0.0036,-0.9814,0.0172,-0.0046,0.0345,1.4524
0.1110,-0.0210,-0.7036,1.1286,0.0036,-0.9907,0.0173,-0.0046,0.0345,1.4524
0.1120,-0.0212,-0.7123,1.1467,0.0037,-1.0001,0.0175,-0.0047,0.0345,1.4524
0.1130,-0.0214,-0.7211,1.1649,0.0037,-1.0094,0.0176,-0.0047,0.0345,1.4524
0.1140,-0.0215,-0.7298,1.1829,0.0038,-1.0187,0.0178,-0.0047,0.0345,1.4524
0.1150,-0.0217,-0.7385,1.2010,0.0038,-1.0279,0.0179,-0.0047,0.0345,1.4524
0.1160,-0.0219,-0.7472,1.2190,0.0039,-1.0372,0.0181,-0.0047,0.0345,1.4524
0.1170,-0.0221,-0.7559,1.2369,0.0039,-1.0464,0.0182,-0.0047,0.0345,1.4524
0.1180,-0.0223,-0.7645,1.2548,0.0039,-1.0556,0.0184,-0.0047,0.0345,1.4524
0.1190,-0.0225,-0.7731,1.2727,0.0040,-1.0648,0.0185,-0.0047,0.0345,1.4524
0.1200,-0.0226,-0.7817,1.2905,0.0040,-1.0740,0.0186,-0.0047,0.0345,1.4524
0.1210,-0.0228,-0.7903,1.3082,0.0040,-1.0831,0.0188,-0.0047,0.0345,1.4524
0.1220,-0.0230,-0.7988,1.3260,0.0041,-1.0922,0.0189,-0.0047,0.0345,1.4524
0.1230,-0.0232,-0.8074,1.3436,0.0041,-1.1013,0.0191,-0.0047,0.0345,1.4524
0.1240,-0.0233,-0.8159,1.3612,0.0041,-1.1103,0.0192,-0.0047,0.0345,1.4524
0.1250,-0.0235,-0.8244,1.3788,0.0042,-1.1193,0.0193,-0.0047,0.0345,1.4524
0.1260,-0.0237,-0.8328,1.3963,0.0042,-1.1283,0.0195,-0.0047,0.0345,1.4524
0.1270,-0.0238,-0.8412,1.4137,0.0042,-1.1373,0.0196,-0.0047,0.0345,1.4524
0.1280,-0.0240,-0.8496,1.4311,0.0043,-1.1462,0.0197,-0.0047,0.0345,1.4524
0.1290,-0.0241,-0.8580,1.4484,0.0043,-1.1551,0.0198,-0.0047,0.0345,1.4524
0.1300,-0.0243,-0.8663,1.4657,0.0043,-1.1640,0.0200,-0.0047,0.0345,1.4524
0.1310,-0.0244,-0.8747,1.4829,0.0043,-1.1728,0.0201,-0.0047,0.0345,1.4524
0.1320,-0.0246,-0.8830,1.5001,0.0044,-1.1817,0.0202,-0.0047,0.0345,1.4524
0.1330,-0.0247,-0.8912,1.5172,0.0044,-1.1904,0.0204,-0.0047,0.0345,1.4524
0.1340,-0.0249,-0.8995,1.5342,0.0044,-1.1992,0.0205,-0.0047,0.0345,1.4524
0.1350,-0.0250,-0.9077,1.5512,0.0044,-1.2079,0.0206,-0.0047,0.0345,1.4524
0.1360,-0.0252,-0.9159,1.5682,0.0045,-1.2166,0.0207,-0.0047,0.0345,1.4524
0.1370,-0.0253,-0.9240,1.5851,0.0045,-1.2253,0.0208,-0.0047,0.0345,1.4524
0.1380,-0.0255,-0.9321,1.6019,0.0045,-1.2339,0.0210,-0.0047,0.0345,1.4524
0.1390,-0.0256,-0.9402,1.6186,0.0045,-1.2425,0.0211,-0.0047,0.0345,1.4524
0.1400,-0.0257,-0.9483,1.6353,0.0045,-1.2511,0.0212,-0.0047,0.0345,1.4524
0.1410,-0.0259,-0.9563,1.6519,0.0046,-1.2594,0.0213,-0.0047,0.0345,1.4524
0.1420,-0.0260,-0.9641,1.6682,0.0046,-1.2676,0.0214,-0.0047,0.0345,1.4524
0.1430,-0.0261,-0.9718,1.6844,0.0046,-1.2755,0.0215,-0.0047,0.0345,1.4524
0.1440,-0.0263,-0.9794,1.7003,0.0046,-1.2831,0.0216,-0.0047,0.0345,1.4524
0.1450,-0.0264,-0.9869,1.7161,0.0047,-1.2906,0.0217,-0.0047,0.0345,1.4524
0.1460,-0.0265,-0.9942,1.7318,0.0047,-1.2979,0.0218,-0.0047,0.0345,1.4524
0.1470,-0.0266,-1.0015,1.7472,0.0047,-1.3052,0.0219,-0.0047,0.0345,1.4524
0.1480,-0.0268,-1.0086,1.7625,0.0047,-1.3125,0.0220,-0.0047,0.0345,1.4523
0.1490,-0.0269,-1.0156,1.7776,0.0048,-1.3197,0.0221,-0.0047,0.0345,1.4523
0.1500,-0.0270,-1.0224,1.7925,0.0048,-1.3270,0.0222,-0.0047,0.0345,1.4523
0.1510,-0.0271,-1.0293,1.8072,0.0048,-1.3343,0.0223,-0.0047,0.0345,1.4523
0.1520,-0.0273,-1.0362,1.8217,0.0048,-1.3415,0.0224,-0.0047,0.0345,1.4523
0.1530,-0.0274,-1.0431,1.8361,0.0048,-1.3487,0.0225,-0.0047,0.0345,1.4523
0.1540,-0.0275,-1.0499,1.8503,0.0049,-1.3559,0.0226,-0.0047,0.0345,1.4523
0.1550,-0.0276,-1.0567,1.8644,0.0049,-1.3631,0.0227,-0.0047,0.0345,1.4523
0.1560,-0.0277,-1.0636,1.8784,0.0049,-1.3703,0.0228,-0.0047,0.0345,1.4523
0.1570,-0.0278,-1.0704,1.8925,0.0049,-1.3775,0.0229,-0.0047,0.0345,1.4523
0.1580,-0.0279,-1.0772,1.9065,0.0049,-1.3847,0.0230,-0.0047,0.0345,1.4523
0.1590,-0.0281,-1.0840,1.9205,0.0049,-1.3918,0.0231,-0.0047,0.0345,1.4523
0.1600,-0.0282,-1.0907,1.9345,0.0050,-1.3990,0.0232,-0.0047,0.0345,1.4523
0.1610,-0.0283,-1.0975,1.9484,0.0050,-1.4061,0.0233,-0.0047,0.0345,1.4523
0.1620,-0.0284,-1.1042,1.9623,0.0050,-1.4132,0.0234,-0.0047,0.0345,1.4523
0.1630,-0.0285,-1.1110,1.9762,0.0050,-1.4203,0.0235,-0.0047,0.0345,1.4523
0.1640,-0.0286,-1.1177,1.9901,0.0050,-1.4274,0.0236,-0.0047,0.0345,1.4523
0.1650,-0.0287,-1.1244,2.0039,0.0050,-1.4344,0.0237,-0.0047,0.0345,1.4523
0.1660,-0.0288,-1.1311,2.0177,0.0050,-1.4415,0.0238,-0.0047,0.0345,1.4523
0.1670,-0.0289,-1.1378,2.0315,0.0051,-1.4485,0.0239,-0.0047,0.0345,1.4523
0.1680,-0.0290,-1.1445,2.0453,0.0051,-1.4556,0.0240,-0.0047,0.0345,1.4523
0.1690,-0.0291,-1.1512,2.0590,0.0051,-1.4626,0.0241,-0.0048,0.0345,1.4523
0.1700,-0.0292,-1.1578,2.0727,0.0051,-1.4696,0.0241,-0.0048,0.0345,1.4523
0.1710,-0.0293,-1.1645,2.0864,0.0051,-1.4766,0.0242,-0.0048,0.0345,1.4523
0.1720,-0.0294,-1.1711,2.1001,0.0051,-1.4835,0.0243,-0.0048,0.0345,1.4523
0.1730,-0.0295,-1.1777,2.1137,0.0051,-1.4905,0.0244,-0.0048,0.0345,1.4523
0.1740,-0.0296,-1.1843,2.1273,0.0051,-1.4974,0.0245,-0.0048,0.0345,1.4523
0.1750,-0.0297,-1.1909,2.1408,0.0052,-1.5044,0.0246,-0.0048,0.0345,1.4523
0.1760,-0.0298,-1.1974,2.1544,0.0052,-1.5113,0.0247,-0.0048,0.0345,1.4523
0.1770,-0.0299,-1.2040,2.1679,0.0052,-1.5182,0.0248,-0.0048,0.0345,1.4523
0.1780,-0.0300,-1.2106,2.1814,0.0052,-1.5251,0.0248,-0.0048,0.0345,1.4523
0.1790,-0.0301,-1.2171,2.1948,0.0052,-1.5319,0.0249,-0.0048,0.0345,1.4523
0.1800,-0.0302,-1.2236,2.2083,0.0052,-1.5388,0.0250,-0.0048,0.0345,1.4523
0.1810,-0.0303,-1.2301,2.2217,0.0052,-1.5456,0.0251,-0.0048,0.0345,1.4523
0.1820,-0.0304,-1.2366,2.2350,0.0052,-1.5524,0.0252,-0.0048,0.0345,1.4523
0.1830,-0.0305,-1.2431,2.2484,0.0052,-1.5592,0.0253,-0.0048,0.0345,1.4523
0.1840,-0.0306,-1.2495,2.2617,0.0053,-1.5660,0.0253,-0.0048,0.0345,1.4523
0.1850,-0.0307,-1.2560,2.2750,0.0053,-1.5728,0.0254,-0.0048,0.0345,1.4523
0.1860,-0.0308,-1.2624,2.2882,0.0053,-1.5796,0.0255,-0.0048,0.0345,1.4523
0.1870,-0.0309,-1.2688,2.3014,0.0053,-1.5863,0.0256,-0.0048,0.0345,1.4523
0.1880,-0.0310,-1.2753,2.3146,0.0053,-1.5931,0.0257,-0.0048,0.0345,1.4522
0.1890,-0.0310,-1.2817,2.3278,0.0053,-1.5998,0.0258,-0.0048,0.0345,1.4522
0.1900,-0.0311,-1.2880,2.3410,0.0053,-1.6065,0.0258,-0.0048,0.0345,1.4522
0.1910,-0.0312,-1.2944,2.3541,0.0053,-1.6132,0.0259,-0.0048,0.0345,1.4522
0.1920,-0.0313,-1.3008,2.3671,0.0053,-1.6198,0.0260,-0.0048,0.0345,1.4522
0.1930,-0.0314,-1.3071,2.3802,0.0053,-1.6265,0.0261,-0.0048,0.0345,1.4522
0.1940,-0.0315,-1.3134,2.3932,0.0053,-1.6331,0.0261,-0.0048,0.0345,1.4522
0.1950,-0.0316,-1.3197,2.4062,0.0053,-1.6398,0.0262,-0.0048,0.0345,1.4522
0.1960,-0.0316,-1.3260,2.4192,0.0053,-1.6464,0.0263,-0.0048,0.0345,1.4522
0.1970,-0.0317,-1.3323,2.4321,0.0054,-1.6530,0.0264,-0.0048,0.0345,1.4522
0.1980,-0.0318,-1.3386,2.4450,0.0054,-1.6595,0.0265,-0.0048,0.0345,1.4522
0.1990,-0.0319,-1.3449,2.4579,0.0054,-1.6661,0.0265,-0.0048,0.0345,1.4522
0.2000,-0.0320,-1.3511,2.4708,0.0054,-1.6727,0.0266,-0.0048,0.0345,1.4522
0.2010,-0.0321,-1.3573,2.4836,0.0054,-1.6792,0.0267,-0.0048,0.0345,1.4522
0.2020,-0.0321,-1.3635,2.4964,0.0054,-1.6857,0.0268,-0.0049,0.0345,1.4522
0.2030,-0.0322,-1.3698,2.5091,0.0054,-1.6922,0.0268,-0.0049,0.0345,1.4522
0.2040,-0.0323,-1.3759,2.5219,0.0054,-1.6987,0.0269,-0.0049,0.0345,1.4522
0.2050,-0.0324,-1.3821,2.5346,0.0054,-1.7052,0.0270,-0.0049,0.0345,1.4522
0.2060,-0.0324,-1.3883,2.5473,0.0054,-1.7116,0.0270,-0.0049,0.0345,1.4522
0.2070,-0.0325,-1.3944,2.5599,0.0054,-1.7181,0.0271,-0.0049,0.0345,1.4522
0.2080,-0.0326,-1.4006,2.5725,0.0054,-1.7245,0.0272,-0.0049,0.0345,1.4522
0.2090,-0.0327,-1.4067,2.5851,0.0054,-1.7309,0.0273,-0.0049,0.0345,1.4522
0.2100,-0.0328,-1.4128,2.5977,0.0054,-1.7373,0.0273,-0.0049,0.0345,1.4522
0.2110,-0.0328,-1.4189,2.6102,0.0054,-1.7437,0.0274,-0.0049,0.0345,1.4522
0.2120,-0.0329,-1.4250,2.6227,0.0054,-1.7501,0.0275,-0.0049,0.0345,1.4522
0.2130,-0.0330,-1.4310,2.6352,0.0054,-1.7565,0.0275,-0.0049,0.0345,1.4522
0.2140,-0.0331,-1.4371,2.6477,0.0054,-1.7628,0.0276,-0.0049,0.0345,1.4522
0.2150,-0.0331,-1.4431,2.6601,0.0054,-1.7691,0.0277,-0.0049,0.0345,1.4522
0.2160,-0.0332,-1.4492,2.6725,0.0054,-1.7754,0.0278,-0.0049,0.0345,1.4522
0.2170,-0.0333,-1.4552,2.6849,0.0055,-1.7817,0.0278,-0.0049,0.0345,1.4522
0.2180,-0.0333,-1.4612,2.6972,0.0055,-1.7880,0.0279,-0.0049,0.0345,1.4522
0.2190,-0.0334,-1.4672,2.7095,0.0055,-1.7943,0.0280,-0.0049,0.0345,1.4522
0.2200,-0.0335,-1.4732,2.7218,0.0055,-1.8005,0.0280,-0.0049,0.0345,1.4522
0.2210,-0.0336,-1.4791,2.7341,0.0055,-1.8068,0.0281,-0.0049,0.0345,1.4522
0.2220,-0.0336,-1.4851,2.7463,0.0055,-1.8130,0.0282,-0.0049,0.0345,1.4522
0.2230,-0.0337,-1.4910,2.7585,0.0055,-1.8192,0.0282,-0.0049,0.0345,1.4521
0.2240,-0.0338,-1.4969,2.7707,0.0055,-1.8254,0.0283,-0.0049,0.0345,1.4521
0.2250,-0.0338,-1.5029,2.7828,0.0055,-1.8316,0.0284,-0.0049,0.0345,1.4521
0.2260,-0.0339,-1.5088,2.7950,0.0055,-1.8378,0.0284,-0.0049,0.0345,1.4521
0.2270,-0.0340,-1.5146,2.8071,0.0055,-1.8439,0.0285,-0.0049,0.0345,1.4521
0.2280,-0.0340,-1.5205,2.8191,0.0055,-1.8501,0.0286,-0.0049,0.0345,1.4521
0.2290,-0.0341,-1.5264,2.8312,0.0055,-1.8562,0.0286,-0.0049,0.0345,1.4521
0.2300,-0.0342,-1.5322,2.8432,0.0055,-1.8623,0.0287,-0.0049,0.0345,1.4521
0.2310,-0.0342,-1.5381,2.8552,0.0055,-1.8684,0.0287,-0.0049,0.0345,1.4521
0.2320,-0.0343,-1.5439,2.8671,0.0055,-1.8745,0.0288,-0.0049,0.0345,1.4521
0.2330,-0.0344,-1.5497,2.8791,0.0055,-1.8806,0.0289,-0.0049,0.0345,1.4521
0.2340,-0.0344,-1.5555,2.8910,0.0055,-1.8866,0.0289,-0.0049,0.0345,1.4521
0.2350,-0.0345,-1.5613,2.9029,0.0055,-1.8927,0.0290,-0.0049,0.0345,1.4521
0.2360,-0.0346,-1.5671,2.9147,0.0055,-1.8987,0.0291,-0.0050,0.0345,1.4521
0.2370,-0.0346,-1.5728,2.9266,0.0055,-1.9047,0.0291,-0.0050,0.0345,1.4521
0.2380,-0.0347,-1.5786,2.9384,0.0055,-1.9107,0.0292,-0.0050,0.0345,1.4521
0.2390,-0.0347,-1.5843,2.9501,0.0055,-1.9167,0.0292,-0.0050,0.0345,1.4521
0.2400,-0.0348,-1.5900,2.9619,0.0055,-1.9227,0.0293,-0.0050,0.0345,1.4521
0.2410,-0.0349,-1.5957,2.9736,0.0055,-1.9286,0.0294,-0.0050,0.0345,1.4521
0.2420,-0.0349,-1.6014,2.9853,0.0055,-1.9346,0.0294,-0.0050,0.0345,1.4521
0.2430,-0.0350,-1.6071,2.9970,0.0055,-1.9405,0.0295,-0.0050,0.0345,1.4521
0.2440,-0.0350,-1.6128,3.0087,0.0055,-1.9464,0.0295,-0.0050,0.0345,1.4521
0.2450,-0.0351,-1.6185,3.0203,0.0055,-1.9523,0.0296,-0.0050,0.0345,1.4521
0.2460,-0.0352,-1.6241,3.0319,0.0055,-1.9582,0.0297,-0.0050,0.0345,1.4521
0.2470,-0.0352,-1.6298,3.0435,0.0055,-1.9641,0.0297,-0.0050,0.0345,1.4521
0.2480,-0.0353,-1.6354,3.0550,0.0055,-1.9700,0.0298,-0.0050,0.0345,1.4521
0.2490,-0.0353,-1.6410,3.0666,0.0055,-1.9758,0.0298,-0.0050,0.0345,1.4521
0.2500,-0.0354,-1.6466,3.0781,0.0055,-1.9817,0.0299,-0.0050,0.0345,1.4521
0.2510,-0.0355,-1.6522,3.0895,0.0055,-1.9875,0.0299,-0.0050,0.0345,1.4521
0.2520,-0.0355,-1.6578,3.1010,0.0055,-1.9933,0.0300,-0.0050,0.0345,1.4521
0.2530,-0.0356,-1.6634,3.1124,0.0055,-1.9991,0.0301,-0.0050,0.0345,1.4521
0.2540,-0.0356,-1.6689,3.1238,0.0055,-2.0049,0.0301,-0.0050,0.0345,1.4521
0.2550,-0.0357,-1.6745,3.1352,0.0055,-2.0107,0.0302,-0.0050,0.0345,1.4520
0.2560,-0.0357,-1.6800,3.1466,0.0055,-2.0165,0.0302,-0.0050,0.0345,1.4520
0.2570,-0.0358,-1.6855,3.1579,0.0055,-2.0222,0.0303,-0.0050,0.0345,1.4520
0.2580,-0.0359,-1.6910,3.1692,0.0055,-2.0280,0.0303,-0.0050,0.0345,1.4520
0.2590,-0.0359,-1.6965,3.1805,0.0055,-2.0337,0.0304,-0.0050,0.0345,1.4520
0.2600,-0.0360,-1.7020,3.1918,0.0055,-2.0394,0.0304,-0.0050,0.0345,1.4520
0.2610,-0.0360,-1.7075,3.2030,0.0055,-2.0451,0.0305,-0.0050,0.0345,1.4520
0.2620,-0.0361,-1.7130,3.2142,0.0055,-2.0508,0.0306,-0.0050,0.0345,1.4520
0.2630,-0.0361,-1.7184,3.2254,0.0055,-2.0565,0.0306,-0.0050,0.0345,1.4520
0.2640,-0.0362,-1.7239,3.2366,0.0055,-2.0622,0.0307,-0.0050,0.0345,1.4520
0.2650,-0.0362,-1.7293,3.2477,0.0055,-2.0678,0.0307,-0.0050,0.0345,1.4520
0.2660,-0.0363,-1.7347,3.2588,0.0055,-2.0735,0.0308,-0.0050,0.0345,1.4520
0.2670,-0.0363,-1.7402,3.2699,0.0055,-2.0791,0.0308,-0.0050,0.0345,1.4520
0.2680,-0.0364,-1.7456,3.2810,0.0055,-2.0847,0.0309,-0.0050,0.0345,1.4520
0.2690,-0.0364,-1.7509,3.2921,0.0055,-2.0903,0.0309,-0.0050,0.0345,1.4520
0.2700,-0.0365,-1.7563,3.3031,0.0055,-2.0959,0.0310,-0.0051,0.0345,1.4520
0.2710,-0.0365,-1.7617,3.3141,0.0055,-2.1015,0.0310,-0.0051,0.0345,1.4520
0.2720,-0.0366,-1.7671,3.3251,0.0055,-2.1071,0.0311,-0.0051,0.0345,1.4520
0.2730,-0.0366,-1.7724,3.3360,0.0055,-2.1126,0.0311,-0.0051,0.0345,1.4520
0.2740,-0.0367,-1.7777,3.3470,0.0055,-2.1182,0.0312,-0.0051,0.0345,1.4520
0.2750,-0.0367,-1.7831,3.3579,0.0055,-2.1237,0.0312,-0.0051,0.0345,1.4520
0.2760,-0.0368,-1.7883,3.3686,0.0055,-2.1290,0.0313,-0.0051,0.0345,1.4520
0.2770,-0.0368,-1.7934,3.3792,0.0055,-2.1341,0.0313,-0.0051,0.0345,1.4520
0.2780,-0.0369,-1.7983,3.3896,0.0055,-2.1390,0.0314,-0.0051,0.0345,1.4520
0.2790,-0.0369,-1.8032,3.3998,0.0055,-2.1436,0.0314,-0.0051,0.0345,1.4520
0.2800,-0.0370,-1.8079,3.4098,0.0055,-2.1480,0.0314,-0.0051,0.0345,1.4520
0.2810,-0.0370,-1.8125,3.4196,0.0055,-2.1525,0.0315,-0.0051,0.0345,1.4520
0.2820,-0.0371,-1.8170,3.4293,0.0055,-2.1569,0.0315,-0.0051,0.0345,1.4520
0.2830,-0.0371,-1.8214,3.4388,0.0056,-2.1614,0.0316,-0.0051,0.0345,1.4520
0.2840,-0.0372,-1.8257,3.4481,0.0056,-2.1658,0.0316,-0.0051,0.0345,1.4520
0.2850,-0.0372,-1.8300,3.4572,0.0056,-2.1703,0.0317,-0.0051,0.0345,1.4520
0.2860,-0.0373,-1.8344,3.4661,0.0056,-2.1747,0.0317,-0.0051,0.0345,1.4520
0.2870,-0.0373,-1.8387,3.4749,0.0056,-2.1791,0.0317,-0.0051,0.0345,1.4519
0.2880,-0.0373,-1.8430,3.4837,0.0056,-2.1836,0.0318,-0.0051,0.0345,1.4519
0.2890,-0.0374,-1.8473,3.4925,0.0056,-2.1880,0.0318,-0.0051,0.0345,1.4519
0.2900,-0.0374,-1.8517,3.5013,0.0056,-2.1924,0.0319,-0.0051,0.0345,1.4519
0.2910,-0.0375,-1.8560,3.5101,0.0056,-2.1968,0.0319,-0.0051,0.0345,1.4519
0.2920,-0.0375,-1.8603,3.5189,0.0056,-2.2012,0.0320,-0.0051,0.0345,1.4519
0.2930,-0.0376,-1.8646,3.5276,0.0056,-2.2056,0.0320,-0.0051,0.0345,1.4519
0.2940,-0.0376,-1.8689,3.5364,0.0056,-2.2100,0.0320,-0.0051,0.0345,1.4519
0.2950,-0.0377,-1.8732,3.5451,0.0056,-2.2144,0.0321,-0.0051,0.0345,1.4519
0.2960,-0.0377,-1.8775,3.5539,0.0056,-2.2188,0.0321,-0.0051,0.0345,1.4519
0.2970,-0.0377,-1.8818,3.5626,0.0056,-2.2232,0.0322,-0.0051,0.0345,1.4519
0.2980,-0.0378,-1.8861,3.5713,0.0056,-2.2276,0.0322,-0.0051,0.0345,1.4519
0.2990,-0.0378,-1.8903,3.5800,0.0056,-2.2319,0.0322,-0.0051,0.0345,1.4519
0.3000,-0.0379,-1.8946,3.5887,0.0056,-2.2363,0.0323,-0.0051,0.0345,1.4519
0.3010,-0.0379,-1.8989,3.5974,0.0056,-2.2407,0.0323,-0.0051,0.0345,1.4519
0.3020,-0.0380,-1.9032,3.6061,0.0056,-2.2450,0.0324,-0.0051,0.0345,1.4519
0.3030,-0.0380,-1.9074,3.6148,0.0056,-2.2494,0.0324,-0.0051,0.0345,1.4519
0.3040,-0.0380,-1.9117,3.6235,0.0056,-2.2537,0.0324,-0.0051,0.0345,1.4519
0.3050,-0.0381,-1.9159,3.6321,0.0056,-2.2581,0.0325,-0.0051,0.0345,1.4519
0.3060,-0.0381,-1.9202,3.6408,0.0056,-2.2624,0.0325,-0.0051,0.0345,1.4519
0.3070,-0.0382,-1.9245,3.6494,0.0056,-2.2668,0.0326,-0.0051,0.0345,1.4519
0.3080,-0.0382,-1.9287,3.6581,0.0056,-2.2711,0.0326,-0.0051,0.0345,1.4519
0.3090,-0.0383,-1.9329,3.6667,0.0056,-2.2755,0.0326,-0.0051,0.0345,1.4519
0.3100,-0.0383,-1.9372,3.6753,0.0056,-2.2798,0.0327,-0.0051,0.0345,1.4519
0.3110,-0.0383,-1.9414,3.6839,0.0056,-2.2841,0.0327,-0.0051,0.0345,1.4519
0.3120,-0.0384,-1.9456,3.6925,0.0056,-2.2884,0.0328,-0.0051,0.0345,1.4519
0.3130,-0.0384,-1.9499,3.7011,0.0056,-2.2928,0.0328,-0.0051,0.0345,1.4519
0.3140,-0.0385,-1.9541,3.7097,0.0056,-2.2971,0.0328,-0.0051,0.0345,1.4519
0.3150,-0.0385,-1.9583,3.7183,0.0056,-2.3014,0.0329,-0.0051,0.0345,1.4519
0.3160,-0.0385,-1.9625,3.7269,0.0056,-2.3057,0.0329,-0.0051,0.0345,1.4519
0.3170,-0.0386,-1.9667,3.7354,0.0056,-2.3100,0.0330,-0.0051,0.0345,1.4519
0.3180,-0.0386,-1.9710,3.7440,0.0056,-2.3143,0.0330,-0.0051,0.0345,1.4519
0.3190,-0.0387,-1.9752,3.7526,0.0056,-2.3186,0.0330,-0.0052,0.0345,1.4519
0.3200,-0.0387,-1.9794,3.7611,0.0056,-2.3228,0.0331,-0.0052,0.0345,1.4519
0.3210,-0.0387,-1.9836,3.7696,0.0056,-2.3271,0.0331,-0.0052,0.0345,1.4519
0.3220,-0.0388,-1.9877,3.7782,0.0056,-2.3314,0.0332,-0.0052,0.0345,1.4518
0.3230,-0.0388,-1.9919,3.7867,0.0056,-2.3357,0.0332,-0.0052,0.0345,1.4518
0.3240,-0.0389,-1.9961,3.7952,0.0056,-2.3399,0.0332,-0.0052,0.0345,1.4518
0.3250,-0.0389,-2.0003,3.8037,0.0056,-2.3442,0.0333,-0.0052,0.0345,1.4518
0.3260,-0.0389,-2.0045,3.8122,0.0056,-2.3485,0.0333,-0.0052,0.0345,1.4518
0.3270,-0.0390,-2.0086,3.8206,0.0056,-2.3527,0.0333,-0.0052,0.0345,1.4518
0.3280,-0.0390,-2.0128,3.8291,0.0056,-2.3570,0.0334,-0.0052,0.0345,1.4518
0.3290,-0.0391,-2.0170,3.8376,0.0056,-2.3612,0.0334,-0.0052,0.0345,1.4518
0.3300,-0.0391,-2.0211,3.8460,0.0056,-2.3655,0.0335,-0.0052,0.0345,1.4518
0.3310,-0.0391,-2.0253,3.8545,0.0056,-2.3697,0.0335,-0.0052,0.0345,1.4518
0.3320,-0.0392,-2.0294,3.8629,0.0056,-2.3739,0.0335,-0.0052,0.0345,1.4518
0.3330,-0.0392,-2.0336,3.8714,0.0057,-2.3782,0.0336,-0.0052,0.0345,1.4518
0.3340,-0.0393,-2.0377,3.8798,0.0057,-2.3824,0.0336,-0.0052,0.0345,1.4518
0.3350,-0.0393,-2.0419,3.8882,0.0057,-2.3866,0.0336,-0.0052,0.0345,1.4518
0.3360,-0.0393,-2.0460,3.8966,0.0057,-2.3908,0.0337,-0.0052,0.0345,1.4518
0.3370,-0.0394,-2.0502,3.9050,0.0057,-2.3950,0.0337,-0.0052,0.0345,1.4518
0.3380,-0.0394,-2.0543,3.9134,0.0057,-2.3993,0.0338,-0.0052,0.0345,1.4518
0.3390,-0.0394,-2.0584,3.9218,0.0057,-2.4035,0.0338,-0.0052,0.0345,1.4518
0.3400,-0.0395,-2.0625,3.9302,0.0057,-2.4077,0.0338,-0.0052,0.0345,1.4518
0.3410,-0.0395,-2.0666,3.9385,0.0057,-2.4119,0.0339,-0.0052,0.0345,1.4518
0.3420,-0.0396,-2.0708,3.9469,0.0057,-2.4160,0.0339,-0.0052,0.0345,1.4518
0.3430,-0.0396,-2.0749,3.9552,0.0057,-2.4202,0.0339,-0.0052,0.0345,1.4518
0.3440,-0.0396,-2.0790,3.9636,0.0057,-2.4244,0.0340,-0.0052,0.0345,1.4518
0.3450,-0.0397,-2.0831,3.9719,0.0057,-2.4286,0.0340,-0.0052,0.0345,1.4518
0.3460,-0.0397,-2.0872,3.9802,0.0057,-2.4328,0.0341,-0.0052,0.0345,1.4518
0.3470,-0.0397,-2.0913,3.9886,0.0057,-2.4369,0.0341,-0.0052,0.0345,1.4518
0.3480,-0.0398,-2.0954,3.9969,0.0057,-2.4411,0.0341,-0.0052,0.0345,1.4518
0.3490,-0.0398,-2.0994,4.0052,0.0057,-2.4453,0.0342,-0.0052,0.0345,1.4518
0.3500,-0.0399,-2.1035,4.0135,0.0057,-2.4494,0.0342,-0.0052,0.0345,1.4518
0.3510,-0.0399,-2.1076,4.0218,0.0057,-2.4536,0.0342,-0.0052,0.0345,1.4518
0.3520,-0.0399,-2.1117,4.0300,0.0057,-2.4577,0.0343,-0.0052,0.0345,1.4518
0.3530,-0.0400,-2.1158,4.0383,0.0057,-2.4619,0.0343,-0.0053,0.0345,1.4518
0.3540,-0.0400,-2.1198,4.0466,0.0057,-2.4660,0.0343,-0.0053,0.0345,1.4518
0.3550,-0.0400,-2.1239,4.0548,0.0057,-2.4701,0.0344,-0.0053,0.0345,1.4518
0.3560,-0.0401,-2.1279,4.0631,0.0057,-2.4743,0.0344,-0.0053,0.0345,1.4517
0.3570,-0.0401,-2.1320,4.0713,0.0057,-2.4784,0.0344,-0.0053,0.0345,1.4517
0.3580,-0.0401,-2.1360,4.0795,0.0057,-2.4825,0.0345,-0.0053,0.0345,1.4517
0.3590,-0.0402,-2.1401,4.0877,0.0057,-2.4866,0.0345,-0.0053,0.0345,1.4517
0.3600,-0.0402,-2.1441,4.0960,0.0057,-2.4907,0.0346,-0.0053,0.0345,1.4517
0.3610,-0.0402,-2.1482,4.1042,0.0057,-2.4948,0.0346,-0.0053,0.0345,1.4517
0.3620,-0.0403,-2.1522,4.1123,0.0057,-2.4990,0.0346,-0.0053,0.0345,1.4517
0.3630,-0.0403,-2.1562,4.1205,0.0057,-2.5031,0.0347,-0.0053,0.0345,1.4517
0.3640,-0.0404,-2.1603,4.1287,0.0057,-2.5072,0.0347,-0.0053,0.0345,1.4517
0.3650,-0.0404,-2.1643,4.1369,0.0057,-2.5112,0.0347,-0.0053,0.0345,1.4517
0.3660,-0.0404,-2.1683,4.1450,0.0057,-2.5153,0.0348,-0.0053,0.0345,1.4517
0.3670,-0.0405,-2.1723,4.1532,0.0057,-2.5194,0.0348,-0.0053,0.0345,1.4517
0.3680,-0.0405,-2.1764,4.1614,0.0057,-2.5235,0.0348,-0.0053,0.0345,1.4517
0.3690,-0.0405,-2.1804,4.1695,0.0057,-2.5276,0.0349,-0.0053,0.0345,1.4517
0.3700,-0.0406,-2.1844,4.1776,0.0057,-2.5316,0.0349,-0.0053,0.0345,1.4517
0.3710,-0.0406,-2.1884,4.1857,0.0057,-2.5357,0.0349,-0.0053,0.0345,1.4517
0.3720,-0.0406,-2.1924,4.1939,0.0057,-2.5398,0.0350,-0.0053,0.0345,1.4517
0.3730,-0.0407,-2.1964,4.2020,0.0057,-2.5438,0.0350,-0.0053,0.0345,1.4517
0.3740,-0.0407,-2.2003,4.2101,0.0057,-2.5479,0.0350,-0.0053,0.0345,1.4517
0.3750,-0.0407,-2.2043,4.2182,0.0057,-2.5519,0.0351,-0.0053,0.0345,1.4517
0.3760,-0.0408,-2.2083,4.2262,0.0057,-2.5560,0.0351,-0.0053,0.0345,1.4517
0.3770,-0.0408,-2.2123,4.2343,0.0057,-2.5600,0.0351,-0.0053,0.0345,1.4517
0.3780,-0.0408,-2.2163,4.2424,0.0057,-2.5641,0.0352,-0.0053,0.0345,1.4517
0.3790,-0.0409,-2.2202,4.2504,0.0057,-2.5681,0.0352,-0.0053,0.0345,1.4517
0.3800,-0.0409,-2.2242,4.2585,0.0057,-2.5721,0.0352,-0.0053,0.0345,1.4517
0.3810,-0.0409,-2.2282,4.2665,0.0057,-2.5761,0.0353,-0.0053,0.0345,1.4517
0.3820,-0.0410,-2.2321,4.2746,0.0057,-2.5802,0.0353,-0.0053,0.0345,1.4517
0.3830,-0.0410,-2.2361,4.2826,0.0057,-2.5842,0.0353,-0.0053,0.0345,1.4517
0.3840,-0.0410,-2.2400,4.2906,0.0057,-2.5882,0.0354,-0.0053,0.0345,1.4517
0.3850,-0.0411,-2.2440,4.2986,0.0057,-2.5922,0.0354,-0.0053,0.0345,1.4517
0.3860,-0.0411,-2.2479,4.3066,0.0057,-2.5962,0.0354,-0.0053,0.0345,1.4517
0.3870,-0.0411,-2.2519,4.3146,0.0057,-2.6002,0.0355,-0.0054,0.0345,1.4517
0.3880,-0.0412,-2.2558,4.3226,0.0057,-2.6042,0.0355,-0.0054,0.0345,1.4517
0.3890,-0.0412,-2.2597,4.3306,0.0057,-2.6082,0.0355,-0.0054,0.0345,1.4516
0.3900,-0.0412,-2.2637,4.3386,0.0057,-2.6122,0.0356,-0.0054,0.0345,1.4516
0.3910,-0.0413,-2.2676,4.3465,0.0057,-2.6162,0.0356,-0.0054,0.0345,1.4516
0.3920,-0.0413,-2.2715,4.3545,0.0057,-2.6201,0.0356,-0.0054,0.0345,1.4516
0.3930,-0.0413,-2.2754,4.3624,0.0057,-2.6241,0.0357,-0.0054,0.0345,1.4516
0.3940,-0.0413,-2.2794,4.3704,0.0057,-2.6281,0.0357,-0.0054,0.0345,1.4516
0.3950,-0.0414,-2.2833,4.3783,0.0057,-2.6321,0.0357,-0.0054,0.0345,1.4516
0.3960,-0.0414,-2.2872,4.3862,0.0057,-2.6360,0.0358,-0.0054,0.0345,1.4516
0.3970,-0.0414,-2.2911,4.3941,0.0057,-2.6400,0.0358,-0.0054,0.0345,1.4516
0.3980,-0.0415,-2.2950,4.4020,0.0057,-2.6439,0.0358,-0.0054,0.0345,1.4516
0.3990,-0.0415,-2.2989,4.4099,0.0057,-2.6479,0.0359,-0.0054,0.0345,1.4516
0.4000,-0.0415,-2.3028,4.4178,0.0057,-2.6518,0.0359,-0.0054,0.0345,1.4516
0.4010,-0.0416,-2.3067,4.4257,0.0057,-2.6558,0.0359,-0.0054,0.0345,1.4516
0.4020,-0.0416,-2.3105,4.4336,0.0057,-2.6597,0.0359,-0.0054,0.0345,1.4516
0.4030,-0.0416,-2.3144,4.4415,0.0057,-2.6636,0.0360,-0.0054,0.0345,1.4516
0.4040,-0.0417,-2.3183,4.4493,0.0057,-2.6676,0.0360,-0.0054,0.0345,1.4516
0.4050,-0.0417,-2.3222,4.4572,0.0057,-2.6715,0.0360,-0.0054,0.0345,1.4516
0.4060,-0.0417,-2.3261,4.4650,0.0057,-2.6754,0.0361,-0.0054,0.0345,1.4516
0.4070,-0.0418,-2.3299,4.4729,0.0057,-2.6793,0.0361,-0.0054,0.0345,1.4516
0.4080,-0.0418,-2.3338,4.4807,0.0057,-2.6833,0.0361,-0.0054,0.0345,1.4516
0.4090,-0.0418,-2.3376,4.4885,0.0057,-2.6872,0.0362,-0.0054,0.0345,1.4516
0.4100,-0.0418,-2.3415,4.4964,0.0057,-2.6911,0.0362,-0.0054,0.0345,1.4516
0.4110,-0.0419,-2.3454,4.5042,0.0057,-2.6950,0.0362,-0.0054,0.0345,1.4516
0.4120,-0.0419,-2.3492,4.5120,0.0057,-2.6989,0.0363,-0.0054,0.0345,1.4516
0.4130,-0.0419,-2.3530,4.5198,0.0057,-2.7028,0.0363,-0.0054,0.0345,1.4516
0.4140,-0.0420,-2.3569,4.5275,0.0057,-2.7067,0.0363,-0.0054,0.0345,1.4516
0.4150,-0.0420,-2.3607,4.5353,0.0057,-2.7105,0.0364,-0.0054,0.0345,1.4516
0.4160,-0.0420,-2.3646,4.5431,0.0057,-2.7144,0.0364,-0.0054,0.0345,1.4516
0.4170,-0.0421,-2.3684,4.5509,0.0056,-2.7183,0.0364,-0.0054,0.0345,1.4516
0.4180,-0.0421,-2.3722,4.5586,0.0056,-2.7222,0.0364,-0.0054,0.0345,1.4516
0.4190,-0.0421,-2.3760,4.5664,0.0056,-2.7261,0.0365,-0.0054,0.0345,1.4516
0.4200,-0.0421,-2.3799,4.5741,0.0056,-2.7299,0.0365,-0.0054,0.0345,1.4516
0.4210,-0.0422,-2.3837,4.5818,0.0056,-2.7338,0.0365,-0.0055,0.0345,1.4515
0.4220,-0.0422,-2.3875,4.5896,0.0056,-2.7376,0.0366,-0.0055,0.0345,1.4515
0.4230,-0.0422,-2.3913,4.5973,0.0056,-2.7415,0.0366,-0.0055,0.0345,1.4515
0.4240,-0.0423,-2.3951,4.6050,0.0056,-2.7453,0.0366,-0.0055,0.0345,1.4515
0.4250,-0.0423,-2.3989,4.6127,0.0056,-2.7492,0.0367,-0.0055,0.0345,1.4515
0.4260,-0.0423,-2.4027,4.6204,0.0056,-2.7530,0.0367,-0.0055,0.0345,1.4515
0.4270,-0.0423,-2.4065,4.6281,0.0056,-2.7569,0.0367,-0.0055,0.0345,1.4515
0.4280,-0.0424,-2.4103,4.6358,0.0056,-2.7607,0.0367,-0.0055,0.0345,1.4515
0.4290,-0.0424,-2.4141,4.6434,0.0056,-2.7645,0.0368,-0.0055,0.0345,1.4515
0.4300,-0.0424,-2.4179,4.6511,0.0056,-2.7684,0.0368,-0.0055,0.0345,1.4515
0.4310,-0.0425,-2.4217,4.6588,0.0056,-2.7722,0.0368,-0.0055,0.0345,1.4515
0.4320,-0.0425,-2.4254,4.6664,0.0056,-2.7760,0.0369,-0.0055,0.0345,1.4515
0.4330,-0.0425,-2.4292,4.6741,0.0056,-2.7798,0.0369,-0.0055,0.0345,1.4515
0.4340,-0.0425,-2.4330,4.6817,0.0056,-2.7836,0.0369,-0.0055,0.0345,1.4515
0.4350,-0.0426,-2.4367,4.6893,0.0056,-2.7875,0.0369,-0.0055,0.0345,1.4515
0.4360,-0.0426,-2.4405,4.6970,0.0056,-2.7913,0.0370,-0.0055,0.0345,1.4515
0.4370,-0.0426,-2.4443,4.7046,0.0056,-2.7951,0.0370,-0.0055,0.0345,1.4515
0.4380,-0.0427,-2.4480,4.7122,0.0056,-2.7989,0.0370,-0.0055,0.0345,1.4515
0.4390,-0.0427,-2.4518,4.7198,0.0056,-2.8026,0.0371,-0.0055,0.0345,1.4515
0.4400,-0.0427,-2.4555,4.7274,0.0056,-2.8064,0.0371,-0.0055,0.0345,1.4515
0.4410,-0.0427,-2.4593,4.7350,0.0056,-2.8102,0.0371,-0.0055,0.0345,1.4515
0.4420,-0.0428,-2.4630,4.7425,0.0056,-2.8140,0.0372,-0.0055,0.0345,1.4515
0.4430,-0.0428,-2.4668,4.7501,0.0056,-2.8178,0.0372,-0.0055,0.0345,1.4515
0.4440,-0.0428,-2.4705,4.7577,0.0056,-2.8216,0.0372,-0.0055,0.0345,1.4515
0.4450,-0.0429,-2.4742,4.7652,0.0056,-2.8253,0.0372,-0.0055,0.0345,1.4515
0.4460,-0.0429,-2.4780,4.7728,0.0056,-2.8291,0.0373,-0.0055,0.0345,1.4515
0.4470,-0.0429,-2.4817,4.7803,0.0056,-2.8329,0.0373,-0.0055,0.0345,1.4515
0.4480,-0.0429,-2.4854,4.7879,0.0056,-2.8366,0.0373,-0.0055,0.0345,1.4515
0.4490,-0.0430,-2.4891,4.7954,0.0056,-2.8404,0.0373,-0.0055,0.0345,1.4515
0.4500,-0.0430,-2.4929,4.8029,0.0056,-2.8441,0.0374,-0.0055,0.0345,1.4515
0.4510,-0.0430,-2.4966,4.8104,0.0056,-2.8479,0.0374,-0.0055,0.0345,1.4515
0.4520,-0.0430,-2.5003,4.8179,0.0056,-2.8516,0.0374,-0.0055,0.0345,1.4514
0.4530,-0.0431,-2.5040,4.8254,0.0056,-2.8554,0.0375,-0.0055,0.0345,1.4514
0.4540,-0.0431,-2.5077,4.8329,0.0056,-2.8591,0.0375,-0.0055,0.0345,1.4514
0.4550,-0.0431,-2.5114,4.8404,0.0056,-2.8628,0.0375,-0.0056,0.0345,1.4514
0.4560,-0.0432,-2.5151,4.8479,0.0056,-2.8666,0.0375,-0.0056,0.0345,1.4514
0.4570,-0.0432,-2.5188,4.8554,0.0056,-2.8703,0.0376,-0.0056,0.0345,1.4514
0.4580,-0.0432,-2.5225,4.8628,0.0056,-2.8740,0.0376,-0.0056,0.0345,1.4514
0.4590,-0.0432,-2.5261,4.8703,0.0056,-2.8777,0.0376,-0.0056,0.0345,1.4514
0.4600,-0.0433,-2.5298,4.8777,0.0056,-2.8814,0.0377,-0.0056,0.0345,1.4514
0.4610,-0.0433,-2.5335,4.8852,0.0056,-2.8851,0.0377,-0.0056,0.0345,1.4514
0.4620,-0.0433,-2.5372,4.8926,0.0056,-2.8888,0.0377,-0.0056,0.0345,1.4514
0.4630,-0.0433,-2.5409,4.9000,0.0056,-2.8926,0.0377,-0.0056,0.0345,1.4514
0.4640,-0.0434,-2.5445,4.9075,0.0056,-2.8963,0.0378,-0.0056,0.0345,1.4514
0.4650,-0.0434,-2.5482,4.9149,0.0056,-2.8999,0.0378,-0.0056,0.0345,1.4514
0.4660,-0.0434,-2.5519,4.9223,0.0056,-2.9036,0.0378,-0.0056,0.0345,1.4514
0.4670,-0.0434,-2.5555,4.9297,0.0056,-2.9073,0.0378,-0.0056,0.0345,1.4514
0.4680,-0.0435,-2.5592,4.9371,0.0056,-2.9110,0.0379,-0.0056,0.0345,1.4514
0.4690,-0.0435,-2.5628,4.9445,0.0056,-2.9147,0.0379,-0.0056,0.0345,1.4514
0.4700,-0.0435,-2.5665,4.9519,0.0056,-2.9184,0.0379,-0.0056,0.0345,1.4514
0.4710,-0.0435,-2.5701,4.9592,0.0056,-2.9220,0.0380,-0.0056,0.0345,1.4514
0.4720,-0.0436,-2.5738,4.9666,0.0056,-2.9257,0.0380,-0.0056,0.0345,1.4514
0.4730,-0.0436,-2.5774,4.9740,0.0056,-2.9294,0.0380,-0.0056,0.0345,1.4514
0.4740,-0.0436,-2.5810,4.9813,0.0056,-2.9331,0.0380,-0.0056,0.0345,1.4514
0.4750,-0.0436,-2.5847,4.9887,0.0056,-2.9367,0.0381,-0.0056,0.0345,1.4514
0.4760,-0.0437,-2.5883,4.9960,0.0056,-2.9404,0.0381,-0.0056,0.0345,1.4514
0.4770,-0.0437,-2.5919,5.0033,0.0056,-2.9440,0.0381,-0.0056,0.0345,1.4514
0.4780,-0.0437,-2.5956,5.0107,0.0056,-2.9477,0.0381,-0.0056,0.0345,1.4514
0.4790,-0.0437,-2.5992,5.0180,0.0056,-2.9513,0.0382,-0.0056,0.0345,1.4514
0.4800,-0.0438,-2.6028,5.0253,0.0056,-2.9550,0.0382,-0.0056,0.0345,1.4514
0.4810,-0.0438,-2.6064,5.0326,0.0056,-2.9586,0.0382,-0.0056,0.0345,1.4514
0.4820,-0.0438,-2.6100,5.0399,0.0056,-2.9622,0.0382,-0.0056,0.0345,1.4513
0.4830,-0.0438,-2.6136,5.0472,0.0056,-2.9659,0.0383,-0.0056,0.0345,1.4513
0.4840,-0.0439,-2.6172,5.0545,0.0056,-2.9695,0.0383,-0.0056,0.0345,1.4513
0.4850,-0.0439,-2.6208,5.0618,0.0056,-2.9731,0.0383,-0.0056,0.0345,1.4513
0.4860,-0.0439,-2.6244,5.0690,0.0056,-2.9767,0.0384,-0.0056,0.0345,1.4513
0.4870,-0.0439,-2.6280,5.0763,0.0056,-2.9804,0.0384,-0.0056,0.0345,1.4513
0.4880,-0.0440,-2.6316,5.0836,0.0056,-2.9840,0.0384,-0.0056,0.0345,1.4513
0.4890,-0.0440,-2.6352,5.0908,0.0056,-2.9876,0.0384,-0.0057,0.0345,1.4513
0.4900,-0.0440,-2.6388,5.0981,0.0056,-2.9912,0.0385,-0.0057,0.0345,1.4513
0.4910,-0.0440,-2.6424,5.1053,0.0056,-2.9948,0.0385,-0.0057,0.0345,1.4513
0.4920,-0.0441,-2.6460,5.1125,0.0056,-2.9984,0.0385,-0.0057,0.0345,1.4513
0.4930,-0.0441,-2.6495,5.1198,0.0056,-3.0020,0.0385,-0.0057,0.0345,1.4513
0.4940,-0.0441,-2.6531,5.1270,0.0056,-3.0056,0.0386,-0.0057,0.0345,1.4513
0.4950,-0.0441,-2.6567,5.1342,0.0056,-3.0092,0.0386,-0.0057,0.0345,1.4513
0.4960,-0.0442,-2.6602,5.1414,0.0056,-3.0128,0.0386,-0.0057,0.0345,1.4513
0.4970,-0.0442,-2.6638,5.1486,0.0056,-3.0163,0.0386,-0.0057,0.0345,1.4513
0.4980,-0.0442,-2.6674,5.1558,0.0056,-3.0199,0.0387,-0.0057,0.0345,1.4513
0.4990,-0.0442,-2.6709,5.1630,0.0056,-3.0235,0.0387,-0.0057,0.0345,1.4513
0.5000,-0.0443,-2.6745,5.1702,0.0056,-3.0271,0.0387,-0.0057,0.0345,1.4513
0.5010,-0.0443,-2.6780,5.1773,0.0056,-3.0306,0.0387,-0.0057,0.0345,1.4513
0.5020,-0.0443,-2.6816,5.1845,0.0056,-3.0342,0.0388,-0.0057,0.0345,1.4513
0.5030,-0.0443,-2.6851,5.1917,0.0056,-3.0378,0.0388,-0.0057,0.0345,1.4513
0.5040,-0.0444,-2.6887,5.1988,0.0055,-3.0413,0.0388,-0.0057,0.0345,1.4513
0.5050,-0.0444,-2.6922,5.2060,0.0055,-3.0449,0.0388,-0.0057,0.0345,1.4513
0.5060,-0.0444,-2.6958,5.2131,0.0055,-3.0484,0.0389,-0.0057,0.0345,1.4513
0.5070,-0.0444,-2.6993,5.2203,0.0055,-3.0520,0.0389,-0.0057,0.0345,1.4513
0.5080,-0.0444,-2.7028,5.2274,0.0055,-3.0555,0.0389,-0.0057,0.0345,1.4513
0.5090,-0.0445,-2.7063,5.2345,0.0055,-3.0591,0.0389,-0.0057,0.0345,1.4513
0.5100,-0.0445,-2.7099,5.2416,0.0055,-3.0626,0.0390,-0.0057,0.0345,1.4513
0.5110,-0.0445,-2.7134,5.2487,0.0055,-3.0662,0.0390,-0.0057,0.0345,1.4513
0.5120,-0.0445,-2.7169,5.2558,0.0055,-3.0697,0.0390,-0.0057,0.0345,1.4512
0.5130,-0.0446,-2.7204,5.2629,0.0055,-3.0732,0.0390,-0.0057,0.0345,1.4512
0.5140,-0.0446,-2.7239,5.2700,0.0055,-3.0767,0.0391,-0.0057,0.0345,1.4512
0.5150,-0.0446,-2.7274,5.2771,0.0055,-3.0803,0.0391,-0.0057,0.0345,1.4512
0.5160,-0.0446,-2.7310,5.2842,0.0055,-3.0838,0.0391,-0.0057,0.0345,1.4512
0.5170,-0.0447,-2.7345,5.2913,0.0055,-3.0873,0.0391,-0.0057,0.0345,1.4512
0.5180,-0.0447,-2.7380,5.2983,0.0055,-3.0908,0.0392,-0.0057,0.0345,1.4512
0.5190,-0.0447,-2.7415,5.3054,0.0055,-3.0943,0.0392,-0.0057,0.0345,1.4512
0.5200,-0.0447,-2.7449,5.3125,0.0055,-3.0978,0.0392,-0.0057,0.0345,1.4512
0.5210,-0.0447,-2.7484,5.3195,0.0055,-3.1013,0.0392,-0.0057,0.0345,1.4512
0.5220,-0.0448,-2.7519,5.3265,0.0055,-3.1048,0.0393,-0.0057,0.0345,1.4512
0.5230,-0.0448,-2.7554,5.3336,0.0055,-3.1083,0.0393,-0.0058,0.0345,1.4512
0.5240,-0.0448,-2.7589,5.3406,0.0055,-3.1118,0.0393,-0.0058,0.0345,1.4512
0.5250,-0.0448,-2.7624,5.3476,0.0055,-3.1153,0.0393,-0.0058,0.0345,1.4512
0.5260,-0.0449,-2.7659,5.3547,0.0055,-3.1188,0.0393,-0.0058,0.0345,1.4512
0.5270,-0.0449,-2.7693,5.3617,0.0055,-3.1223,0.0394,-0.0058,0.0345,1.4512
0.5280,-0.0449,-2.7728,5.3687,0.0055,-3.1258,0.0394,-0.0058,0.0345,1.4512
0.5290,-0.0449,-2.7763,5.3757,0.0055,-3.1292,0.0394,-0.0058,0.0345,1.4512
0.5300,-0.0449,-2.7797,5.3827,0.0055,-3.1327,0.0394,-0.0058,0.0345,1.4512
0.5310,-0.0450,-2.7832,5.3896,0.0055,-3.1362,0.0395,-0.0058,0.0345,1.4512
0.5320,-0.0450,-2.7867,5.3966,0.0055,-3.1396,0.0395,-0.0058,0.0345,1.4512
0.5330,-0.0450,-2.7901,5.4036,0.0055,-3.1431,0.0395,-0.0058,0.0345,1.4512
0.5340,-0.0450,-2.7936,5.4106,0.0055,-3.1466,0.0395,-0.0058,0.0345,1.4512
0.5350,-0.0451,-2.7970,5.4175,0.0055,-3.1500,0.0396,-0.0058,0.0345,1.4512
0.5360,-0.0451,-2.8005,5.4245,0.0055,-3.1535,0.0396,-0.0058,0.0345,1.4512
0.5370,-0.0451,-2.8039,5.4314,0.0055,-3.1569,0.0396,-0.0058,0.0345,1.4512
0.5380,-0.0451,-2.8073,5.4384,0.0055,-3.1604,0.0396,-0.0058,0.0345,1.4512
0.5390,-0.0451,-2.8108,5.4453,0.0055,-3.1638,0.0397,-0.0058,0.0345,1.4512
0.5400,-0.0452,-2.8142,5.4522,0.0055,-3.1673,0.0397,-0.0058,0.0345,1.4512
0.5410,-0.0452,-2.8177,5.4592,0.0055,-3.1707,0.0397,-0.0058,0.0345,1.4512
0.5420,-0.0452,-2.8211,5.4661,0.0055,-3.1741,0.0397,-0.0058,0.0345,1.4511
0.5430,-0.0452,-2.8245,5.4730,0.0055,-3.1776,0.0397,-0.0058,0.0345,1.4511
0.5440,-0.0452,-2.8279,5.4799,0.0055,-3.1810,0.0398,-0.0058,0.0345,1.4511
0.5450,-0.0453,-2.8314,5.4868,0.0055,-3.1844,0.0398,-0.0058,0.0345,1.4511
0.5460,-0.0453,-2.8348,5.4937,0.0055,-3.1879,0.0398,-0.0058,0.0345,1.4511
0.5470,-0.0453,-2.8382,5.5006,0.0055,-3.1913,0.0398,-0.0058,0.0345,1.4511
0.5480,-0.0453,-2.8416,5.5075,0.0055,-3.1947,0.0399,-0.0058,0.0345,1.4511
0.5490,-0.0454,-2.8450,5.5144,0.0055,-3.1981,0.0399,-0.0058,0.0345,1.4511
0.5500,-0.0454,-2.8484,5.5212,0.0055,-3.2015,0.0399,-0.0058,0.0345,1.4511
0.5510,-0.0454,-2.8518,5.5281,0.0055,-3.2049,0.0399,-0.0058,0.0345,1.4511
0.5520,-0.0454,-2.8552,5.5350,0.0055,-3.2083,0.0400,-0.0058,0.0345,1.4511
0.5530,-0.0454,-2.8586,5.5418,0.0055,-3.2117,0.0400,-0.0058,0.0345,1.4511
0.5540,-0.0455,-2.8620,5.5487,0.0055,-3.2151,0.0400,-0.0058,0.0345,1.4511
0.5550,-0.0455,-2.8654,5.5555,0.0055,-3.2185,0.0400,-0.0058,0.0345,1.4511
0.5560,-0.0455,-2.8688,5.5624,0.0055,-3.2219,0.0400,-0.0058,0.0345,1.4511
0.5570,-0.0455,-2.8722,5.5692,0.0055,-3.2253,0.0401,-0.0059,0.0345,1.4511
0.5580,-0.0455,-2.8756,5.5760,0.0055,-3.2287,0.0401,-0.0059,0.0345,1.4511
0.5590,-0.0456,-2.8790,5.5828,0.0055,-3.2321,0.0401,-0.0059,0.0345,1.4511
0.5600,-0.0456,-2.8824,5.5896,0.0055,-3.2355,0.0401,-0.0059,0.0345,1.4511
0.5610,-0.0456,-2.8857,5.5965,0.0055,-3.2388,0.0402,-0.0059,0.0345,1.4511
0.5620,-0.0456,-2.8891,5.6033,0.0055,-3.2422,0.0402,-0.0059,0.0345,1.4511
0.5630,-0.0456,-2.8925,5.6101,0.0055,-3.2456,0.0402,-0.0059,0.0345,1.4511
0.5640,-0.0457,-2.8959,5.6168,0.0055,-3.2490,0.0402,-0.0059,0.0345,1.4511
0.5650,-0.0457,-2.8992,5.6236,0.0055,-3.2523,0.0402,-0.0059,0.0345,1.4511
0.5660,-0.0457,-2.9026,5.6304,0.0055,-3.2557,0.0403,-0.0059,0.0345,1.4511
0.5670,-0.0457,-2.9060,5.6372,0.0054,-3.2590,0.0403,-0.0059,0.0345,1.4511
0.5680,-0.0457,-2.9093,5.6440,0.0054,-3.2624,0.0403,-0.0059,0.0345,1.4511
0.5690,-0.0458,-2.9127,5.6507,0.0054,-3.2658,0.0403,-0.0059,0.0345,1.4511
0.5700,-0.0458,-2.9160,5.6575,0.0054,-3.2691,0.0403,-0.0059,0.0345,1.4511
0.5710,-0.0458,-2.9194,5.6642,0.0054,-3.2725,0.0404,-0.0059,0.0345,1.4510
0.5720,-0.0458,-2.9227,5.6710,0.0054,-3.2758,0.0404,-0.0059,0.0345,1.4510
0.5730,-0.0458,-2.9261,5.6777,0.0054,-3.2791,0.0404,-0.0059,0.0345,1.4510
0.5740,-0.0459,-2.9294,5.6844,0.0054,-3.2825,0.0404,-0.0059,0.0345,1.4510
0.5750,-0.0459,-2.9328,5.6912,0.0054,-3.2858,0.0405,-0.0059,0.0345,1.4510
0.5760,-0.0459,-2.9361,5.6979,0.0054,-3.2891,0.0405,-0.0059,0.0345,1.4510
0.5770,-0.0459,-2.9394,5.7046,0.0054,-3.2925,0.0405,-0.0059,0.0345,1.4510
0.5780,-0.0459,-2.9428,5.7113,0.0054,-3.2958,0.0405,-0.0059,0.0345,1.4510
0.5790,-0.0460,-2.9461,5.7180,0.0054,-3.2991,0.0405,-0.0059,0.0345,1.4510
0.5800,-0.0460,-2.9494,5.7247,0.0054,-3.3024,0.0406,-0.0059,0.0345,1.4510
0.5810,-0.0460,-2.9527,5.7314,0.0054,-3.3058,0.0406,-0.0059,0.0345,1.4510
0.5820,-0.0460,-2.9561,5.7381,0.0054,-3.3091,0.0406,-0.0059,0.0345,1.4510
0.5830,-0.0460,-2.9594,5.7448,0.0054,-3.3124,0.0406,-0.0059,0.0345,1.4510
0.5840,-0.0461,-2.9627,5.7515,0.0054,-3.3157,0.0406,-0.0059,0.0345,1.4510
0.5850,-0.0461,-2.9660,5.7582,0.0054,-3.3190,0.0407,-0.0059,0.0345,1.4510
0.5860,-0.0461,-2.9693,5.7648,0.0054,-3.3223,0.0407,-0.0059,0.0345,1.4510
0.5870,-0.0461,-2.9726,5.7715,0.0054,-3.3256,0.0407,-0.0059,0.0345,1.4510
0.5880,-0.0461,-2.9759,5.7782,0.0054,-3.3289,0.0407,-0.0059,0.0345,1.4510
0.5890,-0.0462,-2.9792,5.7848,0.0054,-3.3322,0.0408,-0.0059,0.0345,1.4510
0.5900,-0.0462,-2.9825,5.7915,0.0054,-3.3355,0.0408,-0.0060,0.0345,1.4510
0.5910,-0.0462,-2.9858,5.7981,0.0054,-3.3388,0.0408,-0.0060,0.0345,1.4510
0.5920,-0.0462,-2.9891,5.8047,0.0054,-3.3421,0.0408,-0.0060,0.0345,1.4510
0.5930,-0.0462,-2.9924,5.8114,0.0054,-3.3454,0.0408,-0.0060,0.0345,1.4510
0.5940,-0.0463,-2.9957,5.8180,0.0054,-3.3486,0.0409,-0.0060,0.0345,1.4510
0.5950,-0.0463,-2.9990,5.8246,0.0054,-3.3519,0.0409,-0.0060,0.0345,1.4510
0.5960,-0.0463,-3.0023,5.8312,0.0054,-3.3552,0.0409,-0.0060,0.0345,1.4510
0.5970,-0.0463,-3.0056,5.8378,0.0054,-3.3585,0.0409,-0.0060,0.0345,1.4510
0.5980,-0.0463,-3.0089,5.8444,0.0054,-3.3617,0.0409,-0.0060,0.0345,1.4510
0.5990,-0.0463,-3.0121,5.8510,0.0054,-3.3650,0.0410,-0.0060,0.0345,1.4510
0.6000,-0.0464,-3.0154,5.8576,0.0054,-3.3683,0.0410,-0.0060,0.0345,1.4509
0.6010,-0.0464,-3.0187,5.8642,0.0054,-3.3715,0.0410,-0.0060,0.0345,1.4509
0.6020,-0.0464,-3.0220,5.8708,0.0054,-3.3748,0.0410,-0.0060,0.0345,1.4509
0.6030,-0.0464,-3.0252,5.8774,0.0054,-3.3780,0.0410,-0.0060,0.0345,1.4509
0.6040,-0.0464,-3.0285,5.8839,0.0054,-3.3813,0.0411,-0.0060,0.0345,1.4509
0.6050,-0.0465,-3.0318,5.8905,0.0054,-3.3846,0.0411,-0.0060,0.0345,1.4509
0.6060,-0.0465,-3.0350,5.8971,0.0054,-3.3878,0.0411,-0.0060,0.0345,1.4509
0.6070,-0.0465,-3.0383,5.9036,0.0054,-3.3910,0.0411,-0.0060,0.0345,1.4509
0.6080,-0.0465,-3.0415,5.9102,0.0054,-3.3943,0.0411,-0.0060,0.0345,1.4509
0.6090,-0.0465,-3.0448,5.9167,0.0054,-3.3975,0.0412,-0.0060,0.0345,1.4509
0.6100,-0.0466,-3.0480,5.9233,0.0054,-3.4008,0.0412,-0.0060,0.0345,1.4509
0.6110,-0.0466,-3.0513,5.9298,0.0054,-3.4040,0.0412,-0.0060,0.0345,1.4509
0.6120,-0.0466,-3.0545,5.9363,0.0054,-3.4072,0.0412,-0.0060,0.0345,1.4509
0.6130,-0.0466,-3.0578,5.9429,0.0054,-3.4105,0.0412,-0.0060,0.0345,1.4509
0.6140,-0.0466,-3.0610,5.9494,0.0054,-3.4137,0.0413,-0.0060,0.0345,1.4509
0.6150,-0.0466,-3.0643,5.9559,0.0054,-3.4169,0.0413,-0.0060,0.0345,1.4509
0.6160,-0.0467,-3.0675,5.9624,0.0054,-3.4201,0.0413,-0.0060,0.0345,1.4509
0.6170,-0.0467,-3.0707,5.9689,0.0054,-3.4233,0.0413,-0.0060,0.0345,1.4509
0.6180,-0.0467,-3.0740,5.9754,0.0054,-3.4266,0.0413,-0.0060,0.0345,1.4509
0.6190,-0.0467,-3.0772,5.9819,0.0054,-3.4298,0.0414,-0.0060,0.0345,1.4509
0.6200,-0.0467,-3.0804,5.9884,0.0054,-3.4330,0.0414,-0.0060,0.0345,1.4509
0.6210,-0.0468,-3.0836,5.9949,0.0054,-3.4362,0.0414,-0.0060,0.0345,1.4509
0.6220,-0.0468,-3.0869,6.0013,0.0054,-3.4394,0.0414,-0.0060,0.0345,1.4509
0.6230,-0.0468,-3.0901,6.0078,0.0054,-3.4426,0.0414,-0.0060,0.0345,1.4509
0.6240,-0.0468,-3.0933,6.0143,0.0054,-3.4458,0.0415,-0.0061,0.0345,1.4509
0.6250,-0.0468,-3.0965,6.0207,0.0053,-3.4490,0.0415,-0.0061,0.0345,1.4509
0.6260,-0.0468,-3.0997,6.0272,0.0053,-3.4522,0.0415,-0.0061,0.0345,1.4509
0.6270,-0.0469,-3.1029,6.0337,0.0053,-3.4554,0.0415,-0.0061,0.0345,1.4509
0.6280,-0.0469,-3.1061,6.0401,0.0053,-3.4586,0.0415,-0.0061,0.0345,1.4509
0.6290,-0.0469,-3.1093,6.0466,0.0053,-3.4617,0.0416,-0.0061,0.0345,1.4508
0.6300,-0.0469,-3.1125,6.0530,0.0053,-3.4649,0.0416,-0.0061,0.0345,1.4508
0.6310,-0.0469,-3.1157,6.0594,0.0053,-3.4681,0.0416,-0.0061,0.0345,1.4508
0.6320,-0.0469,-3.1189,6.0658,0.0053,-3.4713,0.0416,-0.0061,0.0345,1.4508
0.6330,-0.0470,-3.1221,6.0723,0.0053,-3.4745,0.0416,-0.0061,0.0345,1.4508
0.6340,-0.0470,-3.1253,6.0787,0.0053,-3.4776,0.0417,-0.0061,0.0345,1.4508
0.6350,-0.0470,-3.1285,6.0851,0.0053,-3.4808,0.0417,-0.0061,0.0345,1.4508
0.6360,-0.0470,-3.1317,6.0915,0.0053,-3.4840,0.0417,-0.0061,0.0345,1.4508
0.6370,-0.0470,-3.1349,6.0979,0.0053,-3.4871,0.0417,-0.0061,0.0345,1.4508
0.6380,-0.0470,-3.1381,6.1043,0.0053,-3.4903,0.0417,-0.0061,0.0345,1.4508
0.6390,-0.0471,-3.1413,6.1107,0.0053,-3.4935,0.0418,-0.0061,0.0345,1.4508
0.6400,-0.0471,-3.1444,6.1171,0.0053,-3.4966,0.0418,-0.0061,0.0345,1.4508
0.6410,-0.0471,-3.1476,6.1235,0.0053,-3.4998,0.0418,-0.0061,0.0345,1.4508
0.6420,-0.0471,-3.1508,6.1299,0.0053,-3.5029,0.0418,-0.0061,0.0345,1.4508
0.6430,-0.0471,-3.1540,6.1362,0.0053,-3.5061,0.0418,-0.0061,0.0345,1.4508
0.6440,-0.0472,-3.1571,6.1426,0.0053,-3.5092,0.0418,-0.0061,0.0345,1.4508
0.6450,-0.0472,-3.1603,6.1490,0.0053,-3.5124,0.0419,-0.0061,0.0345,1.4508
0.6460,-0.0472,-3.1635,6.1553,0.0053,-3.5155,0.0419,-0.0061,0.0345,1.4508
0.6470,-0.0472,-3.1666,6.1617,0.0053,-3.5186,0.0419,-0.0061,0.0345,1.4508
0.6480,-0.0472,-3.1698,6.1680,0.0053,-3.5218,0.0419,-0.0061,0.0345,1.4508
0.6490,-0.0472,-3.1729,6.1744,0.0053,-3.5249,0.0419,-0.0061,0.0345,1.4508
0.6500,-0.0473,-3.1761,6.1807,0.0053,-3.5280,0.0420,-0.0061,0.0345,1.4508
0.6510,-0.0473,-3.1792,6.1870,0.0053,-3.5312,0.0420,-0.0061,0.0345,1.4508
0.6520,-0.0473,-3.1824,6.1934,0.0053,-3.5343,0.0420,-0.0061,0.0345,1.4508
0.6530,-0.0473,-3.1855,6.1997,0.0053,-3.5374,0.0420,-0.0061,0.0345,1.4508
0.6540,-0.0473,-3.1887,6.2060,0.0053,-3.5405,0.0420,-0.0061,0.0345,1.4508
0.6550,-0.0473,-3.1918,6.2123,0.0053,-3.5437,0.0421,-0.0061,0.0345,1.4508
0.6560,-0.0474,-3.1950,6.2186,0.0053,-3.5468,0.0421,-0.0061,0.0345,1.4508
0.6570,-0.0474,-3.1981,6.2250,0.0053,-3.5499,0.0421,-0.0061,0.0345,1.4507
0.6580,-0.0474,-3.2013,6.2313,0.0053,-3.5530,0.0421,-0.0062,0.0345,1.4507
0.6590,-0.0474,-3.2044,6.2376,0.0053,-3.5561,0.0421,-0.0062,0.0345,1.4507
0.6600,-0.0474,-3.2075,6.2438,0.0053,-3.5592,0.0421,-0.0062,0.0345,1.4507
0.6610,-0.0474,-3.2107,6.2501,0.0053,-3.5623,0.0422,-0.0062,0.0345,1.4507
0.6620,-0.0475,-3.2138,6.2564,0.0053,-3.5654,0.0422,-0.0062,0.0345,1.4507
0.6630,-0.0475,-3.2169,6.2627,0.0053,-3.5685,0.0422,-0.0062,0.0345,1.4507
0.6640,-0.0475,-3.2200,6.2690,0.0053,-3.5716,0.0422,-0.0062,0.0345,1.4507
0.6650,-0.0475,-3.2232,6.2752,0.0053,-3.5747,0.0422,-0.0062,0.0345,1.4507
0.6660,-0.0475,-3.2263,6.2815,0.0053,-3.5778,0.0423,-0.0062,0.0345,1.4507
0.6670,-0.0475,-3.2294,6.2878,0.0053,-3.5809,0.0423,-0.0062,0.0345,1.4507
0.6680,-0.0476,-3.2325,6.2940,0.0053,-3.5840,0.0423,-0.0062,0.0345,1.4507
0.6690,-0.0476,-3.2356,6.3003,0.0053,-3.5871,0.0423,-0.0062,0.0345,1.4507
0.6700,-0.0476,-3.2387,6.3065,0.0053,-3.5901,0.0423,-0.0062,0.0345,1.4507
0.6710,-0.0476,-3.2418,6.3127,0.0053,-3.5932,0.0423,-0.0062,0.0345,1.4507
0.6720,-0.0476,-3.2449,6.3190,0.0053,-3.5963,0.0424,-0.0062,0.0345,1.4507
0.6730,-0.0476,-3.2480,6.3252,0.0053,-3.5994,0.0424,-0.0062,0.0345,1.4507
0.6740,-0.0476,-3.2512,6.3314,0.0053,-3.6025,0.0424,-0.0062,0.0345,1.4507
0.6750,-0.0477,-3.2543,6.3377,0.0053,-3.6055,0.0424,-0.0062,0.0345,1.4507
0.6760,-0.0477,-3.2573,6.3439,0.0053,-3.6086,0.0424,-0.0062,0.0345,1.4507
0.6770,-0.0477,-3.2604,6.3501,0.0053,-3.6117,0.0424,-0.0062,0.0345,1.4507
0.6780,-0.0477,-3.2635,6.3563,0.0053,-3.6147,0.0425,-0.0062,0.0345,1.4507
0.6790,-0.0477,-3.2666,6.3625,0.0053,-3.6178,0.0425,-0.0062,0.0345,1.4507
0.6800,-0.0477,-3.2697,6.3687,0.0053,-3.6208,0.0425,-0.0062,0.0345,1.4507
0.6810,-0.0478,-3.2728,6.3749,0.0053,-3.6239,0.0425,-0.0062,0.0345,1.4507
0.6820,-0.0478,-3.2759,6.3811,0.0052,-3.6269,0.0425,-0.0062,0.0345,1.4507
0.6830,-0.0478,-3.2790,6.3873,0.0052,-3.6300,0.0426,-0.0062,0.0345,1.4507
0.6840,-0.0478,-3.2820,6.3934,0.0052,-3.6330,0.0426,-0.0062,0.0345,1.4507
0.6850,-0.0478,-3.2851,6.3996,0.0052,-3.6361,0.0426,-0.0062,0.0345,1.4507
0.6860,-0.0478,-3.2882,6.4058,0.0052,-3.6391,0.0426,-0.0062,0.0345,1.4506
0.6870,-0.0479,-3.2913,6.4120,0.0052,-3.6422,0.0426,-0.0062,0.0345,1.4506
0.6880,-0.0479,-3.2943,6.4181,0.0052,-3.6452,0.0426,-0.0062,0.0345,1.4506
0.6890,-0.0479,-3.2974,6.4243,0.0052,-3.6482,0.0427,-0.0062,0.0345,1.4506
0.6900,-0.0479,-3.3005,6.4304,0.0052,-3.6513,0.0427,-0.0062,0.0345,1.4506
0.6910,-0.0479,-3.3036,6.4366,0.0052,-3.6543,0.0427,-0.0062,0.0345,1.4506
0.6920,-0.0479,-3.3066,6.4427,0.0052,-3.6573,0.0427,-0.0063,0.0345,1.4506
0.6930,-0.0479,-3.3097,6.4489,0.0052,-3.6604,0.0427,-0.0063,0.0345,1.4506
0.6940,-0.0480,-3.3127,6.4550,0.0052,-3.6634,0.0427,-0.0063,0.0345,1.4506
0.6950,-0.0480,-3.3158,6.4611,0.0052,-3.6664,0.0428,-0.0063,0.0345,1.4506
0.6960,-0.0480,-3.3188,6.4673,0.0052,-3.6694,0.0428,-0.0063,0.0345,1.4506
0.6970,-0.0480,-3.3219,6.4734,0.0052,-3.6724,0.0428,-0.0063,0.0345,1.4506
0.6980,-0.0480,-3.3249,6.4795,0.0052,-3.6755,0.0428,-0.0063,0.0345,1.4506
0.6990,-0.0480,-3.3280,6.4856,0.0052,-3.6785,0.0428,-0.0063,0.0345,1.4506
0.7000,-0.0481,-3.3310,6.4917,0.0052,-3.6815,0.0428,-0.0063,0.0345,1.4506
0.7010,-0.0481,-3.3341,6.4978,0.0052,-3.6845,0.0429,-0.0063,0.0345,1.4506
0.7020,-0.0481,-3.3371,6.5039,0.0052,-3.6875,0.0429,-0.0063,0.0345,1.4506
0.7030,-0.0481,-3.3402,6.5100,0.0052,-3.6905,0.0429,-0.0063,0.0345,1.4506
0.7040,-0.0481,-3.3432,6.5161,0.0052,-3.6935,0.0429,-0.0063,0.0345,1.4506
0.7050,-0.0481,-3.3462,6.5222,0.0052,-3.6965,0.0429,-0.0063,0.0345,1.4506
0.7060,-0.0481,-3.3493,6.5283,0.0052,-3.6995,0.0429,-0.0063,0.0345,1.4506
0.7070,-0.0482,-3.3523,6.5344,0.0052,-3.7025,0.0430,-0.0063,0.0345,1.4506
0.7080,-0.0482,-3.3553,6.5404,0.0052,-3.7055,0.0430,-0.0063,0.0345,1.4506
0.7090,-0.0482,-3.3584,6.5465,0.0052,-3.7085,0.0430,-0.0063,0.0345,1.4506
0.7100,-0.0482,-3.3614,6.5526,0.0052,-3.7115,0.0430,-0.0063,0.0345,1.4506
0.7110,-0.0482,-3.3644,6.5586,0.0052,-3.7145,0.0430,-0.0063,0.0345,1.4506
0.7120,-0.0482,-3.3674,6.5647,0.0052,-3.7174,0.0430,-0.0063,0.0345,1.4506
0.7130,-0.0482,-3.3705,6.5708,0.0052,-3.7204,0.0431,-0.0063,0.0345,1.4506
0.7140,-0.0483,-3.3735,6.5768,0.0052,-3.7234,0.0431,-0.0063,0.0345,1.4505
0.7150,-0.0483,-3.3765,6.5828,0.0052,-3.7264,0.0431,-0.0063,0.0345,1.4505
0.7160,-0.0483,-3.3795,6.5889,0.0052,-3.7293,0.0431,-0.0063,0.0345,1.4505
0.7170,-0.0483,-3.3825,6.5949,0.0052,-3.7323,0.0431,-0.0063,0.0345,1.4505
0.7180,-0.0483,-3.3855,6.6010,0.0052,-3.7353,0.0431,-0.0063,0.0345,1.4505
0.7190,-0.0483,-3.3885,6.6070,0.0052,-3.7383,0.0432,-0.0063,0.0345,1.4505
0.7200,-0.0483,-3.3915,6.6130,0.0052,-3.7412,0.0432,-0.0063,0.0345,1.4505
0.7210,-0.0484,-3.3945,6.6190,0.0052,-3.7442,0.0432,-0.0063,0.0345,1.4505
0.7220,-0.0484,-3.3975,6.6250,0.0052,-3.7471,0.0432,-0.0063,0.0345,1.4505
0.7230,-0.0484,-3.4005,6.6311,0.0052,-3.7501,0.0432,-0.0063,0.0345,1.4505
0.7240,-0.0484,-3.4035,6.6371,0.0052,-3.7531,0.0432,-0.0063,0.0345,1.4505
0.7250,-0.0484,-3.4065,6.6431,0.0052,-3.7560,0.0433,-0.0063,0.0345,1.4505
0.7260,-0.0484,-3.4095,6.6491,0.0052,-3.7590,0.0433,-0.0064,0.0345,1.4505
0.7270,-0.0485,-3.4125,6.6551,0.0052,-3.7619,0.0433,-0.0064,0.0345,1.4505
0.7280,-0.0485,-3.4155,6.6610,0.0052,-3.7649,0.0433,-0.0064,0.0345,1.4505
0.7290,-0.0485,-3.4185,6.6670,0.0052,-3.7678,0.0433,-0.0064,0.0345,1.4505
0.7300,-0.0485,-3.4215,6.6730,0.0052,-3.7708,0.0433,-0.0064,0.0345,1.4505
0.7310,-0.0485,-3.4245,6.6790,0.0052,-3.7737,0.0434,-0.0064,0.0345,1.4505
0.7320,-0.0485,-3.4274,6.6850,0.0052,-3.7766,0.0434,-0.0064,0.0345,1.4505
0.7330,-0.0485,-3.4304,6.6909,0.0052,-3.7796,0.0434,-0.0064,0.0345,1.4505
0.7340,-0.0486,-3.4334,6.6969,0.0052,-3.7825,0.0434,-0.0064,0.0345,1.4505
0.7350,-0.0486,-3.4364,6.7029,0.0052,-3.7854,0.0434,-0.0064,0.0345,1.4505
0.7360,-0.0486,-3.4394,6.7088,0.0052,-3.7884,0.0434,-0.0064,0.0345,1.4505
0.7370,-0.0486,-3.4423,6.7148,0.0052,-3.7913,0.0435,-0.0064,0.0345,1.4505
0.7380,-0.0486,-3.4453,6.7207,0.0052,-3.7942,0.0435,-0.0064,0.0345,1.4505
0.7390,-0.0486,-3.4483,6.7267,0.0051,-3.7972,0.0435,-0.0064,0.0345,1.4505
0.7400,-0.0486,-3.4512,6.7326,0.0051,-3.8001,0.0435,-0.0064,0.0345,1.4505
0.7410,-0.0486,-3.4542,6.7385,0.0051,-3.8030,0.0435,-0.0064,0.0345,1.4505
0.7420,-0.0487,-3.4572,6.7445,0.0051,-3.8059,0.0435,-0.0064,0.0345,1.4504
0.7430,-0.0487,-3.4601,6.7504,0.0051,-3.8088,0.0435,-0.0064,0.0345,1.4504
0.7440,-0.0487,-3.4631,6.7563,0.0051,-3.8117,0.0436,-0.0064,0.0345,1.4504
0.7450,-0.0487,-3.4660,6.7622,0.0051,-3.8147,0.0436,-0.0064,0.0345,1.4504
0.7460,-0.0487,-3.4690,6.7681,0.0051,-3.8176,0.0436,-0.0064,0.0345,1.4504
0.7470,-0.0487,-3.4719,6.7741,0.0051,-3.8205,0.0436,-0.0064,0.0345,1.4504
0.7480,-0.0487,-3.4749,6.7800,0.0051,-3.8234,0.0436,-0.0064,0.0345,1.4504
0.7490,-0.0488,-3.4778,6.7859,0.0051,-3.8263,0.0436,-0.0064,0.0345,1.4504
0.7500,-0.0488,-3.4808,6.7918,0.0051,-3.8292,0.0437,-0.0064,0.0345,1.4504
0.7510,-0.0488,-3.4837,6.7977,0.0051,-3.8321,0.0437,-0.0064,0.0345,1.4504
0.7520,-0.0488,-3.4867,6.8036,0.0051,-3.8350,0.0437,-0.0064,0.0345,1.4504
0.7530,-0.0488,-3.4896,6.8094,0.0051,-3.8379,0.0437,-0.0064,0.0345,1.4504
0.7540,-0.0488,-3.4926,6.8153,0.0051,-3.8408,0.0437,-0.0064,0.0345,1.4504
0.7550,-0.0488,-3.4955,6.8212,0.0051,-3.8436,0.0437,-0.0064,0.0345,1.4504
0.7560,-0.0489,-3.4984,6.8271,0.0051,-3.8465,0.0437,-0.0064,0.0345,1.4504
0.7570,-0.0489,-3.5014,6.8330,0.0051,-3.8494,0.0438,-0.0064,0.0345,1.4504
0.7580,-0.0489,-3.5043,6.8388,0.0051,-3.8523,0.0438,-0.0064,0.0345,1.4504
0.7590,-0.0489,-3.5072,6.8447,0.0051,-3.8552,0.0438,-0.0064,0.0345,1.4504
0.7600,-0.0489,-3.5102,6.8505,0.0051,-3.8581,0.0438,-0.0065,0.0345,1.4504
0.7610,-0.0489,-3.5131,6.8564,0.0051,-3.8609,0.0438,-0.0065,0.0345,1.4504
0.7620,-0.0489,-3.5160,6.8623,0.0051,-3.8638,0.0438,-0.0065,0.0345,1.4504
0.7630,-0.0489,-3.5189,6.8681,0.0051,-3.8667,0.0439,-0.0065,0.0345,1.4504
0.7640,-0.0490,-3.5218,6.8739,0.0051,-3.8696,0.0439,-0.0065,0.0345,1.4504
0.7650,-0.0490,-3.5248,6.8798,0.0051,-3.8724,0.0439,-0.0065,0.0345,1.4504
0.7660,-0.0490,-3.5277,6.8856,0.0051,-3.8753,0.0439,-0.0065,0.0345,1.4504
0.7670,-0.0490,-3.5306,6.8915,0.0051,-3.8782,0.0439,-0.0065,0.0345,1.4504
0.7680,-0.0490,-3.5335,6.8973,0.0051,-3.8810,0.0439,-0.0065,0.0345,1.4504
0.7690,-0.0490,-3.5364,6.9031,0.0051,-3.8839,0.0439,-0.0065,0.0345,1.4503
0.7700,-0.0490,-3.5393,6.9089,0.0051,-3.8868,0.0440,-0.0065,0.0345,1.4503
0.7710,-0.0491,-3.5422,6.9148,0.0051,-3.8896,0.0440,-0.0065,0.0345,1.4503
0.7720,-0.0491,-3.5451,6.9206,0.0051,-3.8925,0.0440,-0.0065,0.0345,1.4503
0.7730,-0.0491,-3.5480,6.9264,0.0051,-3.8953,0.0440,-0.0065,0.0345,1.4503
0.7740,-0.0491,-3.5509,6.9322,0.0051,-3.8982,0.0440,-0.0065,0.0345,1.4503
0.7750,-0.0491,-3.5538,6.9380,0.0051,-3.9010,0.0440,-0.0065,0.0345,1.4503
0.7760,-0.0491,-3.5567,6.9438,0.0051,-3.9039,0.0440,-0.0065,0.0345,1.4503
0.7770,-0.0491,-3.5596,6.9496,0.0051,-3.9067,0.0441,-0.0065,0.0345,1.4503
0.7780,-0.0491,-3.5625,6.9554,0.0051,-3.9096,0.0441,-0.0065,0.0345,1.4503
0.7790,-0.0492,-3.5654,6.9611,0.0051,-3.9124,0.0441,-0.0065,0.0345,1.4503
0.7800,-0.0492,-3.5683,6.9669,0.0051,-3.9152,0.0441,-0.0065,0.0345,1.4503
0.7810,-0.0492,-3.5712,6.9727,0.0051,-3.9181,0.0441,-0.0065,0.0345,1.4503
0.7820,-0.0492,-3.5741,6.9785,0.0051,-3.9209,0.0441,-0.0065,0.0345,1.4503
0.7830,-0.0492,-3.5770,6.9843,0.0051,-3.9237,0.0442,-0.0065,0.0345,1.4503
0.7840,-0.0492,-3.5799,6.9900,0.0051,-3.9266,0.0442,-0.0065,0.0345,1.4503
0.7850,-0.0492,-3.5828,6.9958,0.0051,-3.9294,0.0442,-0.0065,0.0345,1.4503
0.7860,-0.0493,-3.5856,7.0015,0.0051,-3.9322,0.0442,-0.0065,0.0345,1.4503
0.7870,-0.0493,-3.5885,7.0073,0.0051,-3.9351,0.0442,-0.0065,0.0345,1.4503
0.7880,-0.0493,-3.5914,7.0131,0.0051,-3.9379,0.0442,-0.0065,0.0345,1.4503
0.7890,-0.0493,-3.5943,7.0188,0.0051,-3.9407,0.0442,-0.0065,0.0345,1.4503
0.7900,-0.0493,-3.5971,7.0245,0.0051,-3.9435,0.0443,-0.0065,0.0345,1.4503
0.7910,-0.0493,-3.6000,7.0303,0.0051,-3.9463,0.0443,-0.0065,0.0345,1.4503
0.7920,-0.0493,-3.6029,7.0360,0.0051,-3.9492,0.0443,-0.0065,0.0345,1.4503
0.7930,-0.0493,-3.6057,7.0418,0.0051,-3.9520,0.0443,-0.0065,0.0345,1.4503
0.7940,-0.0494,-3.6086,7.0475,0.0051,-3.9548,0.0443,-0.0066,0.0345,1.4503
0.7950,-0.0494,-3.6115,7.0532,0.0051,-3.9576,0.0443,-0.0066,0.0345,1.4503
0.7960,-0.0494,-3.6143,7.0589,0.0050,-3.9604,0.0443,-0.0066,0.0345,1.4503
0.7970,-0.0494,-3.6172,7.0647,0.0050,-3.9632,0.0444,-0.0066,0.0345,1.4502
0.7980,-0.0494,-3.6201,7.0704,0.0050,-3.9660,0.0444,-0.0066,0.0345,1.4502
0.7990,-0.0494,-3.6229,7.0761,0.0050,-3.9688,0.0444,-0.0066,0.0345,1.4502
0.8000,-0.0494,-3.6258,7.0818,0.0050,-3.9716,0.0444,-0.0066,0.0345,1.4502
0.8010,-0.0494,-3.6286,7.0875,0.0050,-3.9744,0.0444,-0.0066,0.0345,1.4502
0.8020,-0.0495,-3.6315,7.0932,0.0050,-3.9772,0.0444,-0.0066,0.0345,1.4502
0.8030,-0.0495,-3.6343,7.0989,0.0050,-3.9800,0.0444,-0.0066,0.0345,1.4502
0.8040,-0.0495,-3.6372,7.1046,0.0050,-3.9828,0.0445,-0.0066,0.0345,1.4502
0.8050,-0.0495,-3.6400,7.1103,0.0050,-3.9856,0.0445,-0.0066,0.0345,1.4502
0.8060,-0.0495,-3.6429,7.1160,0.0050,-3.9884,0.0445,-0.0066,0.0345,1.4502
0.8070,-0.0495,-3.6457,7.1216,0.0050,-3.9912,0.0445,-0.0066,0.0345,1.4502
0.8080,-0.0495,-3.6486,7.1273,0.0050,-3.9939,0.0445,-0.0066,0.0345,1.4502
0.8090,-0.0495,-3.6514,7.1330,0.0050,-3.9967,0.0445,-0.0066,0.0345,1.4502
0.8100,-0.0496,-3.6542,7.1387,0.0050,-3.9995,0.0445,-0.0066,0.0345,1.4502
0.8110,-0.0496,-3.6571,7.1443,0.0050,-4.0023,0.0446,-0.0066,0.0345,1.4502
0.8120,-0.0496,-3.6599,7.1500,0.0050,-4.0051,0.0446,-0.0066,0.0345,1.4502
0.8130,-0.0496,-3.6627,7.1557,0.0050,-4.0078,0.0446,-0.0066,0.0345,1.4502
0.8140,-0.0496,-3.6656,7.1613,0.0050,-4.0106,0.0446,-0.0066,0.0345,1.4502
0.8150,-0.0496,-3.6684,7.1670,0.0050,-4.0134,0.0446,-0.0066,0.0345,1.4502
0.8160,-0.0496,-3.6712,7.1726,0.0050,-4.0162,0.0446,-0.0066,0.0345,1.4502
0.8170,-0.0496,-3.6741,7.1783,0.0050,-4.0189,0.0446,-0.0066,0.0345,1.4502
0.8180,-0.0496,-3.6769,7.1839,0.0050,-4.0217,0.0446,-0.0066,0.0345,1.4502
0.8190,-0.0497,-3.6797,7.1896,0.0050,-4.0245,0.0447,-0.0066,0.0345,1.4502
0.8200,-0.0497,-3.6825,7.1952,0.0050,-4.0272,0.0447,-0.0066,0.0345,1.4502
0.8210,-0.0497,-3.6854,7.2008,0.0050,-4.0300,0.0447,-0.0066,0.0345,1.4502
0.8220,-0.0497,-3.6882,7.2064,0.0050,-4.0327,0.0447,-0.0066,0.0345,1.4502
0.8230,-0.0497,-3.6910,7.2121,0.0050,-4.0355,0.0447,-0.0066,0.0345,1.4502
0.8240,-0.0497,-3.6938,7.2177,0.0050,-4.0382,0.0447,-0.0066,0.0345,1.4502
0.8250,-0.0497,-3.6966,7.2233,0.0050,-4.0410,0.0447,-0.0066,0.0345,1.4501
0.8260,-0.0497,-3.6994,7.2289,0.0050,-4.0438,0.0448,-0.0066,0.0345,1.4501
0.8270,-0.0498,-3.7022,7.2345,0.0050,-4.0465,0.0448,-0.0066,0.0345,1.4501
0.8280,-0.0498,-3.7050,7.2401,0.0050,-4.0492,0.0448,-0.0067,0.0345,1.4501
0.8290,-0.0498,-3.7079,7.2458,0.0050,-4.0520,0.0448,-0.0067,0.0345,1.4501
0.8300,-0.0498,-3.7107,7.2514,0.0050,-4.0547,0.0448,-0.0067,0.0345,1.4501
0.8310,-0.0498,-3.7135,7.2569,0.0050,-4.0575,0.0448,-0.0067,0.0345,1.4501
0.8320,-0.0498,-3.7163,7.2625,0.0050,-4.0602,0.0448,-0.0067,0.0345,1.4501
0.8330,-0.0498,-3.7191,7.2681,0.0050,-4.0630,0.0449,-0.0067,0.0345,1.4501
0.8340,-0.0498,-3.7219,7.2737,0.0050,-4.0657,0.0449,-0.0067,0.0345,1.4501
0.8350,-0.0498,-3.7247,7.2793,0.0050,-4.0684,0.0449,-0.0067,0.0345,1.4501
0.8360,-0.0499,-3.7275,7.2849,0.0050,-4.0712,0.0449,-0.0067,0.0345,1.4501
0.8370,-0.0499,-3.7302,7.2905,0.0050,-4.0739,0.0449,-0.0067,0.0345,1.4501
0.8380,-0.0499,-3.7330,7.2960,0.0050,-4.0766,0.0449,-0.0067,0.0345,1.4501
0.8390,-0.0499,-3.7358,7.3016,0.0050,-4.0793,0.0449,-0.0067,0.0345,1.4501
0.8400,-0.0499,-3.7386,7.3072,0.0050,-4.0821,0.0449,-0.0067,0.0345,1.4501
0.8410,-0.0499,-3.7414,7.3127,0.0050,-4.0848,0.0450,-0.0067,0.0345,1.4501
0.8420,-0.0499,-3.7442,7.3183,0.0050,-4.0875,0.0450,-0.0067,0.0345,1.4501
0.8430,-0.0499,-3.7470,7.3238,0.0050,-4.0902,0.0450,-0.0067,0.0345,1.4501
0.8440,-0.0500,-3.7498,7.3294,0.0050,-4.0930,0.0450,-0.0067,0.0345,1.4501
0.8450,-0.0500,-3.7525,7.3349,0.0050,-4.0957,0.0450,-0.0067,0.0345,1.4501
0.8460,-0.0500,-3.7553,7.3405,0.0050,-4.0984,0.0450,-0.0067,0.0345,1.4501
0.8470,-0.0500,-3.7581,7.3460,0.0050,-4.1011,0.0450,-0.0067,0.0345,1.4501
0.8480,-0.0500,-3.7609,7.3516,0.0050,-4.1038,0.0451,-0.0067,0.0345,1.4501
0.8490,-0.0500,-3.7636,7.3571,0.0050,-4.1065,0.0451,-0.0067,0.0345,1.4501
0.8500,-0.0500,-3.7664,7.3626,0.0050,-4.1092,0.0451,-0.0067,0.0345,1.4501
0.8510,-0.0500,-3.7692,7.3682,0.0050,-4.1119,0.0451,-0.0067,0.0345,1.4501
0.8520,-0.0500,-3.7720,7.3737,0.0050,-4.1146,0.0451,-0.0067,0.0345,1.4500
0.8530,-0.0501,-3.7747,7.3792,0.0050,-4.1173,0.0451,-0.0067,0.0345,1.4500
0.8540,-0.0501,-3.7775,7.3847,0.0049,-4.1200,0.0451,-0.0067,0.0345,1.4500
0.8550,-0.0501,-3.7802,7.3902,0.0049,-4.1227,0.0451,-0.0067,0.0345,1.4500
0.8560,-0.0501,-3.7830,7.3958,0.0049,-4.1254,0.0452,-0.0067,0.0345,1.4500
0.8570,-0.0501,-3.7858,7.4013,0.0049,-4.1281,0.0452,-0.0067,0.0345,1.4500
0.8580,-0.0501,-3.7885,7.4068,0.0049,-4.1308,0.0452,-0.0067,0.0345,1.4500
0.8590,-0.0501,-3.7913,7.4123,0.0049,-4.1335,0.0452,-0.0067,0.0345,1.4500
0.8600,-0.0501,-3.7940,7.4178,0.0049,-4.1362,0.0452,-0.0067,0.0345,1.4500
0.8610,-0.0501,-3.7968,7.4233,0.0049,-4.1389,0.0452,-0.0067,0.0345,1.4500
0.8620,-0.0502,-3.7996,7.4288,0.0049,-4.1416,0.0452,-0.0068,0.0345,1.4500
0.8630,-0.0502,-3.8023,7.4342,0.0049,-4.1443,0.0452,-0.0068,0.0345,1.4500
0.8640,-0.0502,-3.8051,7.4397,0.0049,-4.1470,0.0453,-0.0068,0.0345,1.4500
0.8650,-0.0502,-3.8078,7.4452,0.0049,-4.1496,0.0453,-0.0068,0.0345,1.4500
0.8660,-0.0502,-3.8106,7.4507,0.0049,-4.1523,0.0453,-0.0068,0.0345,1.4500
0.8670,-0.0502,-3.8133,7.4562,0.0049,-4.1550,0.0453,-0.0068,0.0345,1.4500
0.8680,-0.0502,-3.8160,7.4616,0.0049,-4.1577,0.0453,-0.0068,0.0345,1.4500
0.8690,-0.0502,-3.8188,7.4671,0.0049,-4.1604,0.0453,-0.0068,0.0345,1.4500
0.8700,-0.0502,-3.8215,7.4726,0.0049,-4.1630,0.0453,-0.0068,0.0345,1.4500
0.8710,-0.0503,-3.8243,7.4780,0.0049,-4.1657,0.0453,-0.0068,0.0345,1.4500
0.8720,-0.0503,-3.8270,7.4835,0.0049,-4.1684,0.0454,-0.0068,0.0345,1.4500
0.8730,-0.0503,-3.8297,7.4890,0.0049,-4.1710,0.0454,-0.0068,0.0345,1.4500
0.8740,-0.0503,-3.8325,7.4944,0.0049,-4.1737,0.0454,-0.0068,0.0345,1.4500
0.8750,-0.0503,-3.8352,7.4999,0.0049,-4.1764,0.0454,-0.0068,0.0345,1.4500
0.8760,-0.0503,-3.8379,7.5053,0.0049,-4.1790,0.0454,-0.0068,0.0345,1.4500
0.8770,-0.0503,-3.8407,7.5107,0.0049,-4.1817,0.0454,-0.0068,0.0345,1.4500
0.8780,-0.0503,-3.8434,7.5162,0.0049,-4.1844,0.0454,-0.0068,0.0345,1.4500
0.8790,-0.0503,-3.8461,7.5216,0.0049,-4.1870,0.0454,-0.0068,0.0345,1.4499
0.8800,-0.0504,-3.8489,7.5271,0.0049,-4.1897,0.0455,-0.0068,0.0345,1.4499
0.8810,-0.0504,-3.8516,7.5325,0.0049,-4.1923,0.0455,-0.0068,0.0345,1.4499
0.8820,-0.0504,-3.8543,7.5379,0.0049,-4.1950,0.0455,-0.0068,0.0345,1.4499
0.8830,-0.0504,-3.8570,7.5433,0.0049,-4.1976,0.0455,-0.0068,0.0345,1.4499
0.8840,-0.0504,-3.8597,7.5488,0.0049,-4.2003,0.0455,-0.0068,0.0345,1.4499
0.8850,-0.0504,-3.8625,7.5542,0.0049,-4.2029,0.0455,-0.0068,0.0345,1.4499
0.8860,-0.0504,-3.8652,7.5596,0.0049,-4.2056,0.0455,-0.0068,0.0345,1.4499
0.8870,-0.0504,-3.8679,7.5650,0.0049,-4.2082,0.0455,-0.0068,0.0345,1.4499
0.8880,-0.0504,-3.8706,7.5704,0.0049,-4.2109,0.0456,-0.0068,0.0345,1.4499
0.8890,-0.0504,-3.8733,7.5758,0.0049,-4.2135,0.0456,-0.0068,0.0345,1.4499
0.8900,-0.0505,-3.8760,7.5812,0.0049,-4.2161,0.0456,-0.0068,0.0345,1.4499
0.8910,-0.0505,-3.8787,7.5866,0.0049,-4.2188,0.0456,-0.0068,0.0345,1.4499
0.8920,-0.0505,-3.8814,7.5920,0.0049,-4.2214,0.0456,-0.0068,0.0345,1.4499
0.8930,-0.0505,-3.8841,7.5974,0.0049,-4.2240,0.0456,-0.0068,0.0345,1.4499
0.8940,-0.0505,-3.8868,7.6028,0.0049,-4.2267,0.0456,-0.0068,0.0345,1.4499
0.8950,-0.0505,-3.8896,7.6082,0.0049,-4.2293,0.0456,-0.0068,0.0345,1.4499
0.8960,-0.0505,-3.8923,7.6135,0.0049,-4.2319,0.0457,-0.0069,0.0345,1.4499
0.8970,-0.0505,-3.8950,7.6189,0.0049,-4.2346,0.0457,-0.0069,0.0345,1.4499
0.8980,-0.0505,-3.8977,7.6243,0.0049,-4.2372,0.0457,-0.0069,0.0345,1.4499
0.8990,-0.0506,-3.9003,7.6297,0.0049,-4.2398,0.0457,-0.0069,0.0345,1.4499
0.9000,-0.0506,-3.9030,7.6350,0.0049,-4.2424,0.0457,-0.0069,0.0345,1.4499
0.9010,-0.0506,-3.9057,7.6404,0.0049,-4.2451,0.0457,-0.0069,0.0345,1.4499
0.9020,-0.0506,-3.9084,7.6458,0.0049,-4.2477,0.0457,-0.0069,0.0345,1.4499
0.9030,-0.0506,-3.9111,7.6511,0.0049,-4.2503,0.0457,-0.0069,0.0345,1.4499
0.9040,-0.0506,-3.9138,7.6565,0.0049,-4.2529,0.0458,-0.0069,0.0345,1.4499
0.9050,-0.0506,-3.9165,7.6618,0.0049,-4.2555,0.0458,-0.0069,0.0345,1.4499
0.9060,-0.0506,-3.9192,7.6672,0.0049,-4.2581,0.0458,-0.0069,0.0345,1.4498
0.9070,-0.0506,-3.9219,7.6725,0.0049,-4.2608,0.0458,-0.0069,0.0345,1.4498
0.9080,-0.0506,-3.9246,7.6779,0.0049,-4.2634,0.0458,-0.0069,0.0345,1.4498
0.9090,-0.0507,-3.9272,7.6832,0.0049,-4.2660,0.0458,-0.0069,0.0345,1.4498
0.9100,-0.0507,-3.9299,7.6886,0.0049,-4.2686,0.0458,-0.0069,0.0345,1.4498
0.9110,-0.0507,-3.9326,7.6939,0.0049,-4.2712,0.0458,-0.0069,0.0345,1.4498
0.9120,-0.0507,-3.9353,7.6992,0.0049,-4.2738,0.0458,-0.0069,0.0345,1.4498
0.9130,-0.0507,-3.9380,7.7046,0.0049,-4.2764,0.0459,-0.0069,0.0345,1.4498
0.9140,-0.0507,-3.9406,7.7099,0.0048,-4.2790,0.0459,-0.0069,0.0345,1.4498
0.9150,-0.0507,-3.9433,7.7152,0.0048,-4.2816,0.0459,-0.0069,0.0345,1.4498
0.9160,-0.0507,-3.9460,7.7205,0.0048,-4.2842,0.0459,-0.0069,0.0345,1.4498
0.9170,-0.0507,-3.9486,7.7259,0.0048,-4.2868,0.0459,-0.0069,0.0345,1.4498
0.9180,-0.0507,-3.9513,7.7312,0.0048,-4.2894,0.0459,-0.0069,0.0345,1.4498
0.9190,-0.0508,-3.9540,7.7365,0.0048,-4.2920,0.0459,-0.0069,0.0345,1.4498
0.9200,-0.0508,-3.9566,7.7418,0.0048,-4.2946,0.0459,-0.0069,0.0345,1.4498
0.9210,-0.0508,-3.9593,7.7471,0.0048,-4.2971,0.0460,-0.0069,0.0345,1.4498
0.9220,-0.0508,-3.9620,7.7524,0.0048,-4.2997,0.0460,-0.0069,0.0345,1.4498
0.9230,-0.0508,-3.9646,7.7577,0.0048,-4.3023,0.0460,-0.0069,0.0345,1.4498
0.9240,-0.0508,-3.9673,7.7630,0.0048,-4.3049,0.0460,-0.0069,0.0345,1.4498
0.9250,-0.0508,-3.9700,7.7683,0.0048,-4.3075,0.0460,-0.0069,0.0345,1.4498
0.9260,-0.0508,-3.9726,7.7736,0.0048,-4.3101,0.0460,-0.0069,0.0345,1.4498
0.9270,-0.0508,-3.9753,7.7789,0.0048,-4.3127,0.0460,-0.0069,0.0345,1.4498
0.9280,-0.0508,-3.9779,7.7842,0.0048,-4.3152,0.0460,-0.0069,0.0345,1.4498
0.9290,-0.0509,-3.9806,7.7894,0.0048,-4.3178,0.0460,-0.0070,0.0345,1.4498
0.9300,-0.0509,-3.9832,7.7947,0.0048,-4.3204,0.0461,-0.0070,0.0345,1.4498
0.9310,-0.0509,-3.9859,7.8000,0.0048,-4.3230,0.0461,-0.0070,0.0345,1.4498
0.9320,-0.0509,-3.9885,7.8053,0.0048,-4.3255,0.0461,-0.0070,0.0345,1.4498
0.9330,-0.0509,-3.9912,7.8105,0.0048,-4.3281,0.0461,-0.0070,0.0345,1.4498
0.9340,-0.0509,-3.9938,7.8158,0.0048,-4.3307,0.0461,-0.0070,0.0345,1.4497
0.9350,-0.0509,-3.9965,7.8211,0.0048,-4.3332,0.0461,-0.0070,0.0345,1.4497
0.9360,-0.0509,-3.9991,7.8263,0.0048,-4.3358,0.0461,-0.0070,0.0345,1.4497
0.9370,-0.0509,-4.0018,7.8316,0.0048,-4.3384,0.0461,-0.0070,0.0345,1.4497
0.9380,-0.0509,-4.0044,7.8368,0.0048,-4.3409,0.0461,-0.0070,0.0345,1.4497
0.9390,-0.0510,-4.0070,7.8421,0.0048,-4.3435,0.0462,-0.0070,0.0345,1.4497
0.9400,-0.0510,-4.0097,7.8473,0.0048,-4.3460,0.0462,-0.0070,0.0345,1.4497
0.9410,-0.0510,-4.0123,7.8526,0.0048,-4.3486,0.0462,-0.0070,0.0345,1.4497
0.9420,-0.0510,-4.0150,7.8578,0.0048,-4.3512,0.0462,-0.0070,0.0345,1.4497
0.9430,-0.0510,-4.0176,7.8631,0.0048,-4.3537,0.0462,-0.0070,0.0345,1.4497
0.9440,-0.0510,-4.0202,7.8683,0.0048,-4.3563,0.0462,-0.0070,0.0345,1.4497
0.9450,-0.0510,-4.0229,7.8735,0.0048,-4.3588,0.0462,-0.0070,0.0345,1.4497
0.9460,-0.0510,-4.0255,7.8788,0.0048,-4.3614,0.0462,-0.0070,0.0345,1.4497
0.9470,-0.0510,-4.0281,7.8840,0.0048,-4.3639,0.0462,-0.0070,0.0345,1.4497
0.9480,-0.0510,-4.0307,7.8892,0.0048,-4.3665,0.0463,-0.0070,0.0345,1.4497
0.9490,-0.0510,-4.0334,7.8945,0.0048,-4.3690,0.0463,-0.0070,0.0345,1.4497
0.9500,-0.0511,-4.0360,7.8997,0.0048,-4.3716,0.0463,-0.0070,0.0345,1.4497
0.9510,-0.0511,-4.0386,7.9049,0.0048,-4.3741,0.0463,-0.0070,0.0345,1.4497
0.9520,-0.0511,-4.0412,7.9101,0.0048,-4.3766,0.0463,-0.0070,0.0345,1.4497
0.9530,-0.0511,-4.0439,7.9153,0.0048,-4.3792,0.0463,-0.0070,0.0345,1.4497
0.9540,-0.0511,-4.0465,7.9205,0.0048,-4.3817,0.0463,-0.0070,0.0345,1.4497
0.9550,-0.0511,-4.0491,7.9257,0.0048,-4.3843,0.0463,-0.0070,0.0345,1.4497
0.9560,-0.0511,-4.0517,7.9309,0.0048,-4.3868,0.0463,-0.0070,0.0345,1.4497
0.9570,-0.0511,-4.0543,7.9361,0.0048,-4.3893,0.0464,-0.0070,0.0345,1.4497
0.9580,-0.0511,-4.0569,7.9413,0.0048,-4.3919,0.0464,-0.0070,0.0345,1.4497
0.9590,-0.0511,-4.0595,7.9465,0.0048,-4.3944,0.0464,-0.0070,0.0345,1.4497
0.9600,-0.0512,-4.0622,7.9517,0.0048,-4.3969,0.0464,-0.0070,0.0345,1.4497
0.9610,-0.0512,-4.0648,7.9569,0.0048,-4.3995,0.0464,-0.0070,0.0345,1.4496
0.9620,-0.0512,-4.0674,7.9621,0.0048,-4.4020,0.0464,-0.0070,0.0345,1.4496
0.9630,-0.0512,-4.0700,7.9673,0.0048,-4.4045,0.0464,-0.0071,0.0345,1.4496
0.9640,-0.0512,-4.0726,7.9725,0.0048,-4.4070,0.0464,-0.0071,0.0345,1.4496
0.9650,-0.0512,-4.0752,7.9776,0.0048,-4.4096,0.0464,-0.0071,0.0345,1.4496
0.9660,-0.0512,-4.0778,7.9828,0.0048,-4.4121,0.0465,-0.0071,0.0345,1.4496
0.9670,-0.0512,-4.0804,7.9880,0.0048,-4.4146,0.0465,-0.0071,0.0345,1.4496
0.9680,-0.0512,-4.0830,7.9931,0.0048,-4.4171,0.0465,-0.0071,0.0345,1.4496
0.9690,-0.0512,-4.0856,7.9983,0.0048,-4.4196,0.0465,-0.0071,0.0345,1.4496
0.9700,-0.0512,-4.0882,8.0035,0.0048,-4.4221,0.0465,-0.0071,0.0345,1.4496
0.9710,-0.0513,-4.0908,8.0086,0.0048,-4.4247,0.0465,-0.0071,0.0345,1.4496
0.9720,-0.0513,-4.0934,8.0138,0.0048,-4.4272,0.0465,-0.0071,0.0345,1.4496
0.9730,-0.0513,-4.0960,8.0189,0.0048,-4.4297,0.0465,-0.0071,0.0345,1.4496
0.9740,-0.0513,-4.0986,8.0241,0.0048,-4.4322,0.0465,-0.0071,0.0345,1.4496
0.9750,-0.0513,-4.1012,8.0293,0.0048,-4.4347,0.0466,-0.0071,0.0345,1.4496
0.9760,-0.0513,-4.1038,8.0344,0.0047,-4.4372,0.0466,-0.0071,0.0345,1.4496
0.9770,-0.0513,-4.1063,8.0395,0.0047,-4.4397,0.0466,-0.0071,0.0345,1.4496
0.9780,-0.0513,-4.1089,8.0447,0.0047,-4.4422,0.0466,-0.0071,0.0345,1.4496
0.9790,-0.0513,-4.1115,8.0498,0.0047,-4.4447,0.0466,-0.0071,0.0345,1.4496
0.9800,-0.0513,-4.1141,8.0550,0.0047,-4.4472,0.0466,-0.0071,0.0345,1.4496
0.9810,-0.0513,-4.1167,8.0601,0.0047,-4.4497,0.0466,-0.0071,0.0345,1.4496
0.9820,-0.0514,-4.1193,8.0652,0.0047,-4.4522,0.0466,-0.0071,0.0345,1.4496
0.9830,-0.0514,-4.1218,8.0703,0.0047,-4.4547,0.0466,-0.0071,0.0345,1.4496
0.9840,-0.0514,-4.1244,8.0755,0.0047,-4.4572,0.0466,-0.0071,0.0345,1.4496
0.9850,-0.0514,-4.1270,8.0806,0.0047,-4.4597,0.0467,-0.0071,0.0345,1.4496
0.9860,-0.0514,-4.1296,8.0857,0.0047,-4.4622,0.0467,-0.0071,0.0345,1.4496
0.9870,-0.0514,-4.1322,8.0908,0.0047,-4.4647,0.0467,-0.0071,0.0345,1.4495
0.9880,-0.0514,-4.1347,8.0959,0.0047,-4.4672,0.0467,-0.0071,0.0345,1.4495
0.9890,-0.0514,-4.1373,8.1011,0.0047,-4.4696,0.0467,-0.0071,0.0345,1.4495
0.9900,-0.0514,-4.1399,8.1062,0.0047,-4.4721,0.0467,-0.0071,0.0345,1.4495
0.9910,-0.0514,-4.1424,8.1113,0.0047,-4.4746,0.0467,-0.0071,0.0345,1.4495
0.9920,-0.0514,-4.1450,8.1164,0.0047,-4.4771,0.0467,-0.0071,0.0345,1.4495
0.9930,-0.0514,-4.1476,8.1215,0.0047,-4.4796,0.0467,-0.0071,0.0345,1.4495
0.9940,-0.0515,-4.1501,8.1266,0.0047,-4.4821,0.0468,-0.0071,0.0345,1.4495
0.9950,-0.0515,-4.1527,8.1317,0.0047,-4.4845,0.0468,-0.0071,0.0345,1.4495
0.9960,-0.0515,-4.1553,8.1368,0.0047,-4.4870,0.0468,-0.0071,0.0345,1.4495
0.9970,-0.0515,-4.1578,8.1418,0.0047,-4.4895,0.0468,-0.0072,0.0345,1.4495
0.9980,-0.0515,-4.1604,8.1469,0.0047,-4.4920,0.0468,-0.0072,0.0345,1.4495
0.9990,-0.0515,-4.1630,8.1520,0.0047,-4.4944,0.0468,-0.0072,0.0345,1.4495
1.0000,-0.0515,-4.1655,8.1571,0.0047,-4.4969,0.0468,-0.0072,0.0345,1.4495
1.0010,-0.0515,-4.1681,8.1622,0.0047,-4.4994,0.0468,-0.0072,0.0345,1.4495
1.0020,-0.0515,-4.1706,8.1673,0.0047,-4.5019,0.0468,-0.0072,0.0345,1.4495
1.0030,-0.0515,-4.1732,8.1723,0.0047,-4.5043,0.0468,-0.0072,0.0345,1.4495
1.0040,-0.0515,-4.1757,8.1774,0.0047,-4.5068,0.0469,-0.0072,0.0345,1.4495
1.0050,-0.0516,-4.1783,8.1825,0.0047,-4.5093,0.0469,-0.0072,0.0345,1.4495
1.0060,-0.0516,-4.1808,8.1875,0.0047,-4.5117,0.0469,-0.0072,0.0345,1.4495
1.0070,-0.0516,-4.1834,8.1926,0.0047,-4.5142,0.0469,-0.0072,0.0345,1.4495
1.0080,-0.0516,-4.1859,8.1977,0.0047,-4.5166,0.0469,-0.0072,0.0345,1.4495
1.0090,-0.0516,-4.1885,8.2027,0.0047,-4.5191,0.0469,-0.0072,0.0345,1.4495
1.0100,-0.0516,-4.1910,8.2078,0.0047,-4.5216,0.0469,-0.0072,0.0345,1.4495
1.0110,-0.0516,-4.1936,8.2128,0.0047,-4.5240,0.0469,-0.0072,0.0345,1.4495
1.0120,-0.0516,-4.1961,8.2179,0.0047,-4.5265,0.0469,-0.0072,0.0345,1.4495
1.0130,-0.0516,-4.1987,8.2229,0.0047,-4.5289,0.0469,-0.0072,0.0345,1.4495
1.0140,-0.0516,-4.2012,8.2280,0.0047,-4.5314,0.0470,-0.0072,0.0345,1.4494
1.0150,-0.0516,-4.2037,8.2330,0.0047,-4.5338,0.0470,-0.0072,0.0345,1.4494
1.0160,-0.0516,-4.2063,8.2380,0.0047,-4.5363,0.0470,-0.0072,0.0345,1.4494
1.0170,-0.0517,-4.2088,8.2431,0.0047,-4.5387,0.0470,-0.0072,0.0345,1.4494
1.0180,-0.0517,-4.2114,8.2481,0.0047,-4.5412,0.0470,-0.0072,0.0345,1.4494
1.0190,-0.0517,-4.2139,8.2531,0.0047,-4.5436,0.0470,-0.0072,0.0345,1.4494
1.0200,-0.0517,-4.2164,8.2582,0.0047,-4.5461,0.0470,-0.0072,0.0345,1.4494
1.0210,-0.0517,-4.2190,8.2632,0.0047,-4.5485,0.0470,-0.0072,0.0345,1.4494
1.0220,-0.0517,-4.2215,8.2682,0.0047,-4.5509,0.0470,-0.0072,0.0345,1.4494
1.0230,-0.0517,-4.2240,8.2732,0.0047,-4.5534,0.0470,-0.0072,0.0345,1.4494
1.0240,-0.0517,-4.2265,8.2783,0.0047,-4.5558,0.0471,-0.0072,0.0345,1.4494
1.0250,-0.0517,-4.2291,8.2833,0.0047,-4.5583,0.0471,-0.0072,0.0345,1.4494
1.0260,-0.0517,-4.2316,8.2883,0.0047,-4.5607,0.0471,-0.0072,0.0345,1.4494
1.0270,-0.0517,-4.2341,8.2933,0.0047,-4.5631,0.0471,-0.0072,0.0345,1.4494
1.0280,-0.0517,-4.2367,8.2983,0.0047,-4.5656,0.0471,-0.0072,0.0345,1.4494
1.0290,-0.0518,-4.2392,8.3033,0.0047,-4.5680,0.0471,-0.0072,0.0345,1.4494
1.0300,-0.0518,-4.2417,8.3083,0.0047,-4.5704,0.0471,-0.0072,0.0345,1.4494
1.0310,-0.0518,-4.2442,8.3133,0.0047,-4.5729,0.0471,-0.0073,0.0345,1.4494
1.0320,-0.0518,-4.2467,8.3183,0.0047,-4.5753,0.0471,-0.0073,0.0345,1.4494
1.0330,-0.0518,-4.2493,8.3233,0.0047,-4.5777,0.0471,-0.0073,0.0345,1.4494
1.0340,-0.0518,-4.2518,8.3283,0.0047,-4.5801,0.0472,-0.0073,0.0345,1.4494
1.0350,-0.0518,-4.2543,8.3333,0.0047,-4.5826,0.0472,-0.0073,0.0345,1.4494
1.0360,-0.0518,-4.2568,8.3383,0.0047,-4.5850,0.0472,-0.0073,0.0345,1.4494
1.0370,-0.0518,-4.2593,8.3433,0.0047,-4.5874,0.0472,-0.0073,0.0345,1.4494
1.0380,-0.0518,-4.2618,8.3482,0.0047,-4.5898,0.0472,-0.0073,0.0345,1.4494
1.0390,-0.0518,-4.2643,8.3532,0.0046,-4.5923,0.0472,-0.0073,0.0345,1.4494
1.0400,-0.0518,-4.2668,8.3582,0.0046,-4.5947,0.0472,-0.0073,0.0345,1.4494
1.0410,-0.0519,-4.2694,8.3632,0.0046,-4.5971,0.0472,-0.0073,0.0345,1.4493
1.0420,-0.0519,-4.2719,8.3682,0.0046,-4.5995,0.0472,-0.0073,0.0345,1.4493
1.0430,-0.0519,-4.2744,8.3731,0.0046,-4.6019,0.0472,-0.0073,0.0345,1.4493
1.0440,-0.0519,-4.2769,8.3781,0.0046,-4.6043,0.0472,-0.0073,0.0345,1.4493
1.0450,-0.0519,-4.2794,8.3831,0.0046,-4.6067,0.0473,-0.0073,0.0345,1.4493
1.0460,-0.0519,-4.2819,8.3880,0.0046,-4.6091,0.0473,-0.0073,0.0345,1.4493
1.0470,-0.0519,-4.2844,8.3930,0.0046,-4.6116,0.0473,-0.0073,0.0345,1.4493
1.0480,-0.0519,-4.2869,8.3979,0.0046,-4.6140,0.0473,-0.0073,0.0345,1.4493
1.0490,-0.0519,-4.2894,8.4029,0.0046,-4.6164,0.0473,-0.0073,0.0345,1.4493
1.0500,-0.0519,-4.2919,8.4078,0.0046,-4.6188,0.0473,-0.0073,0.0345,1.4493
1.0510,-0.0519,-4.2944,8.4128,0.0046,-4.6212,0.0473,-0.0073,0.0345,1.4493
1.0520,-0.0519,-4.2969,8.4177,0.0046,-4.6236,0.0473,-0.0073,0.0345,1.4493
1.0530,-0.0519,-4.2994,8.4227,0.0046,-4.6260,0.0473,-0.0073,0.0345,1.4493
1.0540,-0.0520,-4.3019,8.4276,0.0046,-4.6284,0.0473,-0.0073,0.0345,1.4493
1.0550,-0.0520,-4.3043,8.4326,0.0046,-4.6308,0.0474,-0.0073,0.0345,1.4493
1.0560,-0.0520,-4.3068,8.4375,0.0046,-4.6332,0.0474,-0.0073,0.0345,1.4493
1.0570,-0.0520,-4.3093,8.4424,0.0046,-4.6356,0.0474,-0.0073,0.0345,1.4493
1.0580,-0.0520,-4.3118,8.4474,0.0046,-4.6380,0.0474,-0.0073,0.0345,1.4493
1.0590,-0.0520,-4.3143,8.4523,0.0046,-4.6404,0.0474,-0.0073,0.0345,1.4493
1.0600,-0.0520,-4.3168,8.4572,0.0046,-4.6427,0.0474,-0.0073,0.0345,1.4493
1.0610,-0.0520,-4.3193,8.4622,0.0046,-4.6451,0.0474,-0.0073,0.0345,1.4493
1.0620,-0.0520,-4.3218,8.4671,0.0046,-4.6475,0.0474,-0.0073,0.0345,1.4493
1.0630,-0.0520,-4.3242,8.4720,0.0046,-4.6499,0.0474,-0.0073,0.0345,1.4493
1.0640,-0.0520,-4.3267,8.4769,0.0046,-4.6523,0.0474,-0.0073,0.0345,1.4493
1.0650,-0.0520,-4.3292,8.4818,0.0046,-4.6547,0.0474,-0.0074,0.0345,1.4493
1.0660,-0.0520,-4.3317,8.4867,0.0046,-4.6571,0.0475,-0.0074,0.0345,1.4493
1.0670,-0.0521,-4.3342,8.4917,0.0046,-4.6594,0.0475,-0.0074,0.0345,1.4493
1.0680,-0.0521,-4.3366,8.4966,0.0046,-4.6618,0.0475,-0.0074,0.0345,1.4492
1.0690,-0.0521,-4.3391,8.5015,0.0046,-4.6642,0.0475,-0.0074,0.0345,1.4492
1.0700,-0.0521,-4.3416,8.5064,0.0046,-4.6666,0.0475,-0.0074,0.0345,1.4492
1.0710,-0.0521,-4.3441,8.5113,0.0046,-4.6690,0.0475,-0.0074,0.0345,1.4492
1.0720,-0.0521,-4.3465,8.5162,0.0046,-4.6713,0.0475,-0.0074,0.0345,1.4492
1.0730,-0.0521,-4.3490,8.5211,0.0046,-4.6737,0.0475,-0.0074,0.0345,1.4492
1.0740,-0.0521,-4.3515,8.5260,0.0046,-4.6761,0.0475,-0.0074,0.0345,1.4492
1.0750,-0.0521,-4.3539,8.5309,0.0046,-4.6785,0.0475,-0.0074,0.0345,1.4492
1.0760,-0.0521,-4.3564,8.5357,0.0046,-4.6808,0.0475,-0.0074,0.0345,1.4492
1.0770,-0.0521,-4.3589,8.5406,0.0046,-4.6832,0.0476,-0.0074,0.0345,1.4492
1.0780,-0.0521,-4.3613,8.5455,0.0046,-4.6856,0.0476,-0.0074,0.0345,1.4492
1.0790,-0.0521,-4.3638,8.5504,0.0046,-4.6879,0.0476,-0.0074,0.0345,1.4492
1.0800,-0.0522,-4.3663,8.5553,0.0046,-4.6903,0.0476,-0.0074,0.0345,1.4492
1.0810,-0.0522,-4.3687,8.5602,0.0046,-4.6927,0.0476,-0.0074,0.0345,1.4492
1.0820,-0.0522,-4.3712,8.5650,0.0046,-4.6950,0.0476,-0.0074,0.0345,1.4492
1.0830,-0.0522,-4.3736,8.5699,0.0046,-4.6974,0.0476,-0.0074,0.0345,1.4492
1.0840,-0.0522,-4.3761,8.5748,0.0046,-4.6998,0.0476,-0.0074,0.0345,1.4492
1.0850,-0.0522,-4.3786,8.5796,0.0046,-4.7021,0.0476,-0.0074,0.0345,1.4492
1.0860,-0.0522,-4.3810,8.5845,0.0046,-4.7045,0.0476,-0.0074,0.0345,1.4492
1.0870,-0.0522,-4.3835,8.5894,0.0046,-4.7068,0.0476,-0.0074,0.0345,1.4492
1.0880,-0.0522,-4.3859,8.5942,0.0046,-4.7092,0.0477,-0.0074,0.0345,1.4492
1.0890,-0.0522,-4.3884,8.5991,0.0046,-4.7115,0.0477,-0.0074,0.0345,1.4492
1.0900,-0.0522,-4.3908,8.6039,0.0046,-4.7139,0.0477,-0.0074,0.0345,1.4492
1.0910,-0.0522,-4.3933,8.6088,0.0046,-4.7163,0.0477,-0.0074,0.0345,1.4492
1.0920,-0.0522,-4.3957,8.6136,0.0046,-4.7186,0.0477,-0.0074,0.0345,1.4492
1.0930,-0.0522,-4.3982,8.6185,0.0046,-4.7210,0.0477,-0.0074,0.0345,1.4492
1.0940,-0.0523,-4.4006,8.6233,0.0046,-4.7233,0.0477,-0.0074,0.0345,1.4492
1.0950,-0.0523,-4.4031,8.6282,0.0046,-4.7256,0.0477,-0.0074,0.0345,1.4491
1.0960,-0.0523,-4.4055,8.6330,0.0046,-4.7280,0.0477,-0.0074,0.0345,1.4491
1.0970,-0.0523,-4.4080,8.6379,0.0046,-4.7303,0.0477,-0.0074,0.0345,1.4491
1.0980,-0.0523,-4.4104,8.6427,0.0046,-4.7327,0.0477,-0.0074,0.0345,1.4491
1.0990,-0.0523,-4.4128,8.6475,0.0046,-4.7350,0.0477,-0.0075,0.0345,1.4491
1.1000,-0.0523,-4.4153,8.6524,0.0046,-4.7374,0.0478,-0.0075,0.0345,1.4491
1.1010,-0.0523,-4.4177,8.6572,0.0046,-4.7397,0.0478,-0.0075,0.0345,1.4491
1.1020,-0.0523,-4.4202,8.6620,0.0046,-4.7420,0.0478,-0.0075,0.0345,1.4491
1.1030,-0.0523,-4.4226,8.6668,0.0046,-4.7444,0.0478,-0.0075,0.0345,1.4491
1.1040,-0.0523,-4.4250,8.6717,0.0046,-4.7467,0.0478,-0.0075,0.0345,1.4491
1.1050,-0.0523,-4.4275,8.6765,0.0045,-4.7491,0.0478,-0.0075,0.0345,1.4491
1.1060,-0.0523,-4.4299,8.6813,0.0045,-4.7514,0.0478,-0.0075,0.0345,1.4491
1.1070,-0.0523,-4.4323,8.6861,0.0045,-4.7537,0.0478,-0.0075,0.0345,1.4491
1.1080,-0.0524,-4.4348,8.6909,0.0045,-4.7561,0.0478,-0.0075,0.0345,1.4491
1.1090,-0.0524,-4.4372,8.6958,0.0045,-4.7584,0.0478,-0.0075,0.0345,1.4491
1.1100,-0.0524,-4.4396,8.7006,0.0045,-4.7607,0.0478,-0.0075,0.0345,1.4491
1.1110,-0.0524,-4.4421,8.7054,0.0045,-4.7630,0.0479,-0.0075,0.0345,1.4491
1.1120,-0.0524,-4.4445,8.7102,0.0045,-4.7654,0.0479,-0.0075,0.0345,1.4491
1.1130,-0.0524,-4.4469,8.7150,0.0045,-4.7677,0.0479,-0.0075,0.0345,1.4491
1.1140,-0.0524,-4.4493,8.7198,0.0045,-4.7700,0.0479,-0.0075,0.0345,1.4491
1.1150,-0.0524,-4.4518,8.7246,0.0045,-4.7723,0.0479,-0.0075,0.0345,1.4491
1.1160,-0.0524,-4.4542,8.7294,0.0045,-4.7747,0.0479,-0.0075,0.0345,1.4491
1.1170,-0.0524,-4.4566,8.7342,0.0045,-4.7770,0.0479,-0.0075,0.0345,1.4491
1.1180,-0.0524,-4.4590,8.7390,0.0045,-4.7793,0.0479,-0.0075,0.0345,1.4491
1.1190,-0.0524,-4.4614,8.7437,0.0045,-4.7816,0.0479,-0.0075,0.0345,1.4491
1.1200,-0.0524,-4.4639,8.7485,0.0045,-4.7839,0.0479,-0.0075,0.0345,1.4491
1.1210,-0.0524,-4.4663,8.7533,0.0045,-4.7863,0.0479,-0.0075,0.0345,1.4490
1.1220,-0.0525,-4.4687,8.7581,0.0045,-4.7886,0.0479,-0.0075,0.0345,1.4490
1.1230,-0.0525,-4.4711,8.7629,0.0045,-4.7909,0.0480,-0.0075,0.0345,1.4490
1.1240,-0.0525,-4.4735,8.7676,0.0045,-4.7932,0.0480,-0.0075,0.0345,1.4490
1.1250,-0.0525,-4.4759,8.7724,0.0045,-4.7955,0.0480,-0.0075,0.0345,1.4490
1.1260,-0.0525,-4.4784,8.7772,0.0045,-4.7978,0.0480,-0.0075,0.0345,1.4490
1.1270,-0.0525,-4.4808,8.7820,0.0045,-4.8001,0.0480,-0.0075,0.0345,1.4490
1.1280,-0.0525,-4.4832,8.7867,0.0045,-4.8024,0.0480,-0.0075,0.0345,1.4490
1.1290,-0.0525,-4.4856,8.7915,0.0045,-4.8047,0.0480,-0.0075,0.0345,1.4490
1.1300,-0.0525,-4.4880,8.7963,0.0045,-4.8071,0.0480,-0.0075,0.0345,1.4490
1.1310,-0.0525,-4.4904,8.8010,0.0045,-4.8094,0.0480,-0.0075,0.0345,1.4490
1.1320,-0.0525,-4.4928,8.8058,0.0045,-4.8117,0.0480,-0.0075,0.0345,1.4490
1.1330,-0.0525,-4.4952,8.8105,0.0045,-4.8140,0.0480,-0.0076,0.0345,1.4490
1.1340,-0.0525,-4.4976,8.8153,0.0045,-4.8163,0.0480,-0.0076,0.0345,1.4490
1.1350,-0.0525,-4.5000,8.8201,0.0045,-4.8186,0.0481,-0.0076,0.0345,1.4490
1.1360,-0.0526,-4.5024,8.8248,0.0045,-4.8209,0.0481,-0.0076,0.0345,1.4490
1.1370,-0.0526,-4.5048,8.8296,0.0045,-4.8232,0.0481,-0.0076,0.0345,1.4490
1.1380,-0.0526,-4.5072,8.8343,0.0045,-4.8255,0.0481,-0.0076,0.0345,1.4490
1.1390,-0.0526,-4.5096,8.8390,0.0045,-4.8278,0.0481,-0.0076,0.0345,1.4490
1.1400,-0.0526,-4.5120,8.8438,0.0045,-4.8300,0.0481,-0.0076,0.0345,1.4490
1.1410,-0.0526,-4.5144,8.8485,0.0045,-4.8323,0.0481,-0.0076,0.0345,1.4490
1.1420,-0.0526,-4.5168,8.8533,0.0045,-4.8346,0.0481,-0.0076,0.0345,1.4490
1.1430,-0.0526,-4.5192,8.8580,0.0045,-4.8369,0.0481,-0.0076,0.0345,1.4490
1.1440,-0.0526,-4.5216,8.8627,0.0045,-4.8392,0.0481,-0.0076,0.0345,1.4490
1.1450,-0.0526,-4.5240,8.8675,0.0045,-4.8415,0.0481,-0.0076,0.0345,1.4490
1.1460,-0.0526,-4.5264,8.8722,0.0045,-4.8438,0.0481,-0.0076,0.0345,1.4490
1.1470,-0.0526,-4.5288,8.8769,0.0045,-4.8461,0.0482,-0.0076,0.0345,1.4490
1.1480,-0.0526,-4.5312,8.8816,0.0045,-4.8484,0.0482,-0.0076,0.0345,1.4489
1.1490,-0.0526,-4.5335,8.8864,0.0045,-4.8506,0.0482,-0.0076,0.0345,1.4489
1.1500,-0.0526,-4.5359,8.8911,0.0045,-4.8529,0.0482,-0.0076,0.0345,1.4489
1.1510,-0.0527,-4.5383,8.8958,0.0045,-4.8552,0.0482,-0.0076,0.0345,1.4489
1.1520,-0.0527,-4.5407,8.9005,0.0045,-4.8575,0.0482,-0.0076,0.0345,1.4489
1.1530,-0.0527,-4.5431,8.9052,0.0045,-4.8598,0.0482,-0.0076,0.0345,1.4489
1.1540,-0.0527,-4.5455,8.9099,0.0045,-4.8620,0.0482,-0.0076,0.0345,1.4489
1.1550,-0.0527,-4.5479,8.9146,0.0045,-4.8643,0.0482,-0.0076,0.0345,1.4489
1.1560,-0.0527,-4.5502,8.9194,0.0045,-4.8666,0.0482,-0.0076,0.0345,1.4489
1.1570,-0.0527,-4.5526,8.9241,0.0045,-4.8689,0.0482,-0.0076,0.0345,1.4489
1.1580,-0.0527,-4.5550,8.9288,0.0045,-4.8711,0.0482,-0.0076,0.0345,1.4489
1.1590,-0.0527,-4.5574,8.9335,0.0045,-4.8734,0.0482,-0.0076,0.0345,1.4489
1.1600,-0.0527,-4.5597,8.9382,0.0045,-4.8757,0.0483,-0.0076,0.0345,1.4489
1.1610,-0.0527,-4.5621,8.9429,0.0045,-4.8780,0.0483,-0.0076,0.0345,1.4489
1.1620,-0.0527,-4.5645,8.9475,0.0045,-4.8802,0.0483,-0.0076,0.0345,1.4489
1.1630,-0.0527,-4.5669,8.9522,0.0045,-4.8825,0.0483,-0.0076,0.0345,1.4489
1.1640,-0.0527,-4.5692,8.9569,0.0045,-4.8848,0.0483,-0.0076,0.0345,1.4489
1.1650,-0.0527,-4.5716,8.9616,0.0045,-4.8870,0.0483,-0.0076,0.0345,1.4489
1.1660,-0.0527,-4.5740,8.9663,0.0045,-4.8893,0.0483,-0.0076,0.0345,1.4489
1.1670,-0.0528,-4.5764,8.9710,0.0045,-4.8916,0.0483,-0.0077,0.0345,1.4489
1.1680,-0.0528,-4.5787,8.9757,0.0045,-4.8938,0.0483,-0.0077,0.0345,1.4489
1.1690,-0.0528,-4.5811,8.9803,0.0045,-4.8961,0.0483,-0.0077,0.0345,1.4489
1.1700,-0.0528,-4.5835,8.9850,0.0045,-4.8983,0.0483,-0.0077,0.0345,1.4489
1.1710,-0.0528,-4.5858,8.9897,0.0045,-4.9006,0.0483,-0.0077,0.0345,1.4489
1.1720,-0.0528,-4.5882,8.9944,0.0045,-4.9029,0.0484,-0.0077,0.0345,1.4489
1.1730,-0.0528,-4.5906,8.9990,0.0044,-4.9051,0.0484,-0.0077,0.0345,1.4489
1.1740,-0.0528,-4.5929,9.0037,0.0044,-4.9074,0.0484,-0.0077,0.0345,1.4488
1.1750,-0.0528,-4.5953,9.0084,0.0044,-4.9096,0.0484,-0.0077,0.0345,1.4488
1.1760,-0.0528,-4.5976,9.0130,0.0044,-4.9119,0.0484,-0.0077,0.0345,1.4488
1.1770,-0.0528,-4.6000,9.0177,0.0044,-4.9141,0.0484,-0.0077,0.0345,1.4488
1.1780,-0.0528,-4.6024,9.0224,0.0044,-4.9164,0.0484,-0.0077,0.0345,1.4488
1.1790,-0.0528,-4.6047,9.0270,0.0044,-4.9186,0.0484,-0.0077,0.0345,1.4488
1.1800,-0.0528,-4.6071,9.0317,0.0044,-4.9209,0.0484,-0.0077,0.0345,1.4488
1.1810,-0.0528,-4.6094,9.0363,0.0044,-4.9231,0.0484,-0.0077,0.0345,1.4488
1.1820,-0.0528,-4.6118,9.0410,0.0044,-4.9254,0.0484,-0.0077,0.0345,1.4488
1.1830,-0.0529,-4.6141,9.0456,0.0044,-4.9276,0.0484,-0.0077,0.0345,1.4488
1.1840,-0.0529,-4.6165,9.0503,0.0044,-4.9299,0.0484,-0.0077,0.0345,1.4488
1.1850,-0.0529,-4.6188,9.0549,0.0044,-4.9321,0.0485,-0.0077,0.0345,1.4488
1.1860,-0.0529,-4.6212,9.0596,0.0044,-4.9344,0.0485,-0.0077,0.0345,1.4488
1.1870,-0.0529,-4.6235,9.0642,0.0044,-4.9366,0.0485,-0.0077,0.0345,1.4488
1.1880,-0.0529,-4.6259,9.0688,0.0044,-4.9388,0.0485,-0.0077,0.0345,1.4488
1.1890,-0.0529,-4.6282,9.0735,0.0044,-4.9411,0.0485,-0.0077,0.0345,1.4488
1.1900,-0.0529,-4.6306,9.0781,0.0044,-4.9433,0.0485,-0.0077,0.0345,1.4488
1.1910,-0.0529,-4.6329,9.0828,0.0044,-4.9455,0.0485,-0.0077,0.0345,1.4488
1.1920,-0.0529,-4.6353,9.0874,0.0044,-4.9478,0.0485,-0.0077,0.0345,1.4488
1.1930,-0.0529,-4.6376,9.0920,0.0044,-4.9500,0.0485,-0.0077,0.0345,1.4488
1.1940,-0.0529,-4.6400,9.0966,0.0044,-4.9523,0.0485,-0.0077,0.0345,1.4488
1.1950,-0.0529,-4.6423,9.1013,0.0044,-4.9545,0.0485,-0.0077,0.0345,1.4488
1.1960,-0.0529,-4.6447,9.1059,0.0044,-4.9567,0.0485,-0.0077,0.0345,1.4488
1.1970,-0.0529,-4.6470,9.1105,0.0044,-4.9589,0.0485,-0.0077,0.0345,1.4488
1.1980,-0.0529,-4.6493,9.1151,0.0044,-4.9612,0.0485,-0.0077,0.0345,1.4488
1.1990,-0.0530,-4.6517,9.1197,0.0044,-4.9634,0.0486,-0.0077,0.0345,1.4488
1.2000,-0.0530,-4.6540,9.1244,0.0044,-4.9656,0.0486,-0.0077,0.0345,1.4488
1.2010,-0.0530,-4.6563,9.1290,0.0044,-4.9679,0.0486,-0.0078,0.0345,1.4487
1.2020,-0.0530,-4.6587,9.1336,0.0044,-4.9701,0.0486,-0.0078,0.0345,1.4487
1.2030,-0.0530,-4.6610,9.1382,0.0044,-4.9723,0.0486,-0.0078,0.0345,1.4487
1.2040,-0.0530,-4.6633,9.1428,0.0044,-4.9745,0.0486,-0.0078,0.0345,1.4487
1.2050,-0.0530,-4.6657,9.1474,0.0044,-4.9768,0.0486,-0.0078,0.0345,1.4487
1.2060,-0.0530,-4.6680,9.1520,0.0044,-4.9790,0.0486,-0.0078,0.0345,1.4487
1.2070,-0.0530,-4.6703,9.1566,0.0044,-4.9812,0.0486,-0.0078,0.0345,1.4487
1.2080,-0.0530,-4.6727,9.1612,0.0044,-4.9834,0.0486,-0.0078,0.0345,1.4487
1.2090,-0.0530,-4.6750,9.1658,0.0044,-4.9856,0.0486,-0.0078,0.0345,1.4487
1.2100,-0.0530,-4.6773,9.1704,0.0044,-4.9879,0.0486,-0.0078,0.0345,1.4487
1.2110,-0.0530,-4.6797,9.1750,0.0044,-4.9901,0.0486,-0.0078,0.0345,1.4487
1.2120,-0.0530,-4.6820,9.1796,0.0044,-4.9923,0.0487,-0.0078,0.0345,1.4487
1.2130,-0.0530,-4.6843,9.1842,0.0044,-4.9945,0.0487,-0.0078,0.0345,1.4487
1.2140,-0.0530,-4.6866,9.1887,0.0044,-4.9967,0.0487,-0.0078,0.0345,1.4487
1.2150,-0.0530,-4.6889,9.1933,0.0044,-4.9989,0.0487,-0.0078,0.0345,1.4487
1.2160,-0.0531,-4.6913,9.1979,0.0044,-5.0011,0.0487,-0.0078,0.0345,1.4487
1.2170,-0.0531,-4.6936,9.2025,0.0044,-5.0033,0.0487,-0.0078,0.0345,1.4487
1.2180,-0.0531,-4.6959,9.2071,0.0044,-5.0055,0.0487,-0.0078,0.0345,1.4487
1.2190,-0.0531,-4.6982,9.2116,0.0044,-5.0078,0.0487,-0.0078,0.0345,1.4487
1.2200,-0.0531,-4.7005,9.2162,0.0044,-5.0100,0.0487,-0.0078,0.0345,1.4487
1.2210,-0.0531,-4.7029,9.2208,0.0044,-5.0122,0.0487,-0.0078,0.0345,1.4487
1.2220,-0.0531,-4.7052,9.2254,0.0044,-5.0144,0.0487,-0.0078,0.0345,1.4487
1.2230,-0.0531,-4.7075,9.2299,0.0044,-5.0166,0.0487,-0.0078,0.0345,1.4487
1.2240,-0.0531,-4.7098,9.2345,0.0044,-5.0188,0.0487,-0.0078,0.0345,1.4487
1.2250,-0.0531,-4.7121,9.2391,0.0044,-5.0210,0.0487,-0.0078,0.0345,1.4487
1.2260,-0.0531,-4.7144,9.2436,0.0044,-5.0232,0.0488,-0.0078,0.0345,1.4487
1.2270,-0.0531,-4.7167,9.2482,0.0044,-5.0254,0.0488,-0.0078,0.0345,1.4486
1.2280,-0.0531,-4.7191,9.2527,0.0044,-5.0276,0.0488,-0.0078,0.0345,1.4486
1.2290,-0.0531,-4.7214,9.2573,0.0044,-5.0298,0.0488,-0.0078,0.0345,1.4486
1.2300,-0.0531,-4.7237,9.2619,0.0044,-5.0320,0.0488,-0.0078,0.0345,1.4486
1.2310,-0.0531,-4.7260,9.2664,0.0044,-5.0342,0.0488,-0.0078,0.0345,1.4486
1.2320,-0.0531,-4.7283,9.2710,0.0044,-5.0364,0.0488,-0.0078,0.0345,1.4486
1.2330,-0.0532,-4.7306,9.2755,0.0044,-5.0386,0.0488,-0.0078,0.0345,1.4486
1.2340,-0.0532,-4.7329,9.2801,0.0044,-5.0407,0.0488,-0.0078,0.0345,1.4486
1.2350,-0.0532,-4.7352,9.2846,0.0044,-5.0429,0.0488,-0.0079,0.0345,1.4486
1.2360,-0.0532,-4.7375,9.2891,0.0044,-5.0451,0.0488,-0.0079,0.0345,1.4486
1.2370,-0.0532,-4.7398,9.2937,0.0044,-5.0473,0.0488,-0.0079,0.0345,1.4486
1.2380,-0.0532,-4.7421,9.2982,0.0044,-5.0495,0.0488,-0.0079,0.0345,1.4486
1.2390,-0.0532,-4.7444,9.3028,0.0044,-5.0517,0.0488,-0.0079,0.0345,1.4486
1.2400,-0.0532,-4.7467,9.3073,0.0044,-5.0539,0.0489,-0.0079,0.0345,1.4486
1.2410,-0.0532,-4.7490,9.3118,0.0044,-5.0561,0.0489,-0.0079,0.0345,1.4486
1.2420,-0.0532,-4.7513,9.3164,0.0044,-5.0582,0.0489,-0.0079,0.0345,1.4486
1.2430,-0.0532,-4.7536,9.3209,0.0044,-5.0604,0.0489,-0.0079,0.0345,1.4486
1.2440,-0.0532,-4.7559,9.3254,0.0043,-5.0626,0.0489,-0.0079,0.0345,1.4486
1.2450,-0.0532,-4.7582,9.3299,0.0043,-5.0648,0.0489,-0.0079,0.0345,1.4486
1.2460,-0.0532,-4.7605,9.3345,0.0043,-5.0670,0.0489,-0.0079,0.0345,1.4486
1.2470,-0.0532,-4.7628,9.3390,0.0043,-5.0691,0.0489,-0.0079,0.0345,1.4486
1.2480,-0.0532,-4.7651,9.3435,0.0043,-5.0713,0.0489,-0.0079,0.0345,1.4486
1.2490,-0.0532,-4.7674,9.3480,0.0043,-5.0735,0.0489,-0.0079,0.0345,1.4486
1.2500,-0.0532,-4.7697,9.3525,0.0043,-5.0757,0.0489,-0.0079,0.0345,1.4486
1.2510,-0.0533,-4.7719,9.3570,0.0043,-5.0779,0.0489,-0.0079,0.0345,1.4486
1.2520,-0.0533,-4.7742,9.3616,0.0043,-5.0800,0.0489,-0.0079,0.0345,1.4486
1.2530,-0.0533,-4.7765,9.3661,0.0043,-5.0822,0.0489,-0.0079,0.0345,1.4485
1.2540,-0.0533,-4.7788,9.3706,0.0043,-5.0844,0.0489,-0.0079,0.0345,1.4485
1.2550,-0.0533,-4.7811,9.3751,0.0043,-5.0865,0.0490,-0.0079,0.0345,1.4485
1.2560,-0.0533,-4.7834,9.3796,0.0043,-5.0887,0.0490,-0.0079,0.0345,1.4485
1.2570,-0.0533,-4.7857,9.3841,0.0043,-5.0909,0.0490,-0.0079,0.0345,1.4485
1.2580,-0.0533,-4.7879,9.3886,0.0043,-5.0930,0.0490,-0.0079,0.0345,1.4485
1.2590,-0.0533,-4.7902,9.3931,0.0043,-5.0952,0.0490,-0.0079,0.0345,1.4485
1.2600,-0.0533,-4.7925,9.3976,0.0043,-5.0974,0.0490,-0.0079,0.0345,1.4485
1.2610,-0.0533,-4.7948,9.4021,0.0043,-5.0995,0.0490,-0.0079,0.0345,1.4485
1.2620,-0.0533,-4.7971,9.4066,0.0043,-5.1017,0.0490,-0.0079,0.0345,1.4485
1.2630,-0.0533,-4.7994,9.4111,0.0043,-5.1039,0.0490,-0.0079,0.0345,1.4485
1.2640,-0.0533,-4.8016,9.4156,0.0043,-5.1060,0.0490,-0.0079,0.0345,1.4485
1.2650,-0.0533,-4.8039,9.4200,0.0043,-5.1082,0.0490,-0.0079,0.0345,1.4485
1.2660,-0.0533,-4.8062,9.4245,0.0043,-5.1104,0.0490,-0.0079,0.0345,1.4485
1.2670,-0.0533,-4.8085,9.4290,0.0043,-5.1125,0.0490,-0.0079,0.0345,1.4485
1.2680,-0.0533,-4.8107,9.4335,0.0043,-5.1147,0.0490,-0.0080,0.0345,1.4485
1.2690,-0.0533,-4.8130,9.4380,0.0043,-5.1168,0.0491,-0.0080,0.0345,1.4485
1.2700,-0.0534,-4.8153,9.4424,0.0043,-5.1190,0.0491,-0.0080,0.0345,1.4485
1.2710,-0.0534,-4.8175,9.4469,0.0043,-5.1211,0.0491,-0.0080,0.0345,1.4485
1.2720,-0.0534,-4.8198,9.4514,0.0043,-5.1233,0.0491,-0.0080,0.0345,1.4485
1.2730,-0.0534,-4.8221,9.4559,0.0043,-5.1254,0.0491,-0.0080,0.0345,1.4485
1.2740,-0.0534,-4.8244,9.4603,0.0043,-5.1276,0.0491,-0.0080,0.0345,1.4485
1.2750,-0.0534,-4.8266,9.4648,0.0043,-5.1297,0.0491,-0.0080,0.0345,1.4485
1.2760,-0.0534,-4.8289,9.4693,0.0043,-5.1319,0.0491,-0.0080,0.0345,1.4485
1.2770,-0.0534,-4.8312,9.4737,0.0043,-5.1340,0.0491,-0.0080,0.0345,1.4485
1.2780,-0.0534,-4.8334,9.4782,0.0043,-5.1362,0.0491,-0.0080,0.0345,1.4485
1.2790,-0.0534,-4.8357,9.4827,0.0043,-5.1383,0.0491,-0.0080,0.0345,1.4485
1.2800,-0.0534,-4.8380,9.4871,0.0043,-5.1405,0.0491,-0.0080,0.0345,1.4484
1.2810,-0.0534,-4.8402,9.4916,0.0043,-5.1426,0.0491,-0.0080,0.0345,1.4484
1.2820,-0.0534,-4.8425,9.4960,0.0043,-5.1448,0.0491,-0.0080,0.0345,1.4484
1.2830,-0.0534,-4.8447,9.5005,0.0043,-5.1469,0.0491,-0.0080,0.0345,1.4484
1.2840,-0.0534,-4.8470,9.5049,0.0043,-5.1491,0.0492,-0.0080,0.0345,1.4484
1.2850,-0.0534,-4.8493,9.5094,0.0043,-5.1512,0.0492,-0.0080,0.0345,1.4484
1.2860,-0.0534,-4.8515,9.5138,0.0043,-5.1533,0.0492,-0.0080,0.0345,1.4484
1.2870,-0.0534,-4.8538,9.5183,0.0043,-5.1555,0.0492,-0.0080,0.0345,1.4484
1.2880,-0.0534,-4.8560,9.5227,0.0043,-5.1576,0.0492,-0.0080,0.0345,1.4484
1.2890,-0.0535,-4.8583,9.5272,0.0043,-5.1598,0.0492,-0.0080,0.0345,1.4484
1.2900,-0.0535,-4.8605,9.5316,0.0043,-5.1619,0.0492,-0.0080,0.0345,1.4484
1.2910,-0.0535,-4.8628,9.5360,0.0043,-5.1640,0.0492,-0.0080,0.0345,1.4484
1.2920,-0.0535,-4.8650,9.5405,0.0043,-5.1662,0.0492,-0.0080,0.0345,1.4484
1.2930,-0.0535,-4.8673,9.5449,0.0043,-5.1683,0.0492,-0.0080,0.0345,1.4484
1.2940,-0.0535,-4.8695,9.5494,0.0043,-5.1704,0.0492,-0.0080,0.0345,1.4484
1.2950,-0.0535,-4.8718,9.5538,0.0043,-5.1726,0.0492,-0.0080,0.0345,1.4484
1.2960,-0.0535,-4.8740,9.5582,0.0043,-5.1747,0.0492,-0.0080,0.0345,1.4484
1.2970,-0.0535,-4.8763,9.5626,0.0043,-5.1768,0.0492,-0.0080,0.0345,1.4484
1.2980,-0.0535,-4.8785,9.5671,0.0043,-5.1790,0.0492,-0.0080,0.0345,1.4484
1.2990,-0.0535,-4.8808,9.5715,0.0043,-5.1811,0.0492,-0.0080,0.0345,1.4484
1.3000,-0.0535,-4.8830,9.5759,0.0043,-5.1832,0.0493,-0.0080,0.0345,1.4484
1.3010,-0.0535,-4.8853,9.5803,0.0043,-5.1853,0.0493,-0.0080,0.0345,1.4484
1.3020,-0.0535,-4.8875,9.5848,0.0043,-5.1875,0.0493,-0.0081,0.0345,1.4484
1.3030,-0.0535,-4.8898,9.5892,0.0043,-5.1896,0.0493,-0.0081,0.0345,1.4484
1.3040,-0.0535,-4.8920,9.5936,0.0043,-5.1917,0.0493,-0.0081,0.0345,1.4484
1.3050,-0.0535,-4.8943,9.5980,0.0043,-5.1938,0.0493,-0.0081,0.0345,1.4484
1.3060,-0.0535,-4.8965,9.6024,0.0043,-5.1960,0.0493,-0.0081,0.0345,1.4483
1.3070,-0.0535,-4.8987,9.6068,0.0043,-5.1981,0.0493,-0.0081,0.0345,1.4483
1.3080,-0.0535,-4.9010,9.6112,0.0043,-5.2002,0.0493,-0.0081,0.0345,1.4483
1.3090,-0.0536,-4.9032,9.6156,0.0043,-5.2023,0.0493,-0.0081,0.0345,1.4483
1.3100,-0.0536,-4.9055,9.6200,0.0043,-5.2044,0.0493,-0.0081,0.0345,1.4483
1.3110,-0.0536,-4.9077,9.6244,0.0043,-5.2065,0.0493,-0.0081,0.0345,1.4483
1.3120,-0.0536,-4.9099,9.6288,0.0043,-5.2087,0.0493,-0.0081,0.0345,1.4483
1.3130,-0.0536,-4.9122,9.6332,0.0043,-5.2108,0.0493,-0.0081,0.0345,1.4483
1.3140,-0.0536,-4.9144,9.6376,0.0043,-5.2129,0.0493,-0.0081,0.0345,1.4483
1.3150,-0.0536,-4.9166,9.6420,0.0043,-5.2150,0.0493,-0.0081,0.0345,1.4483
1.3160,-0.0536,-4.9189,9.6464,0.0043,-5.2171,0.0494,-0.0081,0.0345,1.4483
1.3170,-0.0536,-4.9211,9.6508,0.0043,-5.2192,0.0494,-0.0081,0.0345,1.4483
1.3180,-0.0536,-4.9233,9.6552,0.0042,-5.2213,0.0494,-0.0081,0.0345,1.4483
1.3190,-0.0536,-4.9256,9.6596,0.0042,-5.2234,0.0494,-0.0081,0.0345,1.4483
1.3200,-0.0536,-4.9278,9.6640,0.0042,-5.2256,0.0494,-0.0081,0.0345,1.4483
1.3210,-0.0536,-4.9300,9.6684,0.0042,-5.2277,0.0494,-0.0081,0.0345,1.4483
1.3220,-0.0536,-4.9322,9.6728,0.0042,-5.2298,0.0494,-0.0081,0.0345,1.4483
1.3230,-0.0536,-4.9345,9.6771,0.0042,-5.2319,0.0494,-0.0081,0.0345,1.4483
1.3240,-0.0536,-4.9367,9.6815,0.0042,-5.2340,0.0494,-0.0081,0.0345,1.4483
1.3250,-0.0536,-4.9389,9.6859,0.0042,-5.2361,0.0494,-0.0081,0.0345,1.4483
1.3260,-0.0536,-4.9411,9.6903,0.0042,-5.2382,0.0494,-0.0081,0.0345,1.4483
1.3270,-0.0536,-4.9434,9.6946,0.0042,-5.2403,0.0494,-0.0081,0.0345,1.4483
1.3280,-0.0536,-4.9456,9.6990,0.0042,-5.2424,0.0494,-0.0081,0.0345,1.4483
1.3290,-0.0537,-4.9478,9.7034,0.0042,-5.2445,0.0494,-0.0081,0.0345,1.4483
1.3300,-0.0537,-4.9500,9.7078,0.0042,-5.2466,0.0494,-0.0081,0.0345,1.4483
1.3310,-0.0537,-4.9522,9.7121,0.0042,-5.2487,0.0494,-0.0081,0.0345,1.4483
1.3320,-0.0537,-4.9545,9.7165,0.0042,-5.2508,0.0495,-0.0081,0.0345,1.4482
1.3330,-0.0537,-4.9567,9.7209,0.0042,-5.2529,0.0495,-0.0081,0.0345,1.4482
1.3340,-0.0537,-4.9589,9.7252,0.0042,-5.2550,0.0495,-0.0081,0.0345,1.4482
1.3350,-0.0537,-4.9611,9.7296,0.0042,-5.2571,0.0495,-0.0081,0.0345,1.4482
1.3360,-0.0537,-4.9633,9.7339,0.0042,-5.2592,0.0495,-0.0082,0.0345,1.4482
1.3370,-0.0537,-4.9656,9.7383,0.0042,-5.2613,0.0495,-0.0082,0.0345,1.4482
1.3380,-0.0537,-4.9678,9.7426,0.0042,-5.2633,0.0495,-0.0082,0.0345,1.4482
1.3390,-0.0537,-4.9700,9.7470,0.0042,-5.2654,0.0495,-0.0082,0.0345,1.4482
1.3400,-0.0537,-4.9722,9.7514,0.0042,-5.2675,0.0495,-0.0082,0.0345,1.4482
1.3410,-0.0537,-4.9744,9.7557,0.0042,-5.2696,0.0495,-0.0082,0.0345,1.4482
1.3420,-0.0537,-4.9766,9.7600,0.0042,-5.2717,0.0495,-0.0082,0.0345,1.4482
1.3430,-0.0537,-4.9788,9.7644,0.0042,-5.2738,0.0495,-0.0082,0.0345,1.4482
1.3440,-0.0537,-4.9810,9.7687,0.0042,-5.2759,0.0495,-0.0082,0.0345,1.4482
1.3450,-0.0537,-4.9832,9.7731,0.0042,-5.2780,0.0495,-0.0082,0.0345,1.4482
1.3460,-0.0537,-4.9854,9.7774,0.0042,-5.2800,0.0495,-0.0082,0.0345,1.4482
1.3470,-0.0537,-4.9877,9.7818,0.0042,-5.2821,0.0495,-0.0082,0.0345,1.4482
1.3480,-0.0537,-4.9899,9.7861,0.0042,-5.2842,0.0495,-0.0082,0.0345,1.4482
1.3490,-0.0537,-4.9921,9.7904,0.0042,-5.2863,0.0496,-0.0082,0.0345,1.4482
