GriTRini/uon_rt/demo/trajectory_data.csv
Time,Mode,Q1,Q2,Q3,Q4,Q5,Q6,X,Y,Z
0,TRAPJ,5.98652e-05,0,0,0,0,0,-3.60471e-08,0.0345,1.4525
0.001,TRAPJ,0.000239461,0,0,0,0,0,-1.44189e-07,0.0345,1.4525
0.002,TRAPJ,0.000538787,0,0,0,0,0,-3.24424e-07,0.0345,1.4525
0.003,TRAPJ,0.000957843,0,0,0,0,0,-5.76754e-07,0.0345,1.4525
0.004,TRAPJ,0.00149663,0,0,0,0,0,-9.01178e-07,0.0345,1.4525
0.005,TRAPJ,0.00215515,0,0,0,0,0,-1.2977e-06,0.0345,1.4525
0.006,TRAPJ,0.00293339,0,0,0,0,0,-1.76631e-06,0.0345,1.4525
0.007,TRAPJ,0.00383137,0,0,0,0,0,-2.30702e-06,0.0345,1.4525
0.008,TRAPJ,0.00484908,0,0,0,0,0,-2.91982e-06,0.0345,1.4525
0.009,TRAPJ,0.00598652,0,0,0,0,0,-3.60471e-06,0.0345,1.4525
0.01,TRAPJ,0.00724369,0,0,0,0,0,-4.3617e-06,0.0345,1.4525
0.011,TRAPJ,0.00862059,0,0,0,0,0,-5.19079e-06,0.0345,1.4525
0.012,TRAPJ,0.0101172,0,0,0,0,0,-6.09197e-06,0.0345,1.4525
0.013,TRAPJ,0.0117336,0,0,0,0,0,-7.06524e-06,0.0345,1.4525
0.014,TRAPJ,0.0134697,0,0,0,0,0,-8.11061e-06,0.0345,1.4525
0.015,TRAPJ,0.0153255,0,0,0,0,0,-9.22807e-06,0.0345,1.4525
0.016,TRAPJ,0.017301,0,0,0,0,0,-1.04176e-05,0.0345,1.4525
0.017,TRAPJ,0.0193963,0,0,0,0,0,-1.16793e-05,0.0345,1.4525
0.018,TRAPJ,0.0216113,0,0,0,0,0,-1.3013e-05,0.0345,1.4525
0.019,TRAPJ,0.0239461,0,0,0,0,0,-1.44189e-05,0.0345,1.4525
0.02,TRAPJ,0.0264005,0,0,0,0,0,-1.58968e-05,0.0345,1.4525
0.021,TRAPJ,0.0289747,0,0,0,0,0,-1.74468e-05,0.0345,1.4525
0.022,TRAPJ,0.0316687,0,0,0,0,0,-1.90689e-05,0.0345,1.4525
0.023,TRAPJ,0.0344823,0,0,0,0,0,-2.07631e-05,0.0345,1.4525
0.024,TRAPJ,0.0374157,0,0,0,0,0,-2.25295e-05,0.0345,1.4525
0.025,TRAPJ,0.0404689,0,0,0,0,0,-2.43679e-05,0.0345,1.4525
0.026,TRAPJ,0.0436417,0,0,0,0,0,-2.62784e-05,0.0345,1.4525
0.027,TRAPJ,0.0469343,0,0,0,0,0,-2.8261e-05,0.0345,1.4525
0.028,TRAPJ,0.0503466,0,0,0,0,0,-3.03156e-05,0.0345,1.4525
0.029,TRAPJ,0.0538787,0,0,0,0,0,-3.24424e-05,0.0345,1.4525
0.03,TRAPJ,0.0575304,0,0,0,0,0,-3.46413e-05,0.0345,1.4525
0.031,TRAPJ,0.0613019,0,0,0,0,0,-3.69123e-05,0.0345,1.4525
0.032,TRAPJ,0.0651932,0,0,0,0,0,-3.92553e-05,0.0345,1.4525
0.033,TRAPJ,0.0692042,0,0,0,0,0,-4.16705e-05,0.0345,1.4525
0.034,TRAPJ,0.0733348,0,0,0,0,0,-4.41577e-05,0.0345,1.4525
0.035,TRAPJ,0.0775853,0,0,0,0,0,-4.67171e-05,0.0345,1.4525
0.036,TRAPJ,0.0819554,0,0,0,0,0,-4.93485e-05,0.0345,1.4525
0.037,TRAPJ,0.0864453,0,0,0,0,0,-5.2052e-05,0.0345,1.4525
0.038,TRAPJ,0.0910549,0,0,0,0,0,-5.48277e-05,0.0345,1.4525
0.039,TRAPJ,0.0957843,0,0,0,0,0,-5.76754e-05,0.0345,1.4525
0.04,TRAPJ,0.100633,0,0,0,0,0,-6.05952e-05,0.0344999,1.4525
0.041,TRAPJ,0.105602,0,0,0,0,0,-6.35871e-05,0.0344999,1.4525
0.042,TRAPJ,0.110691,0,0,0,0,0,-6.66511e-05,0.0344999,1.4525
0.043,TRAPJ,0.115899,0,0,0,0,0,-6.97872e-05,0.0344999,1.4525
0.044,TRAPJ,0.121227,0,0,0,0,0,-7.29954e-05,0.0344999,1.4525
0.045,TRAPJ,0.126675,0,0,0,0,0,-7.62757e-05,0.0344999,1.4525
0.046,TRAPJ,0.132242,0,0,0,0,0,-7.96281e-05,0.0344999,1.4525
0.047,TRAPJ,0.137929,0,0,0,0,0,-8.30525e-05,0.0344999,1.4525
0.048,TRAPJ,0.143736,0,0,0,0,0,-8.65491e-05,0.0344999,1.4525
0.049,TRAPJ,0.149663,0,0,0,0,0,-9.01177e-05,0.0344999,1.4525
0.05,TRAPJ,0.155709,0,0,0,0,0,-9.37585e-05,0.0344999,1.4525
0.051,TRAPJ,0.161875,0,0,0,0,0,-9.74713e-05,0.0344999,1.4525
0.052,TRAPJ,0.168161,0,0,0,0,0,-0.000101256,0.0344999,1.4525
0.053,TRAPJ,0.174567,0,0,0,0,0,-0.000105113,0.0344998,1.4525
0.054,TRAPJ,0.181092,0,0,0,0,0,-0.000109042,0.0344998,1.4525
0.055,TRAPJ,0.187737,0,0,0,0,0,-0.000113044,0.0344998,1.4525
0.056,TRAPJ,0.194502,0,0,0,0,0,-0.000117117,0.0344998,1.4525
0.057,TRAPJ,0.201386,0,0,0,0,0,-0.000121262,0.0344998,1.4525
0.058,TRAPJ,0.208391,0,0,0,0,0,-0.00012548,0.0344998,1.4525
0.059,TRAPJ,0.215515,0,0,0,0,0,-0.000129769,0.0344998,1.4525
0.06,TRAPJ,0.222758,0,0,0,0,0,-0.000134131,0.0344997,1.4525
0.061,TRAPJ,0.230122,0,0,0,0,0,-0.000138565,0.0344997,1.4525
0.062,TRAPJ,0.237605,0,0,0,0,0,-0.000143071,0.0344997,1.4525
0.063,TRAPJ,0.245208,0,0,0,0,0,-0.000147649,0.0344997,1.4525
0.064,TRAPJ,0.25293,0,0,0,0,0,-0.000152299,0.0344997,1.4525
0.065,TRAPJ,0.260773,0,0,0,0,0,-0.000157021,0.0344996,1.4525
0.066,TRAPJ,0.268735,0,0,0,0,0,-0.000161815,0.0344996,1.4525
0.067,TRAPJ,0.276817,0,0,0,0,0,-0.000166681,0.0344996,1.4525
0.068,TRAPJ,0.285018,0,0,0,0,0,-0.00017162,0.0344996,1.4525
0.069,TRAPJ,0.293339,0,0,0,0,0,-0.00017663,0.0344995,1.4525
0.07,TRAPJ,0.30178,0,0,0,0,0,-0.000181713,0.0344995,1.4525
0.071,TRAPJ,0.310341,0,0,0,0,0,-0.000186867,0.0344995,1.4525
0.072,TRAPJ,0.319022,0,0,0,0,0,-0.000192094,0.0344995,1.4525
0.073,TRAPJ,0.327822,0,0,0,0,0,-0.000197393,0.0344994,1.4525
0.074,TRAPJ,0.336742,0,0,0,0,0,-0.000202764,0.0344994,1.4525
0.075,TRAPJ,0.345781,0,0,0,0,0,-0.000208207,0.0344994,1.4525
0.076,TRAPJ,0.354941,0,0,0,0,0,-0.000213722,0.0344993,1.4525
0.077,TRAPJ,0.36422,0,0,0,0,0,-0.000219309,0.0344993,1.4525
0.078,TRAPJ,0.373619,0,0,0,0,0,-0.000224969,0.0344993,1.4525
0.079,TRAPJ,0.383137,0,0,0,0,0,-0.0002307,0.0344992,1.4525
0.08,TRAPJ,0.392775,0,0,0,0,0,-0.000236503,0.0344992,1.4525
0.081,TRAPJ,0.402533,0,0,0,0,0,-0.000242379,0.0344991,1.4525
0.082,TRAPJ,0.412411,0,0,0,0,0,-0.000248327,0.0344991,1.4525
0.083,TRAPJ,0.422409,0,0,0,0,0,-0.000254346,0.0344991,1.4525
0.084,TRAPJ,0.432526,0,0,0,0,0,-0.000260438,0.034499,1.4525
0.085,TRAPJ,0.442763,0,0,0,0,0,-0.000266602,0.034499,1.4525
0.086,TRAPJ,0.45312,0,0,0,0,0,-0.000272838,0.0344989,1.4525
0.087,TRAPJ,0.463596,0,0,0,0,0,-0.000279146,0.0344989,1.4525
0.088,TRAPJ,0.474192,0,0,0,0,0,-0.000285526,0.0344988,1.4525
0.089,TRAPJ,0.484908,0,0,0,0,0,-0.000291978,0.0344988,1.4525
0.09,TRAPJ,0.495744,0,0,0,0,0,-0.000298503,0.0344987,1.4525
0.091,TRAPJ,0.506699,0,0,0,0,0,-0.000305099,0.0344987,1.4525
0.092,TRAPJ,0.517774,0,0,0,0,0,-0.000311767,0.0344986,1.4525
0.093,TRAPJ,0.528969,0,0,0,0,0,-0.000318508,0.0344985,1.4525
0.094,TRAPJ,0.540283,0,0,0,0,0,-0.000325321,0.0344985,1.4525
0.095,TRAPJ,0.551718,0,0,0,0,0,-0.000332205,0.0344984,1.4525
0.096,TRAPJ,0.563272,0,0,0,0,0,-0.000339162,0.0344983,1.4525
0.097,TRAPJ,0.574945,0,0,0,0,0,-0.000346191,0.0344983,1.4525
0.098,TRAPJ,0.586739,0,0,0,0,0,-0.000353292,0.0344982,1.4525
0.099,TRAPJ,0.598652,0,0,0,0,0,-0.000360465,0.0344981,1.4525
0.1,TRAPJ,0.610685,0,0,0,0,0,-0.00036771,0.034498,1.4525
0.101,TRAPJ,0.622837,0,0,0,0,0,-0.000375027,0.034498,1.4525
0.102,TRAPJ,0.63511,0,0,0,0,0,-0.000382416,0.0344979,1.4525
0.103,TRAPJ,0.647502,0,0,0,0,0,-0.000389878,0.0344978,1.4525
0.104,TRAPJ,0.660014,0,0,0,0,0,-0.000397411,0.0344977,1.4525
0.105,TRAPJ,0.672645,0,0,0,0,0,-0.000405016,0.0344976,1.4525
0.106,TRAPJ,0.685396,0,0,0,0,0,-0.000412694,0.0344975,1.4525
0.107,TRAPJ,0.698268,0,0,0,0,0,-0.000420443,0.0344974,1.4525
0.108,TRAPJ,0.711258,0,0,0,0,0,-0.000428265,0.0344973,1.4525
0.109,TRAPJ,0.724369,0,0,0,0,0,-0.000436159,0.0344972,1.4525
0.11,TRAPJ,0.737599,0,0,0,0,0,-0.000444125,0.0344971,1.4525
0.111,TRAPJ,0.750949,0,0,0,0,0,-0.000452162,0.034497,1.4525
0.112,TRAPJ,0.764419,0,0,0,0,0,-0.000460272,0.0344969,1.4525
0.113,TRAPJ,0.778008,0,0,0,0,0,-0.000468454,0.0344968,1.4525
0.114,TRAPJ,0.791717,0,0,0,0,0,-0.000476708,0.0344967,1.4525
0.115,TRAPJ,0.805546,0,0,0,0,0,-0.000485034,0.0344966,1.4525
0.116,TRAPJ,0.819494,0,0,0,0,0,-0.000493432,0.0344965,1.4525
0.117,TRAPJ,0.833563,0,0,0,0,0,-0.000501903,0.0344963,1.4525
0.118,TRAPJ,0.847751,0,0,0,0,0,-0.000510445,0.0344962,1.4525
0.119,TRAPJ,0.862059,0,0,0,0,0,-0.000519059,0.0344961,1.4525
0.12,TRAPJ,0.876486,0,0,0,0,0,-0.000527746,0.034496,1.4525
0.121,TRAPJ,0.891033,0,0,0,0,0,-0.000536504,0.0344958,1.4525
0.122,TRAPJ,0.9057,0,0,0,0,0,-0.000545334,0.0344957,1.4525
0.123,TRAPJ,0.920487,0,0,0,0,0,-0.000554237,0.0344955,1.4525
0.124,TRAPJ,0.935393,0,0,0,0,0,-0.000563212,0.0344954,1.4525
0.125,TRAPJ,0.95042,0,0,0,0,0,-0.000572258,0.0344953,1.4525
0.126,TRAPJ,0.965566,0,0,0,0,0,-0.000581377,0.0344951,1.4525
0.127,TRAPJ,0.980831,0,0,0,0,0,-0.000590567,0.0344949,1.4525
0.128,TRAPJ,0.996217,0,0,0,0,0,-0.00059983,0.0344948,1.4525
0.129,TRAPJ,1.01172,0,0,0,0,0,-0.000609165,0.0344946,1.4525
0.13,TRAPJ,1.02735,0,0,0,0,0,-0.000618572,0.0344945,1.4525
0.131,TRAPJ,1.04309,0,0,0,0,0,-0.000628051,0.0344943,1.4525
0.132,TRAPJ,1.05896,0,0,0,0,0,-0.000637602,0.0344941,1.4525
0.133,TRAPJ,1.07494,0,0,0,0,0,-0.000647224,0.0344939,1.4525
0.134,TRAPJ,1.09104,0,0,0,0,0,-0.000656919,0.0344937,1.4525
0.135,TRAPJ,1.10727,0,0,0,0,0,-0.000666686,0.0344936,1.4525
0.136,TRAPJ,1.12361,0,0,0,0,0,-0.000676525,0.0344934,1.4525
0.137,TRAPJ,1.14007,0,0,0,0,0,-0.000686436,0.0344932,1.4525
0.138,TRAPJ,1.15666,0,0,0,0,0,-0.000696419,0.034493,1.4525
0.139,TRAPJ,1.17336,0,0,0,0,0,-0.000706475,0.0344928,1.4525
0.14,TRAPJ,1.19018,0,0,0,0,0,-0.000716602,0.0344926,1.4525
0.141,TRAPJ,1.20712,0,0,0,0,0,-0.000726801,0.0344923,1.4525
0.142,TRAPJ,1.22418,0,0,0,0,0,-0.000737072,0.0344921,1.4525
0.143,TRAPJ,1.24136,0,0,0,0,0,-0.000747415,0.0344919,1.4525
0.144,TRAPJ,1.25867,0,0,0,0,0,-0.00075783,0.0344917,1.4525
0.145,TRAPJ,1.27609,0,0,0,0,0,-0.000768317,0.0344914,1.4525
0.146,TRAPJ,1.29363,0,0,0,0,0,-0.000778876,0.0344912,1.4525
0.147,TRAPJ,1.31129,0,0,0,0,0,-0.000789508,0.034491,1.4525
0.148,TRAPJ,1.32907,0,0,0,0,0,-0.000800211,0.0344907,1.4525
0.149,TRAPJ,1.34697,0,0,0,0,0,-0.000810986,0.0344905,1.4525
0.15,TRAPJ,1.36499,0,0,0,0,0,-0.000821833,0.0344902,1.4525
0.151,TRAPJ,1.38313,0,0,0,0,0,-0.000832752,0.0344899,1.4525
0.152,TRAPJ,1.40138,0,0,0,0,0,-0.000843743,0.0344897,1.4525
0.153,TRAPJ,1.41976,0,0,0,0,0,-0.000854806,0.0344894,1.4525
0.154,TRAPJ,1.43826,0,0,0,0,0,-0.000865942,0.0344891,1.4525
0.155,TRAPJ,1.45688,0,0,0,0,0,-0.000877149,0.0344888,1.4525
0.156,TRAPJ,1.47562,0,0,0,0,0,-0.000888428,0.0344886,1.4525
0.157,TRAPJ,1.49447,0,0,0,0,0,-0.000899779,0.0344883,1.4525
0.158,TRAPJ,1.51345,0,0,0,0,0,-0.000911202,0.034488,1.4525
0.159,TRAPJ,1.53255,0,0,0,0,0,-0.000922697,0.0344877,1.4525
0.16,TRAPJ,1.55177,0,0,0,0,0,-0.000934264,0.0344873,1.4525
0.161,TRAPJ,1.5711,0,0,0,0,0,-0.000945903,0.034487,1.4525
0.162,TRAPJ,1.59056,0,0,0,0,0,-0.000957613,0.0344867,1.4525
0.163,TRAPJ,1.61013,0,0,0,0,0,-0.000969396,0.0344864,1.4525
0.164,TRAPJ,1.62983,0,0,0,0,0,-0.000981251,0.034486,1.4525
0.165,TRAPJ,1.64964,0,0,0,0,0,-0.000993178,0.0344857,1.4525
0.166,TRAPJ,1.66958,0,0,0,0,0,-0.00100518,0.0344854,1.4525
0.167,TRAPJ,1.68963,0,0,0,0,0,-0.00101725,0.034485,1.4525
0.168,TRAPJ,1.70981,0,0,0,0,0,-0.00102939,0.0344846,1.4525
0.169,TRAPJ,1.7301,0,0,0,0,0,-0.0010416,0.0344843,1.4525
0.17,TRAPJ,1.75052,0,0,0,0,0,-0.00105389,0.0344839,1.4525
0.171,TRAPJ,1.77105,0,0,0,0,0,-0.00106625,0.0344835,1.4525
0.172,TRAPJ,1.79171,0,0,0,0,0,-0.00107868,0.0344831,1.4525
0.173,TRAPJ,1.81248,0,0,0,0,0,-0.00109118,0.0344827,1.4525
0.174,TRAPJ,1.83337,0,0,0,0,0,-0.00110376,0.0344823,1.4525
0.175,TRAPJ,1.85438,0,0,0,0,0,-0.0011164,0.0344819,1.4525
0.176,TRAPJ,1.87552,0,0,0,0,0,-0.00112912,0.0344815,1.4525
0.177,TRAPJ,1.89677,0,0,0,0,0,-0.00114191,0.0344811,1.4525
0.178,TRAPJ,1.91814,0,0,0,0,0,-0.00115477,0.0344807,1.4525
0.179,TRAPJ,1.93963,0,0,0,0,0,-0.0011677,0.0344802,1.4525
0.18,TRAPJ,1.96124,0,0,0,0,0,-0.00118071,0.0344798,1.4525
0.181,TRAPJ,1.98297,0,0,0,0,0,-0.00119379,0.0344793,1.4525
0.182,TRAPJ,2.00483,0,0,0,0,0,-0.00120694,0.0344789,1.4525
0.183,TRAPJ,2.0268,0,0,0,0,0,-0.00122016,0.0344784,1.4525
0.184,TRAPJ,2.04889,0,0,0,0,0,-0.00123345,0.0344779,1.4525
0.185,TRAPJ,2.0711,0,0,0,0,0,-0.00124682,0.0344775,1.4525
0.186,TRAPJ,2.09343,0,0,0,0,0,-0.00126025,0.034477,1.4525
0.187,TRAPJ,2.11588,0,0,0,0,0,-0.00127376,0.0344765,1.4525
0.188,TRAPJ,2.13844,0,0,0,0,0,-0.00128734,0.034476,1.4525
0.189,TRAPJ,2.16113,0,0,0,0,0,-0.00130099,0.0344755,1.4525
0.19,TRAPJ,2.18394,0,0,0,0,0,-0.00131472,0.0344749,1.4525
0.191,TRAPJ,2.20687,0,0,0,0,0,-0.00132851,0.0344744,1.4525
0.192,TRAPJ,2.22992,0,0,0,0,0,-0.00134238,0.0344739,1.4525
0.193,TRAPJ,2.25309,0,0,0,0,0,-0.00135632,0.0344733,1.4525
0.194,TRAPJ,2.27637,0,0,0,0,0,-0.00137033,0.0344728,1.4525
0.195,TRAPJ,2.29978,0,0,0,0,0,-0.00138442,0.0344722,1.4525
0.196,TRAPJ,2.32331,0,0,0,0,0,-0.00139857,0.0344716,1.4525
0.197,TRAPJ,2.34695,0,0,0,0,0,-0.0014128,0.0344711,1.4525
0.198,TRAPJ,2.37072,0,0,0,0,0,-0.0014271,0.0344705,1.4525
0.199,TRAPJ,2.39461,0,0,0,0,0,-0.00144147,0.0344699,1.4525
0.2,TRAPJ,2.41861,0,0,0,0,0,-0.00145591,0.0344693,1.4525
0.201,TRAPJ,2.44274,0,0,0,0,0,-0.00147042,0.0344687,1.4525
0.202,TRAPJ,2.46698,0,0,0,0,0,-0.00148501,0.034468,1.4525
0.203,TRAPJ,2.49135,0,0,0,0,0,-0.00149966,0.0344674,1.4525
0.204,TRAPJ,2.51583,0,0,0,0,0,-0.00151439,0.0344667,1.4525
0.205,TRAPJ,2.54044,0,0,0,0,0,-0.0015292,0.0344661,1.4525
0.206,TRAPJ,2.56516,0,0,0,0,0,-0.00154407,0.0344654,1.4525
0.207,TRAPJ,2.59001,0,0,0,0,0,-0.00155901,0.0344648,1.4525
0.208,TRAPJ,2.61497,0,0,0,0,0,-0.00157403,0.0344641,1.4525
0.209,TRAPJ,2.64005,0,0,0,0,0,-0.00158912,0.0344634,1.4525
0.21,TRAPJ,2.66526,0,0,0,0,0,-0.00160428,0.0344627,1.4525
0.211,TRAPJ,2.69058,0,0,0,0,0,-0.00161951,0.034462,1.4525
0.212,TRAPJ,2.71602,0,0,0,0,0,-0.00163481,0.0344612,1.4525
0.213,TRAPJ,2.74159,0,0,0,0,0,-0.00165018,0.0344605,1.4525
0.214,TRAPJ,2.76727,0,0,0,0,0,-0.00166563,0.0344598,1.4525
0.215,TRAPJ,2.79307,0,0,0,0,0,-0.00168115,0.034459,1.4525
0.216,TRAPJ,2.81899,0,0,0,0,0,-0.00169674,0.0344583,1.4525
0.217,TRAPJ,2.84503,0,0,0,0,0,-0.0017124,0.0344575,1.4525
0.218,TRAPJ,2.87119,0,0,0,0,0,-0.00172813,0.0344567,1.4525
0.219,TRAPJ,2.89747,0,0,0,0,0,-0.00174394,0.0344559,1.4525
0.22,TRAPJ,2.92388,0,0,0,0,0,-0.00175981,0.0344551,1.4525
0.221,TRAPJ,2.9504,0,0,0,0,0,-0.00177576,0.0344543,1.4525
0.222,TRAPJ,2.97704,0,0,0,0,0,-0.00179178,0.0344534,1.4525
0.223,TRAPJ,3.0038,0,0,0,0,0,-0.00180787,0.0344526,1.4525
0.224,TRAPJ,3.03067,0,0,0,0,0,-0.00182404,0.0344517,1.4525
0.225,TRAPJ,3.05767,0,0,0,0,0,-0.00184027,0.0344509,1.4525
0.226,TRAPJ,3.08479,0,0,0,0,0,-0.00185658,0.03445,1.4525
0.227,TRAPJ,3.11203,0,0,0,0,0,-0.00187295,0.0344491,1.4525
0.228,TRAPJ,3.13939,0,0,0,0,0,-0.0018894,0.0344482,1.4525
0.229,TRAPJ,3.16687,0,0,0,0,0,-0.00190592,0.0344473,1.4525
0.23,TRAPJ,3.19447,0,0,0,0,0,-0.00192251,0.0344464,1.4525
0.231,TRAPJ,3.22218,0,0,0,0,0,-0.00193918,0.0344455,1.4525
0.232,TRAPJ,3.25002,0,0,0,0,0,-0.00195591,0.0344445,1.4525
0.233,TRAPJ,3.27798,0,0,0,0,0,-0.00197272,0.0344436,1.4525
0.234,TRAPJ,3.30605,0,0,0,0,0,-0.0019896,0.0344426,1.4525
0.235,TRAPJ,3.33425,0,0,0,0,0,-0.00200655,0.0344416,1.4525
0.236,TRAPJ,3.36257,0,0,0,0,0,-0.00202357,0.0344406,1.4525
0.237,TRAPJ,3.391,0,0,0,0,0,-0.00204066,0.0344396,1.4525
0.238,TRAPJ,3.41956,0,0,0,0,0,-0.00205783,0.0344386,1.4525
0.239,TRAPJ,3.44823,0,0,0,0,0,-0.00207506,0.0344375,1.4525
0.24,TRAPJ,3.47703,0,0,0,0,0,-0.00209237,0.0344365,1.4525
0.241,TRAPJ,3.50594,0,0,0,0,0,-0.00210975,0.0344354,1.4525
0.242,TRAPJ,3.53498,0,0,0,0,0,-0.0021272,0.0344344,1.4525
0.243,TRAPJ,3.56413,0,0,0,0,0,-0.00214472,0.0344333,1.4525
0.244,TRAPJ,3.59341,0,0,0,0,0,-0.00216231,0.0344322,1.4525
0.245,TRAPJ,3.6228,0,0,0,0,0,-0.00217998,0.0344311,1.4525
0.246,TRAPJ,3.65231,0,0,0,0,0,-0.00219771,0.0344299,1.4525
0.247,TRAPJ,3.68195,0,0,0,0,0,-0.00221552,0.0344288,1.4525
0.248,TRAPJ,3.7117,0,0,0,0,0,-0.0022334,0.0344276,1.4525
0.249,TRAPJ,3.74157,0,0,0,0,0,-0.00225135,0.0344265,1.4525
0.25,TRAPJ,3.77157,0,0,0,0,0,-0.00226937,0.0344253,1.4525
0.251,TRAPJ,3.80168,0,0,0,0,0,-0.00228746,0.0344241,1.4525
0.252,TRAPJ,3.83191,0,0,0,0,0,-0.00230562,0.0344229,1.4525
0.253,TRAPJ,3.86226,0,0,0,0,0,-0.00232386,0.0344216,1.4525
0.254,TRAPJ,3.89273,0,0,0,0,0,-0.00234216,0.0344204,1.4525
0.255,TRAPJ,3.92332,0,0,0,0,0,-0.00236054,0.0344191,1.4525
0.256,TRAPJ,3.95404,0,0,0,0,0,-0.00237899,0.0344179,1.4525
0.257,TRAPJ,3.98487,0,0,0,0,0,-0.00239751,0.0344166,1.4525
0.258,TRAPJ,4.01582,0,0,0,0,0,-0.0024161,0.0344153,1.4525
0.259,TRAPJ,4.04689,0,0,0,0,0,-0.00243476,0.034414,1.4525
0.26,TRAPJ,4.07808,0,0,0,0,0,-0.00245349,0.0344126,1.4525
0.261,TRAPJ,4.10939,0,0,0,0,0,-0.0024723,0.0344113,1.4525
0.262,TRAPJ,4.14081,0,0,0,0,0,-0.00249117,0.0344099,1.4525
0.263,TRAPJ,4.17236,0,0,0,0,0,-0.00251012,0.0344086,1.4525
0.264,TRAPJ,4.20403,0,0,0,0,0,-0.00252914,0.0344072,1.4525
0.265,TRAPJ,4.23582,0,0,0,0,0,-0.00254823,0.0344058,1.4525
0.266,TRAPJ,4.26773,0,0,0,0,0,-0.00256739,0.0344043,1.4525
0.267,TRAPJ,4.29976,0,0,0,0,0,-0.00258662,0.0344029,1.4525
0.268,TRAPJ,4.3319,0,0,0,0,0,-0.00260592,0.0344014,1.4525
0.269,TRAPJ,4.36417,0,0,0,0,0,-0.0026253,0.0344,1.4525
0.27,TRAPJ,4.39656,0,0,0,0,0,-0.00264474,0.0343985,1.4525
0.271,TRAPJ,4.42907,0,0,0,0,0,-0.00266426,0.034397,1.4525
0.272,TRAPJ,4.46169,0,0,0,0,0,-0.00268384,0.0343955,1.4525
0.273,TRAPJ,4.49444,0,0,0,0,0,-0.0027035,0.0343939,1.4525
0.274,TRAPJ,4.5273,0,0,0,0,0,-0.00272323,0.0343924,1.4525
0.275,TRAPJ,4.56029,0,0,0,0,0,-0.00274303,0.0343908,1.4525
0.276,TRAPJ,4.5934,0,0,0,0,0,-0.0027629,0.0343892,1.4525
0.277,TRAPJ,4.62662,0,0,0,0,0,-0.00278284,0.0343876,1.4525
0.278,TRAPJ,4.65997,0,0,0,0,0,-0.00280285,0.034386,1.4525
0.279,TRAPJ,4.69343,0,0,0,0,0,-0.00282294,0.0343843,1.4525
0.28,TRAPJ,4.72701,0,0,0,0,0,-0.00284309,0.0343827,1.4525
0.281,TRAPJ,4.76072,0,0,0,0,0,-0.00286332,0.034381,1.4525
0.282,TRAPJ,4.79454,0,0,0,0,0,-0.00288361,0.0343793,1.4525
0.283,TRAPJ,4.82849,0,0,0,0,0,-0.00290398,0.0343776,1.4525
0.284,TRAPJ,4.86255,0,0,0,0,0,-0.00292442,0.0343758,1.4525
0.285,TRAPJ,4.89673,0,0,0,0,0,-0.00294492,0.0343741,1.4525
0.286,TRAPJ,4.93104,0,0,0,0,0,-0.0029655,0.0343723,1.4525
0.287,TRAPJ,4.96546,0,0,0,0,0,-0.00298615,0.0343705,1.4525
0.288,TRAPJ,5,0,0,0,0,0,-0.00300687,0.0343687,1.4525
0.289,TRAPJ,5.03466,0,0,0,0,0,-0.00302766,0.0343669,1.4525
0.29,TRAPJ,5.06944,0,0,0,0,0,-0.00304853,0.034365,1.4525
0.291,TRAPJ,5.10435,0,0,0,0,0,-0.00306946,0.0343632,1.4525
0.292,TRAPJ,5.13937,0,0,0,0,0,-0.00309046,0.0343613,1.4525
0.293,TRAPJ,5.17451,0,0,0,0,0,-0.00311154,0.0343594,1.4525
0.294,TRAPJ,5.20977,0,0,0,0,0,-0.00313268,0.0343575,1.4525
0.295,TRAPJ,5.24515,0,0,0,0,0,-0.0031539,0.0343555,1.4525
0.296,TRAPJ,5.28065,0,0,0,0,0,-0.00317518,0.0343536,1.4525
0.297,TRAPJ,5.31627,0,0,0,0,0,-0.00319654,0.0343516,1.4525
0.298,TRAPJ,5.35201,0,0,0,0,0,-0.00321797,0.0343496,1.4525
0.299,TRAPJ,5.38787,0,0,0,0,0,-0.00323946,0.0343476,1.4525
0.3,TRAPJ,5.42385,0,0,0,0,0,-0.00326103,0.0343455,1.4525
0.301,TRAPJ,5.45994,0,0,0,0,0,-0.00328267,0.0343435,1.4525
0.302,TRAPJ,5.49616,0,0,0,0,0,-0.00330438,0.0343414,1.4525
0.303,TRAPJ,5.5325,0,0,0,0,0,-0.00332616,0.0343393,1.4525
0.304,TRAPJ,5.56896,0,0,0,0,0,-0.00334801,0.0343372,1.4525
0.305,TRAPJ,5.60554,0,0,0,0,0,-0.00336993,0.034335,1.4525
0.306,TRAPJ,5.64223,0,0,0,0,0,-0.00339192,0.0343329,1.4525
0.307,TRAPJ,5.67905,0,0,0,0,0,-0.00341398,0.0343307,1.4525
0.308,TRAPJ,5.71599,0,0,0,0,0,-0.00343611,0.0343285,1.4525
0.309,TRAPJ,5.75304,0,0,0,0,0,-0.00345831,0.0343262,1.4525
0.31,TRAPJ,5.79022,0,0,0,0,0,-0.00348058,0.034324,1.4525
0.311,TRAPJ,5.82752,0,0,0,0,0,-0.00350293,0.0343217,1.4525
0.312,TRAPJ,5.86493,0,0,0,0,0,-0.00352534,0.0343194,1.4525
0.313,TRAPJ,5.90247,0,0,0,0,0,-0.00354782,0.0343171,1.4525
0.314,TRAPJ,5.94012,0,0,0,0,0,-0.00357037,0.0343148,1.4525
0.315,TRAPJ,5.9779,0,0,0,0,0,-0.003593,0.0343124,1.4525
0.316,TRAPJ,6.01579,0,0,0,0,0,-0.00361569,0.03431,1.4525
0.317,TRAPJ,6.05381,0,0,0,0,0,-0.00363845,0.0343076,1.4525
0.318,TRAPJ,6.09194,0,0,0,0,0,-0.00366129,0.0343052,1.4525
0.319,TRAPJ,6.13019,0,0,0,0,0,-0.00368419,0.0343027,1.4525
0.32,TRAPJ,6.16857,0,0,0,0,0,-0.00370716,0.0343002,1.4525
0.321,TRAPJ,6.20706,0,0,0,0,0,-0.0037302,0.0342977,1.4525
0.322,TRAPJ,6.24567,0,0,0,0,0,-0.00375332,0.0342952,1.4525
0.323,TRAPJ,6.28441,0,0,0,0,0,-0.0037765,0.0342927,1.4525
0.324,TRAPJ,6.32326,0,0,0,0,0,-0.00379975,0.0342901,1.4525
0.325,TRAPJ,6.36223,0,0,0,0,0,-0.00382308,0.0342875,1.4525
0.326,TRAPJ,6.40132,0,0,0,0,0,-0.00384647,0.0342849,1.4525
0.327,TRAPJ,6.44054,0,0,0,0,0,-0.00386993,0.0342823,1.4525
0.328,TRAPJ,6.47987,0,0,0,0,0,-0.00389347,0.0342796,1.4525
0.329,TRAPJ,6.51932,0,0,0,0,0,-0.00391707,0.0342769,1.4525
0.33,TRAPJ,6.55889,0,0,0,0,0,-0.00394074,0.0342742,1.4525
0.331,TRAPJ,6.59858,0,0,0,0,0,-0.00396448,0.0342715,1.4525
0.332,TRAPJ,6.63839,0,0,0,0,0,-0.00398829,0.0342687,1.4525
0.333,TRAPJ,6.67832,0,0,0,0,0,-0.00401218,0.0342659,1.4525
0.334,TRAPJ,6.71837,0,0,0,0,0,-0.00403613,0.0342631,1.4525
0.335,TRAPJ,6.75854,0,0,0,0,0,-0.00406015,0.0342603,1.4525
0.336,TRAPJ,6.79883,0,0,0,0,0,-0.00408424,0.0342574,1.4525
0.337,TRAPJ,6.83924,0,0,0,0,0,-0.0041084,0.0342545,1.4525
0.338,TRAPJ,6.87977,0,0,0,0,0,-0.00413263,0.0342516,1.4525
0.339,TRAPJ,6.92042,0,0,0,0,0,-0.00415692,0.0342486,1.4525
0.34,TRAPJ,6.96118,0,0,0,0,0,-0.00418129,0.0342457,1.4525
0.341,TRAPJ,7.00207,0,0,0,0,0,-0.00420573,0.0342427,1.4525
0.342,TRAPJ,7.04308,0,0,0,0,0,-0.00423024,0.0342397,1.4525
0.343,TRAPJ,7.08421,0,0,0,0,0,-0.00425481,0.0342366,1.4525
0.344,TRAPJ,7.12545,0,0,0,0,0,-0.00427946,0.0342336,1.4525
0.345,TRAPJ,7.16682,0,0,0,0,0,-0.00430417,0.0342305,1.4525
0.346,TRAPJ,7.20831,0,0,0,0,0,-0.00432896,0.0342273,1.4525
0.347,TRAPJ,7.24991,0,0,0,0,0,-0.00435381,0.0342242,1.4525
0.348,TRAPJ,7.29164,0,0,0,0,0,-0.00437874,0.034221,1.4525
0.349,TRAPJ,7.33348,0,0,0,0,0,-0.00440373,0.0342178,1.4525
0.35,TRAPJ,7.37545,0,0,0,0,0,-0.00442879,0.0342146,1.4525
0.351,TRAPJ,7.41754,0,0,0,0,0,-0.00445392,0.0342113,1.4525
0.352,TRAPJ,7.45974,0,0,0,0,0,-0.00447912,0.034208,1.4525
0.353,TRAPJ,7.50207,0,0,0,0,0,-0.00450439,0.0342047,1.4525
0.354,TRAPJ,7.54451,0,0,0,0,0,-0.00452972,0.0342013,1.4525
0.355,TRAPJ,7.58707,0,0,0,0,0,-0.00455513,0.034198,1.4525
0.356,TRAPJ,7.62976,0,0,0,0,0,-0.00458061,0.0341946,1.4525
0.357,TRAPJ,7.67256,0,0,0,0,0,-0.00460615,0.0341911,1.4525
0.358,TRAPJ,7.71548,0,0,0,0,0,-0.00463176,0.0341877,1.4525
0.359,TRAPJ,7.75853,0,0,0,0,0,-0.00465745,0.0341842,1.4525
0.36,TRAPJ,7.80169,0,0,0,0,0,-0.0046832,0.0341807,1.4525
0.361,TRAPJ,7.84497,0,0,0,0,0,-0.00470902,0.0341771,1.4525
0.362,TRAPJ,7.88838,0,0,0,0,0,-0.0047349,0.0341735,1.4525
0.363,TRAPJ,7.9319,0,0,0,0,0,-0.00476086,0.0341699,1.4525
0.364,TRAPJ,7.97554,0,0,0,0,0,-0.00478689,0.0341663,1.4525
0.365,TRAPJ,8.0193,0,0,0,0,0,-0.00481298,0.0341626,1.4525
0.366,TRAPJ,8.06318,0,0,0,0,0,-0.00483914,0.0341589,1.4525
0.367,TRAPJ,8.10718,0,0,0,0,0,-0.00486537,0.0341552,1.4525
0.368,TRAPJ,8.1513,0,0,0,0,0,-0.00489167,0.0341514,1.4525
0.369,TRAPJ,8.19554,0,0,0,0,0,-0.00491804,0.0341477,1.4525
0.37,TRAPJ,8.2399,0,0,0,0,0,-0.00494448,0.0341438,1.4525
0.371,TRAPJ,8.28438,0,0,0,0,0,-0.00497098,0.03414,1.4525
0.372,TRAPJ,8.32898,0,0,0,0,0,-0.00499756,0.0341361,1.4525
0.373,TRAPJ,8.3737,0,0,0,0,0,-0.0050242,0.0341322,1.4525
0.374,TRAPJ,8.41854,0,0,0,0,0,-0.00505091,0.0341283,1.4525
0.375,TRAPJ,8.4635,0,0,0,0,0,-0.00507769,0.0341243,1.4525
0.376,TRAPJ,8.50858,0,0,0,0,0,-0.00510453,0.0341203,1.4525
0.377,TRAPJ,8.55378,0,0,0,0,0,-0.00513145,0.0341162,1.4525
0.378,TRAPJ,8.59909,0,0,0,0,0,-0.00515843,0.0341122,1.4525
0.379,TRAPJ,8.64453,0,0,0,0,0,-0.00518548,0.0341081,1.4525
0.38,TRAPJ,8.69009,0,0,0,0,0,-0.0052126,0.0341039,1.4525
0.381,TRAPJ,8.73577,0,0,0,0,0,-0.00523979,0.0340998,1.4525
0.382,TRAPJ,8.78156,0,0,0,0,0,-0.00526704,0.0340956,1.4525
0.383,TRAPJ,8.82748,0,0,0,0,0,-0.00529436,0.0340913,1.4525
0.384,TRAPJ,8.87352,0,0,0,0,0,-0.00532175,0.0340871,1.4525
0.385,TRAPJ,8.91967,0,0,0,0,0,-0.00534921,0.0340828,1.4525
0.386,TRAPJ,8.96595,0,0,0,0,0,-0.00537674,0.0340784,1.4525
0.387,TRAPJ,9.01234,0,0,0,0,0,-0.00540433,0.0340741,1.4525
0.388,TRAPJ,9.05886,0,0,0,0,0,-0.00543199,0.0340697,1.4525
0.389,TRAPJ,9.10549,0,0,0,0,0,-0.00545972,0.0340653,1.4525
0.39,TRAPJ,9.15225,0,0,0,0,0,-0.00548752,0.0340608,1.4525
0.391,TRAPJ,9.19912,0,0,0,0,0,-0.00551538,0.0340563,1.4525
0.392,TRAPJ,9.24612,0,0,0,0,0,-0.00554331,0.0340518,1.4525
0.393,TRAPJ,9.29323,0,0,0,0,0,-0.00557131,0.0340472,1.4525
0.394,TRAPJ,9.34047,0,0,0,0,0,-0.00559938,0.0340426,1.4525
0.395,TRAPJ,9.38782,0,0,0,0,0,-0.00562751,0.0340379,1.4525
0.396,TRAPJ,9.43529,0,0,0,0,0,-0.00565571,0.0340333,1.4525
0.397,TRAPJ,9.48288,0,0,0,0,0,-0.00568398,0.0340286,1.4525
0.398,TRAPJ,9.5306,0,0,0,0,0,-0.00571231,0.0340238,1.4525
0.399,TRAPJ,9.57843,0,0,0,0,0,-0.00574071,0.034019,1.4525
0.4,TRAPJ,9.62638,0,0,0,0,0,-0.00576918,0.0340142,1.4525
0.401,TRAPJ,9.67445,0,0,0,0,0,-0.00579772,0.0340094,1.4525
0.402,TRAPJ,9.72264,0,0,0,0,0,-0.00582632,0.0340045,1.4525
0.403,TRAPJ,9.77096,0,0,0,0,0,-0.00585499,0.0339995,1.4525
0.404,TRAPJ,9.81939,0,0,0,0,0,-0.00588373,0.0339946,1.4525
0.405,TRAPJ,9.86794,0,0,0,0,0,-0.00591253,0.0339896,1.4525
0.406,TRAPJ,9.91661,0,0,0,0,0,-0.0059414,0.0339846,1.4525
0.407,TRAPJ,9.9654,0,0,0,0,0,-0.00597034,0.0339795,1.4525
0.408,TRAPJ,10.0143,0,0,0,0,0,-0.00599935,0.0339744,1.4525
0.409,TRAPJ,10.0633,0,0,0,0,0,-0.00602842,0.0339692,1.4525
0.41,TRAPJ,10.1125,0,0,0,0,0,-0.00605755,0.033964,1.4525
0.411,TRAPJ,10.1618,0,0,0,0,0,-0.00608676,0.0339588,1.4525
0.412,TRAPJ,10.2111,0,0,0,0,0,-0.00611603,0.0339536,1.4525
0.413,TRAPJ,10.2607,0,0,0,0,0,-0.00614536,0.0339483,1.4525
0.414,TRAPJ,10.3103,0,0,0,0,0,-0.00617477,0.0339429,1.4525
0.415,TRAPJ,10.36,0,0,0,0,0,-0.00620424,0.0339376,1.4525
0.416,TRAPJ,10.4099,0,0,0,0,0,-0.00623377,0.0339321,1.4525
0.417,TRAPJ,10.4599,0,0,0,0,0,-0.00626337,0.0339267,1.4525
0.418,TRAPJ,10.51,0,0,0,0,0,-0.00629304,0.0339212,1.4525
0.419,TRAPJ,10.5602,0,0,0,0,0,-0.00632277,0.0339157,1.4525
0.42,TRAPJ,10.6106,0,0,0,0,0,-0.00635257,0.0339101,1.4525
0.421,TRAPJ,10.661,0,0,0,0,0,-0.00638244,0.0339045,1.4525
0.422,TRAPJ,10.7116,0,0,0,0,0,-0.00641237,0.0338988,1.4525
0.423,TRAPJ,10.7623,0,0,0,0,0,-0.00644237,0.0338932,1.4525
0.424,TRAPJ,10.8131,0,0,0,0,0,-0.00647243,0.0338874,1.4525
0.425,TRAPJ,10.8641,0,0,0,0,0,-0.00650256,0.0338817,1.4525
0.426,TRAPJ,10.9152,0,0,0,0,0,-0.00653276,0.0338758,1.4525
0.427,TRAPJ,10.9663,0,0,0,0,0,-0.00656302,0.03387,1.4525
0.428,TRAPJ,11.0176,0,0,0,0,0,-0.00659334,0.0338641,1.4525
0.429,TRAPJ,11.0691,0,0,0,0,0,-0.00662373,0.0338582,1.4525
0.43,TRAPJ,11.1206,0,0,0,0,0,-0.00665419,0.0338522,1.4525
0.431,TRAPJ,11.1723,0,0,0,0,0,-0.00668471,0.0338462,1.4525
0.432,TRAPJ,11.2241,0,0,0,0,0,-0.0067153,0.0338401,1.4525
0.433,TRAPJ,11.276,0,0,0,0,0,-0.00674595,0.033834,1.4525
0.434,TRAPJ,11.328,0,0,0,0,0,-0.00677667,0.0338279,1.4525
0.435,TRAPJ,11.3801,0,0,0,0,0,-0.00680745,0.0338217,1.4525
0.436,TRAPJ,11.4324,0,0,0,0,0,-0.0068383,0.0338155,1.4525
0.437,TRAPJ,11.4848,0,0,0,0,0,-0.00686921,0.0338092,1.4525
0.438,TRAPJ,11.5373,0,0,0,0,0,-0.00690019,0.0338029,1.4525
0.439,TRAPJ,11.5899,0,0,0,0,0,-0.00693123,0.0337966,1.4525
0.44,TRAPJ,11.6426,0,0,0,0,0,-0.00696234,0.0337902,1.4525
0.441,TRAPJ,11.6955,0,0,0,0,0,-0.00699351,0.0337837,1.4525
0.442,TRAPJ,11.7485,0,0,0,0,0,-0.00702475,0.0337773,1.4525
0.443,TRAPJ,11.8016,0,0,0,0,0,-0.00705605,0.0337707,1.4525
0.444,TRAPJ,11.8548,0,0,0,0,0,-0.00708741,0.0337642,1.4525
0.445,TRAPJ,11.9081,0,0,0,0,0,-0.00711884,0.0337575,1.4525
0.446,TRAPJ,11.9616,0,0,0,0,0,-0.00715034,0.0337509,1.4525
0.447,TRAPJ,12.0152,0,0,0,0,0,-0.00718189,0.0337442,1.4525
0.448,TRAPJ,12.0689,0,0,0,0,0,-0.00721352,0.0337374,1.4525
0.449,TRAPJ,12.1227,0,0,0,0,0,-0.0072452,0.0337307,1.4525
0.45,TRAPJ,12.1766,0,0,0,0,0,-0.00727696,0.0337238,1.4525
0.451,TRAPJ,12.2307,0,0,0,0,0,-0.00730877,0.0337169,1.4525
0.452,TRAPJ,12.2849,0,0,0,0,0,-0.00734065,0.03371,1.4525
0.453,TRAPJ,12.3392,0,0,0,0,0,-0.00737259,0.033703,1.4525
0.454,TRAPJ,12.3936,0,0,0,0,0,-0.0074046,0.033696,1.4525
0.455,TRAPJ,12.4481,0,0,0,0,0,-0.00743667,0.033689,1.4525
0.456,TRAPJ,12.5028,0,0,0,0,0,-0.0074688,0.0336818,1.4525
0.457,TRAPJ,12.5576,0,0,0,0,0,-0.007501,0.0336747,1.4525
0.458,TRAPJ,12.6125,0,0,0,0,0,-0.00753326,0.0336675,1.4525
0.459,TRAPJ,12.6675,0,0,0,0,0,-0.00756559,0.0336602,1.4525
0.46,TRAPJ,12.7226,0,0,0,0,0,-0.00759797,0.0336529,1.4525
0.461,TRAPJ,12.7779,0,0,0,0,0,-0.00763043,0.0336456,1.4525
0.462,TRAPJ,12.8332,0,0,0,0,0,-0.00766294,0.0336382,1.4525
0.463,TRAPJ,12.8887,0,0,0,0,0,-0.00769552,0.0336308,1.4525
0.464,TRAPJ,12.9443,0,0,0,0,0,-0.00772816,0.0336233,1.4525
0.465,TRAPJ,13.0001,0,0,0,0,0,-0.00776086,0.0336158,1.4525
0.466,TRAPJ,13.0559,0,0,0,0,0,-0.00779363,0.0336082,1.4525
0.467,TRAPJ,13.1119,0,0,0,0,0,-0.00782646,0.0336005,1.4525
0.468,TRAPJ,13.168,0,0,0,0,0,-0.00785935,0.0335929,1.4525
0.469,TRAPJ,13.2242,0,0,0,0,0,-0.0078923,0.0335851,1.4525
0.47,TRAPJ,13.2806,0,0,0,0,0,-0.00792532,0.0335774,1.4525
0.471,TRAPJ,13.337,0,0,0,0,0,-0.0079584,0.0335695,1.4525
0.472,TRAPJ,13.3936,0,0,0,0,0,-0.00799154,0.0335617,1.4525
0.473,TRAPJ,13.4503,0,0,0,0,0,-0.00802475,0.0335537,1.4525
0.474,TRAPJ,13.5071,0,0,0,0,0,-0.00805801,0.0335458,1.4525
0.475,TRAPJ,13.564,0,0,0,0,0,-0.00809134,0.0335377,1.4525
0.476,TRAPJ,13.6211,0,0,0,0,0,-0.00812473,0.0335297,1.4525
0.477,TRAPJ,13.6782,0,0,0,0,0,-0.00815818,0.0335215,1.4525
0.478,TRAPJ,13.7355,0,0,0,0,0,-0.0081917,0.0335134,1.4525
0.479,TRAPJ,13.7929,0,0,0,0,0,-0.00822527,0.0335051,1.4525
0.48,TRAPJ,13.8505,0,0,0,0,0,-0.00825891,0.0334969,1.4525
0.481,TRAPJ,13.9081,0,0,0,0,0,-0.00829261,0.0334885,1.4525
0.482,TRAPJ,13.9659,0,0,0,0,0,-0.00832637,0.0334802,1.4525
0.483,TRAPJ,14.0238,0,0,0,0,0,-0.0083602,0.0334717,1.4525
0.484,TRAPJ,14.0818,0,0,0,0,0,-0.00839408,0.0334633,1.4525
0.485,TRAPJ,14.1399,0,0,0,0,0,-0.00842803,0.0334547,1.4525
0.486,TRAPJ,14.1982,0,0,0,0,0,-0.00846203,0.0334461,1.4525
0.487,TRAPJ,14.2565,0,0,0,0,0,-0.0084961,0.0334375,1.4525
0.488,TRAPJ,14.315,0,0,0,0,0,-0.00853023,0.0334288,1.4525
0.489,TRAPJ,14.3736,0,0,0,0,0,-0.00856442,0.0334201,1.4525
0.49,TRAPJ,14.4324,0,0,0,0,0,-0.00859867,0.0334113,1.4525
0.491,TRAPJ,14.4912,0,0,0,0,0,-0.00863298,0.0334024,1.4525
0.492,TRAPJ,14.5502,0,0,0,0,0,-0.00866736,0.0333935,1.4525
0.493,TRAPJ,14.6093,0,0,0,0,0,-0.00870179,0.0333846,1.4525
0.494,TRAPJ,14.6685,0,0,0,0,0,-0.00873628,0.0333756,1.4525
0.495,TRAPJ,14.7278,0,0,0,0,0,-0.00877084,0.0333665,1.4525
0.496,TRAPJ,14.7872,0,0,0,0,0,-0.00880545,0.0333574,1.4525
0.497,TRAPJ,14.8468,0,0,0,0,0,-0.00884012,0.0333482,1.4525
0.498,TRAPJ,14.9065,0,0,0,0,0,-0.00887486,0.033339,1.4525
0.499,TRAPJ,14.9663,0,0,0,0,0,-0.00890965,0.0333297,1.4525
0.5,TRAPJ,15.0262,0,0,0,0,0,-0.00894451,0.0333204,1.4525
0.501,TRAPJ,15.0863,0,0,0,0,0,-0.00897942,0.033311,1.4525
0.502,TRAPJ,15.1464,0,0,0,0,0,-0.00901439,0.0333015,1.4525
0.503,TRAPJ,15.2067,0,0,0,0,0,-0.00904943,0.033292,1.4525
0.504,TRAPJ,15.2671,0,0,0,0,0,-0.00908452,0.0332824,1.4525
0.505,TRAPJ,15.3276,0,0,0,0,0,-0.00911967,0.0332728,1.4525
0.506,TRAPJ,15.3883,0,0,0,0,0,-0.00915489,0.0332632,1.4525
0.507,TRAPJ,15.449,0,0,0,0,0,-0.00919016,0.0332534,1.4525
0.508,TRAPJ,15.5099,0,0,0,0,0,-0.00922549,0.0332437,1.4525
0.509,TRAPJ,15.5709,0,0,0,0,0,-0.00926088,0.0332338,1.4525
0.51,TRAPJ,15.6321,0,0,0,0,0,-0.00929632,0.0332239,1.4525
0.511,TRAPJ,15.6933,0,0,0,0,0,-0.00933183,0.033214,1.4525
0.512,TRAPJ,15.7547,0,0,0,0,0,-0.0093674,0.0332039,1.4525
0.513,TRAPJ,15.8161,0,0,0,0,0,-0.00940302,0.0331939,1.4525
0.514,TRAPJ,15.8777,0,0,0,0,0,-0.0094387,0.0331837,1.4525
0.515,TRAPJ,15.9395,0,0,0,0,0,-0.00947444,0.0331736,1.4525
0.516,TRAPJ,16.0013,0,0,0,0,0,-0.00951024,0.0331633,1.4525
0.517,TRAPJ,16.0633,0,0,0,0,0,-0.0095461,0.033153,1.4525
0.518,TRAPJ,16.1253,0,0,0,0,0,-0.00958202,0.0331426,1.4525
0.519,TRAPJ,16.1875,0,0,0,0,0,-0.00961799,0.0331322,1.4525
0.52,TRAPJ,16.2499,0,0,0,0,0,-0.00965402,0.0331217,1.4525
0.521,TRAPJ,16.3123,0,0,0,0,0,-0.00969011,0.0331112,1.4525
0.522,TRAPJ,16.3749,0,0,0,0,0,-0.00972626,0.0331006,1.4525
0.523,TRAPJ,16.4375,0,0,0,0,0,-0.00976246,0.0330899,1.4525
0.524,TRAPJ,16.5003,0,0,0,0,0,-0.00979873,0.0330792,1.4525
0.525,TRAPJ,16.5633,0,0,0,0,0,-0.00983505,0.0330684,1.4525
0.526,TRAPJ,16.6263,0,0,0,0,0,-0.00987142,0.0330576,1.4525
0.527,TRAPJ,16.6895,0,0,0,0,0,-0.00990786,0.0330467,1.4525
0.528,TRAPJ,16.7527,0,0,0,0,0,-0.00994435,0.0330357,1.4525
0.529,TRAPJ,16.8161,0,0,0,0,0,-0.00998089,0.0330247,1.4525
0.53,TRAPJ,16.8796,0,0,0,0,0,-0.0100175,0.0330136,1.4525
0.531,TRAPJ,16.9433,0,0,0,0,0,-0.0100542,0.0330025,1.4525
0.532,TRAPJ,17.007,0,0,0,0,0,-0.0100909,0.0329913,1.4525
0.533,TRAPJ,17.0709,0,0,0,0,0,-0.0101277,0.03298,1.4525
0.534,TRAPJ,17.1349,0,0,0,0,0,-0.0101645,0.0329687,1.4525
0.535,TRAPJ,17.199,0,0,0,0,0,-0.0102014,0.0329573,1.4525
0.536,TRAPJ,17.2633,0,0,0,0,0,-0.0102383,0.0329458,1.4525
0.537,TRAPJ,17.3276,0,0,0,0,0,-0.0102753,0.0329343,1.4525
0.538,TRAPJ,17.3921,0,0,0,0,0,-0.0103124,0.0329227,1.4525
0.539,TRAPJ,17.4567,0,0,0,0,0,-0.0103495,0.0329111,1.4525
0.54,TRAPJ,17.5214,0,0,0,0,0,-0.0103866,0.0328994,1.4525
0.541,TRAPJ,17.5862,0,0,0,0,0,-0.0104239,0.0328876,1.4525
0.542,TRAPJ,17.6512,0,0,0,0,0,-0.0104611,0.0328757,1.4525
0.543,TRAPJ,17.7163,0,0,0,0,0,-0.0104985,0.0328638,1.4525
0.544,TRAPJ,17.7815,0,0,0,0,0,-0.0105359,0.0328519,1.4525
0.545,TRAPJ,17.8468,0,0,0,0,0,-0.0105733,0.0328398,1.4525
0.546,TRAPJ,17.9122,0,0,0,0,0,-0.0106108,0.0328277,1.4525
0.547,TRAPJ,17.9778,0,0,0,0,0,-0.0106483,0.0328156,1.4525
0.548,TRAPJ,18.0434,0,0,0,0,0,-0.010686,0.0328034,1.4525
0.549,TRAPJ,18.1092,0,0,0,0,0,-0.0107236,0.0327911,1.4525
0.55,TRAPJ,18.1751,0,0,0,0,0,-0.0107613,0.0327787,1.4525
0.551,TRAPJ,18.2412,0,0,0,0,0,-0.0107991,0.0327663,1.4525
0.552,TRAPJ,18.3073,0,0,0,0,0,-0.0108369,0.0327538,1.4525
0.553,TRAPJ,18.3736,0,0,0,0,0,-0.0108748,0.0327412,1.4525
0.554,TRAPJ,18.44,0,0,0,0,0,-0.0109127,0.0327286,1.4525
0.555,TRAPJ,18.5065,0,0,0,0,0,-0.0109507,0.0327159,1.4525
0.556,TRAPJ,18.5731,0,0,0,0,0,-0.0109888,0.0327032,1.4525
0.557,TRAPJ,18.6399,0,0,0,0,0,-0.0110268,0.0326903,1.4525
0.558,TRAPJ,18.7067,0,0,0,0,0,-0.011065,0.0326775,1.4525
0.559,TRAPJ,18.7737,0,0,0,0,0,-0.0111032,0.0326645,1.4525
0.56,TRAPJ,18.8408,0,0,0,0,0,-0.0111414,0.0326515,1.4525
0.561,TRAPJ,18.9081,0,0,0,0,0,-0.0111797,0.0326384,1.4525
0.562,TRAPJ,18.9754,0,0,0,0,0,-0.0112181,0.0326252,1.4525
0.563,TRAPJ,19.0429,0,0,0,0,0,-0.0112565,0.032612,1.4525
0.564,TRAPJ,19.1105,0,0,0,0,0,-0.011295,0.0325987,1.4525
0.565,TRAPJ,19.1782,0,0,0,0,0,-0.0113335,0.0325853,1.4525
0.566,TRAPJ,19.246,0,0,0,0,0,-0.0113721,0.0325719,1.4525
0.567,TRAPJ,19.3139,0,0,0,0,0,-0.0114107,0.0325584,1.4525
0.568,TRAPJ,19.382,0,0,0,0,0,-0.0114493,0.0325448,1.4525
0.569,TRAPJ,19.4502,0,0,0,0,0,-0.0114881,0.0325311,1.4525
0.57,TRAPJ,19.5185,0,0,0,0,0,-0.0115268,0.0325174,1.4525
0.571,TRAPJ,19.5869,0,0,0,0,0,-0.0115657,0.0325036,1.4525
0.572,TRAPJ,19.6555,0,0,0,0,0,-0.0116045,0.0324898,1.4525
0.573,TRAPJ,19.7241,0,0,0,0,0,-0.0116435,0.0324758,1.4525
0.574,TRAPJ,19.7929,0,0,0,0,0,-0.0116825,0.0324618,1.4525
0.575,TRAPJ,19.8618,0,0,0,0,0,-0.0117215,0.0324478,1.4525
0.576,TRAPJ,19.9309,0,0,0,0,0,-0.0117606,0.0324336,1.4525
0.577,TRAPJ,20,0,0,0,0,0,-0.0117997,0.0324194,1.4525
0.578,TRAPJ,20.0693,0,0,0,0,0,-0.0118389,0.0324051,1.4525
0.579,TRAPJ,20.1386,0,0,0,0,0,-0.0118781,0.0323907,1.4525
0.58,TRAPJ,20.2082,0,0,0,0,0,-0.0119174,0.0323763,1.4525
0.581,TRAPJ,20.2778,0,0,0,0,0,-0.0119567,0.0323618,1.4525
0.582,TRAPJ,20.3475,0,0,0,0,0,-0.0119961,0.0323472,1.4525
0.583,TRAPJ,20.4174,0,0,0,0,0,-0.0120355,0.0323326,1.4525
0.584,TRAPJ,20.4874,0,0,0,0,0,-0.012075,0.0323179,1.4525
0.585,TRAPJ,20.5575,0,0,0,0,0,-0.0121146,0.0323031,1.4525
0.586,TRAPJ,20.6277,0,0,0,0,0,-0.0121541,0.0322882,1.4525
0.587,TRAPJ,20.698,0,0,0,0,0,-0.0121938,0.0322732,1.4525
0.588,TRAPJ,20.7685,0,0,0,0,0,-0.0122335,0.0322582,1.4525
0.589,TRAPJ,20.8391,0,0,0,0,0,-0.0122732,0.0322431,1.4525
0.59,TRAPJ,20.9098,0,0,0,0,0,-0.012313,0.032228,1.4525
0.591,TRAPJ,20.9806,0,0,0,0,0,-0.0123528,0.0322127,1.4525
0.592,TRAPJ,21.0515,0,0,0,0,0,-0.0123927,0.0321974,1.4525
0.593,TRAPJ,21.1226,0,0,0,0,0,-0.0124326,0.032182,1.4525
0.594,TRAPJ,21.1938,0,0,0,0,0,-0.0124726,0.0321665,1.4525
0.595,TRAPJ,21.2651,0,0,0,0,0,-0.0125126,0.032151,1.4525
0.596,TRAPJ,21.3365,0,0,0,0,0,-0.0125526,0.0321354,1.4525
0.597,TRAPJ,21.408,0,0,0,0,0,-0.0125928,0.0321197,1.4525
0.598,TRAPJ,21.4797,0,0,0,0,0,-0.0126329,0.0321039,1.4525
0.599,TRAPJ,21.5515,0,0,0,0,0,-0.0126731,0.032088,1.4525
0.6,TRAPJ,21.6234,0,0,0,0,0,-0.0127134,0.0320721,1.4525
0.601,TRAPJ,21.6954,0,0,0,0,0,-0.0127537,0.0320561,1.4525
0.602,TRAPJ,21.7675,0,0,0,0,0,-0.012794,0.03204,1.4525
0.603,TRAPJ,21.8398,0,0,0,0,0,-0.0128344,0.0320239,1.4525
0.604,TRAPJ,21.9122,0,0,0,0,0,-0.0128749,0.0320076,1.4525
0.605,TRAPJ,21.9847,0,0,0,0,0,-0.0129154,0.0319913,1.4525
0.606,TRAPJ,22.0573,0,0,0,0,0,-0.0129559,0.0319749,1.4525
0.607,TRAPJ,22.13,0,0,0,0,0,-0.0129965,0.0319584,1.4525
0.608,TRAPJ,22.2029,0,0,0,0,0,-0.0130371,0.0319419,1.4525
0.609,TRAPJ,22.2758,0,0,0,0,0,-0.0130778,0.0319253,1.4525
0.61,TRAPJ,22.3489,0,0,0,0,0,-0.0131185,0.0319085,1.4525
0.611,TRAPJ,22.4221,0,0,0,0,0,-0.0131593,0.0318918,1.4525
0.612,TRAPJ,22.4955,0,0,0,0,0,-0.0132001,0.0318749,1.4525
0.613,TRAPJ,22.5689,0,0,0,0,0,-0.0132409,0.0318579,1.4525
0.614,TRAPJ,22.6425,0,0,0,0,0,-0.0132818,0.0318409,1.4525
0.615,TRAPJ,22.7162,0,0,0,0,0,-0.0133228,0.0318238,1.4525
0.616,TRAPJ,22.79,0,0,0,0,0,-0.0133637,0.0318066,1.4525
0.617,TRAPJ,22.864,0,0,0,0,0,-0.0134048,0.0317893,1.4525
0.618,TRAPJ,22.938,0,0,0,0,0,-0.0134459,0.031772,1.4525
0.619,TRAPJ,23.0122,0,0,0,0,0,-0.013487,0.0317546,1.4525
0.62,TRAPJ,23.0865,0,0,0,0,0,-0.0135281,0.031737,1.4525
0.621,TRAPJ,23.1609,0,0,0,0,0,-0.0135693,0.0317194,1.4525
0.622,TRAPJ,23.2354,0,0,0,0,0,-0.0136106,0.0317018,1.4525
0.623,TRAPJ,23.3101,0,0,0,0,0,-0.0136519,0.031684,1.4525
0.624,TRAPJ,23.3848,0,0,0,0,0,-0.0136932,0.0316662,1.4525
0.625,TRAPJ,23.4597,0,0,0,0,0,-0.0137346,0.0316482,1.4525
0.626,TRAPJ,23.5347,0,0,0,0,0,-0.013776,0.0316302,1.4525
0.627,TRAPJ,23.6099,0,0,0,0,0,-0.0138175,0.0316121,1.4525
0.628,TRAPJ,23.6851,0,0,0,0,0,-0.013859,0.031594,1.4525
0.629,TRAPJ,23.7605,0,0,0,0,0,-0.0139005,0.0315757,1.4525
0.63,TRAPJ,23.836,0,0,0,0,0,-0.0139421,0.0315574,1.4525
0.631,TRAPJ,23.9116,0,0,0,0,0,-0.0139838,0.0315389,1.4525
0.632,TRAPJ,23.9873,0,0,0,0,0,-0.0140254,0.0315204,1.4525
0.633,TRAPJ,24.0632,0,0,0,0,0,-0.0140672,0.0315018,1.4525
0.634,TRAPJ,24.1391,0,0,0,0,0,-0.0141089,0.0314831,1.4525
0.635,TRAPJ,24.2152,0,0,0,0,0,-0.0141507,0.0314644,1.4525
0.636,TRAPJ,24.2914,0,0,0,0,0,-0.0141925,0.0314455,1.4525
0.637,TRAPJ,24.3678,0,0,0,0,0,-0.0142344,0.0314266,1.4525
0.638,TRAPJ,24.4442,0,0,0,0,0,-0.0142763,0.0314076,1.4525
0.639,TRAPJ,24.5208,0,0,0,0,0,-0.0143183,0.0313885,1.4525
0.64,TRAPJ,24.5975,0,0,0,0,0,-0.0143603,0.0313693,1.4525
0.641,TRAPJ,24.6743,0,0,0,0,0,-0.0144023,0.03135,1.4525
0.642,TRAPJ,24.7512,0,0,0,0,0,-0.0144444,0.0313306,1.4525
0.643,TRAPJ,24.8282,0,0,0,0,0,-0.0144865,0.0313112,1.4525
0.644,TRAPJ,24.9054,0,0,0,0,0,-0.0145287,0.0312916,1.4525
0.645,TRAPJ,24.9827,0,0,0,0,0,-0.0145709,0.031272,1.4525
0.646,TRAPJ,25.0601,0,0,0,0,0,-0.0146131,0.0312523,1.4525
0.647,TRAPJ,25.1376,0,0,0,0,0,-0.0146554,0.0312325,1.4525
0.648,TRAPJ,25.2153,0,0,0,0,0,-0.0146977,0.0312126,1.4525
0.649,TRAPJ,25.293,0,0,0,0,0,-0.0147401,0.0311926,1.4525
0.65,TRAPJ,25.3709,0,0,0,0,0,-0.0147824,0.0311726,1.4525
0.651,TRAPJ,25.4489,0,0,0,0,0,-0.0148249,0.0311524,1.4525
0.652,TRAPJ,25.5271,0,0,0,0,0,-0.0148673,0.0311322,1.4525
0.653,TRAPJ,25.6053,0,0,0,0,0,-0.0149098,0.0311118,1.4525
0.654,TRAPJ,25.6837,0,0,0,0,0,-0.0149524,0.0310914,1.4525
0.655,TRAPJ,25.7621,0,0,0,0,0,-0.0149949,0.0310709,1.4525
0.656,TRAPJ,25.8407,0,0,0,0,0,-0.0150376,0.0310503,1.4525
0.657,TRAPJ,25.9195,0,0,0,0,0,-0.0150802,0.0310296,1.4525
0.658,TRAPJ,25.9983,0,0,0,0,0,-0.0151229,0.0310088,1.4525
0.659,TRAPJ,26.0773,0,0,0,0,0,-0.0151656,0.030988,1.4525
0.66,TRAPJ,26.1564,0,0,0,0,0,-0.0152084,0.030967,1.4525
0.661,TRAPJ,26.2356,0,0,0,0,0,-0.0152512,0.030946,1.4525
0.662,TRAPJ,26.3149,0,0,0,0,0,-0.015294,0.0309248,1.4525
0.663,TRAPJ,26.3943,0,0,0,0,0,-0.0153369,0.0309036,1.4525
0.664,TRAPJ,26.4739,0,0,0,0,0,-0.0153797,0.0308822,1.4525
0.665,TRAPJ,26.5536,0,0,0,0,0,-0.0154227,0.0308608,1.4525
0.666,TRAPJ,26.6334,0,0,0,0,0,-0.0154656,0.0308393,1.4525
0.667,TRAPJ,26.7133,0,0,0,0,0,-0.0155086,0.0308177,1.4525
0.668,TRAPJ,26.7933,0,0,0,0,0,-0.0155517,0.030796,1.4525
0.669,TRAPJ,26.8735,0,0,0,0,0,-0.0155948,0.0307742,1.4525
0.67,TRAPJ,26.9538,0,0,0,0,0,-0.0156379,0.0307524,1.4525
0.671,TRAPJ,27.0342,0,0,0,0,0,-0.015681,0.0307304,1.4525
0.672,TRAPJ,27.1147,0,0,0,0,0,-0.0157242,0.0307083,1.4525
0.673,TRAPJ,27.1953,0,0,0,0,0,-0.0157674,0.0306862,1.4525
0.674,TRAPJ,27.2761,0,0,0,0,0,-0.0158106,0.0306639,1.4525
0.675,TRAPJ,27.357,0,0,0,0,0,-0.0158539,0.0306416,1.4525
0.676,TRAPJ,27.4379,0,0,0,0,0,-0.0158972,0.0306191,1.4525
0.677,TRAPJ,27.5191,0,0,0,0,0,-0.0159405,0.0305966,1.4525
0.678,TRAPJ,27.6003,0,0,0,0,0,-0.0159839,0.0305739,1.4525
0.679,TRAPJ,27.6817,0,0,0,0,0,-0.0160273,0.0305512,1.4525
0.68,TRAPJ,27.7631,0,0,0,0,0,-0.0160707,0.0305284,1.4525
0.681,TRAPJ,27.8447,0,0,0,0,0,-0.0161142,0.0305055,1.4525
0.682,TRAPJ,27.9264,0,0,0,0,0,-0.0161577,0.0304825,1.4525
0.683,TRAPJ,28.0083,0,0,0,0,0,-0.0162012,0.0304593,1.4525
0.684,TRAPJ,28.0902,0,0,0,0,0,-0.0162447,0.0304361,1.4525
0.685,TRAPJ,28.1723,0,0,0,0,0,-0.0162883,0.0304128,1.4525
0.686,TRAPJ,28.2545,0,0,0,0,0,-0.0163319,0.0303894,1.4525
0.687,TRAPJ,28.3368,0,0,0,0,0,-0.0163756,0.0303659,1.4525
0.688,TRAPJ,28.4193,0,0,0,0,0,-0.0164192,0.0303424,1.4525
0.689,TRAPJ,28.5018,0,0,0,0,0,-0.0164629,0.0303187,1.4525
0.69,TRAPJ,28.5845,0,0,0,0,0,-0.0165067,0.0302949,1.4525
0.691,TRAPJ,28.6673,0,0,0,0,0,-0.0165504,0.030271,1.4525
0.692,TRAPJ,28.7502,0,0,0,0,0,-0.0165942,0.030247,1.4525
0.693,TRAPJ,28.8332,0,0,0,0,0,-0.016638,0.0302229,1.4525
0.694,TRAPJ,28.9164,0,0,0,0,0,-0.0166819,0.0301988,1.4525
0.695,TRAPJ,28.9997,0,0,0,0,0,-0.0167257,0.0301745,1.4525
0.696,TRAPJ,29.083,0,0,0,0,0,-0.0167696,0.0301501,1.4525
0.697,TRAPJ,29.1666,0,0,0,0,0,-0.0168136,0.0301256,1.4525
0.698,TRAPJ,29.2502,0,0,0,0,0,-0.0168575,0.0301011,1.4525
0.699,TRAPJ,29.3339,0,0,0,0,0,-0.0169015,0.0300764,1.4525
0.7,TRAPJ,29.4178,0,0,0,0,0,-0.0169455,0.0300516,1.4525
0.701,TRAPJ,29.5018,0,0,0,0,0,-0.0169896,0.0300267,1.4525
0.702,TRAPJ,29.5859,0,0,0,0,0,-0.0170336,0.0300018,1.4525
0.703,TRAPJ,29.6701,0,0,0,0,0,-0.0170777,0.0299767,1.4525
0.704,TRAPJ,29.7545,0,0,0,0,0,-0.0171218,0.0299515,1.4525
0.705,TRAPJ,29.839,0,0,0,0,0,-0.017166,0.0299262,1.4525
0.706,TRAPJ,29.9236,0,0,0,0,0,-0.0172101,0.0299009,1.4525
0.707,TRAPJ,30.0083,0,0,0,0,0,-0.0172543,0.0298754,1.4525
0.708,TRAPJ,30.0931,0,0,0,0,0,-0.0172985,0.0298498,1.4525
0.709,TRAPJ,30.178,0,0,0,0,0,-0.0173428,0.0298241,1.4525
0.71,TRAPJ,30.2631,0,0,0,0,0,-0.017387,0.0297983,1.4525
0.711,TRAPJ,30.3483,0,0,0,0,0,-0.0174313,0.0297725,1.4525
0.712,TRAPJ,30.4336,0,0,0,0,0,-0.0174756,0.0297465,1.4525
0.713,TRAPJ,30.519,0,0,0,0,0,-0.0175199,0.0297204,1.4525
0.714,TRAPJ,30.6046,0,0,0,0,0,-0.0175643,0.0296942,1.4525
0.715,TRAPJ,30.6902,0,0,0,0,0,-0.0176087,0.0296679,1.4525
0.716,TRAPJ,30.776,0,0,0,0,0,-0.0176531,0.0296415,1.4525
0.717,TRAPJ,30.8619,0,0,0,0,0,-0.0176975,0.029615,1.4525
0.718,TRAPJ,30.948,0,0,0,0,0,-0.0177419,0.0295884,1.4525
0.719,TRAPJ,31.0341,0,0,0,0,0,-0.0177864,0.0295617,1.4525
0.72,TRAPJ,31.1204,0,0,0,0,0,-0.0178309,0.0295349,1.4525
0.721,TRAPJ,31.2068,0,0,0,0,0,-0.0178754,0.029508,1.4525
0.722,TRAPJ,31.2933,0,0,0,0,0,-0.0179199,0.0294809,1.4525
0.723,TRAPJ,31.3799,0,0,0,0,0,-0.0179645,0.0294538,1.4525
0.724,TRAPJ,31.4666,0,0,0,0,0,-0.0180091,0.0294266,1.4525
0.725,TRAPJ,31.5535,0,0,0,0,0,-0.0180537,0.0293992,1.4525
0.726,TRAPJ,31.6405,0,0,0,0,0,-0.0180983,0.0293718,1.4525
0.727,TRAPJ,31.7276,0,0,0,0,0,-0.0181429,0.0293443,1.4525
0.728,TRAPJ,31.8148,0,0,0,0,0,-0.0181876,0.0293166,1.4525
0.729,TRAPJ,31.9022,0,0,0,0,0,-0.0182322,0.0292888,1.4525
0.73,TRAPJ,31.9896,0,0,0,0,0,-0.0182769,0.029261,1.4525
0.731,TRAPJ,32.0772,0,0,0,0,0,-0.0183216,0.029233,1.4525
0.732,TRAPJ,32.1649,0,0,0,0,0,-0.0183663,0.0292049,1.4525
0.733,TRAPJ,32.2527,0,0,0,0,0,-0.0184111,0.0291767,1.4525
0.734,TRAPJ,32.3407,0,0,0,0,0,-0.0184559,0.0291484,1.4525
0.735,TRAPJ,32.4287,0,0,0,0,0,-0.0185006,0.02912,1.4525
0.736,TRAPJ,32.5169,0,0,0,0,0,-0.0185454,0.0290915,1.4525
0.737,TRAPJ,32.6052,0,0,0,0,0,-0.0185902,0.0290629,1.4525
0.738,TRAPJ,32.6936,0,0,0,0,0,-0.0186351,0.0290342,1.4525
0.739,TRAPJ,32.7822,0,0,0,0,0,-0.0186799,0.0290054,1.4525
0.74,TRAPJ,32.8708,0,0,0,0,0,-0.0187248,0.0289764,1.4525
0.741,TRAPJ,32.9596,0,0,0,0,0,-0.0187696,0.0289474,1.4525
0.742,TRAPJ,33.0485,0,0,0,0,0,-0.0188145,0.0289182,1.4525
0.743,TRAPJ,33.1375,0,0,0,0,0,-0.0188594,0.0288889,1.4525
0.744,TRAPJ,33.2267,0,0,0,0,0,-0.0189044,0.0288596,1.4525
0.745,TRAPJ,33.3159,0,0,0,0,0,-0.0189493,0.0288301,1.4525
0.746,TRAPJ,33.4053,0,0,0,0,0,-0.0189943,0.0288005,1.4525
0.747,TRAPJ,33.4948,0,0,0,0,0,-0.0190392,0.0287708,1.4525
0.748,TRAPJ,33.5844,0,0,0,0,0,-0.0190842,0.028741,1.4525
0.749,TRAPJ,33.6742,0,0,0,0,0,-0.0191292,0.028711,1.4525
0.75,TRAPJ,33.764,0,0,0,0,0,-0.0191742,0.028681,1.4525
0.751,TRAPJ,33.854,0,0,0,0,0,-0.0192192,0.0286509,1.4525
0.752,TRAPJ,33.9441,0,0,0,0,0,-0.0192642,0.0286206,1.4525
0.753,TRAPJ,34.0343,0,0,0,0,0,-0.0193093,0.0285902,1.4525
0.754,TRAPJ,34.1247,0,0,0,0,0,-0.0193543,0.0285598,1.4525
0.755,TRAPJ,34.2151,0,0,0,0,0,-0.0193994,0.0285292,1.4525
0.756,TRAPJ,34.3057,0,0,0,0,0,-0.0194445,0.0284985,1.4525
0.757,TRAPJ,34.3964,0,0,0,0,0,-0.0194896,0.0284676,1.4525
0.758,TRAPJ,34.4872,0,0,0,0,0,-0.0195347,0.0284367,1.4525
0.759,TRAPJ,34.5781,0,0,0,0,0,-0.0195798,0.0284057,1.4525
0.76,TRAPJ,34.6692,0,0,0,0,0,-0.0196249,0.0283745,1.4525
0.761,TRAPJ,34.7604,0,0,0,0,0,-0.01967,0.0283433,1.4525
0.762,TRAPJ,34.8517,0,0,0,0,0,-0.0197152,0.0283119,1.4525
0.763,TRAPJ,34.9431,0,0,0,0,0,-0.0197603,0.0282804,1.4525
0.764,TRAPJ,35.0346,0,0,0,0,0,-0.0198055,0.0282488,1.4525
0.765,TRAPJ,35.1263,0,0,0,0,0,-0.0198506,0.0282171,1.4525
0.766,TRAPJ,35.218,0,0,0,0,0,-0.0198958,0.0281852,1.4525
0.767,TRAPJ,35.3099,0,0,0,0,0,-0.019941,0.0281533,1.4525
0.768,TRAPJ,35.4019,0,0,0,0,0,-0.0199862,0.0281212,1.4525
0.769,TRAPJ,35.4941,0,0,0,0,0,-0.0200313,0.0280891,1.4525
0.77,TRAPJ,35.5863,0,0,0,0,0,-0.0200765,0.0280568,1.4525
0.771,TRAPJ,35.6787,0,0,0,0,0,-0.0201218,0.0280244,1.4525
0.772,TRAPJ,35.7712,0,0,0,0,0,-0.020167,0.0279918,1.4525
0.773,TRAPJ,35.8638,0,0,0,0,0,-0.0202122,0.0279592,1.4525
0.774,TRAPJ,35.9565,0,0,0,0,0,-0.0202574,0.0279265,1.4525
0.775,TRAPJ,36.0494,0,0,0,0,0,-0.0203026,0.0278936,1.4525
0.776,TRAPJ,36.1423,0,0,0,0,0,-0.0203479,0.0278606,1.4525
0.777,TRAPJ,36.2354,0,0,0,0,0,-0.0203931,0.0278275,1.4525
0.778,TRAPJ,36.3286,0,0,0,0,0,-0.0204384,0.0277943,1.4525
0.779,TRAPJ,36.422,0,0,0,0,0,-0.0204836,0.027761,1.4525
0.78,TRAPJ,36.5154,0,0,0,0,0,-0.0205289,0.0277275,1.4525
0.781,TRAPJ,36.609,0,0,0,0,0,-0.0205741,0.027694,1.4525
0.782,TRAPJ,36.7027,0,0,0,0,0,-0.0206194,0.0276603,1.4525
0.783,TRAPJ,36.7965,0,0,0,0,0,-0.0206646,0.0276265,1.4525
0.784,TRAPJ,36.8904,0,0,0,0,0,-0.0207099,0.0275926,1.4525
0.785,TRAPJ,36.9845,0,0,0,0,0,-0.0207551,0.0275586,1.4525
0.786,TRAPJ,37.0786,0,0,0,0,0,-0.0208004,0.0275244,1.4525
0.787,TRAPJ,37.1729,0,0,0,0,0,-0.0208457,0.0274901,1.4525
0.788,TRAPJ,37.2673,0,0,0,0,0,-0.0208909,0.0274558,1.4525
0.789,TRAPJ,37.3619,0,0,0,0,0,-0.0209362,0.0274212,1.4525
0.79,TRAPJ,37.4565,0,0,0,0,0,-0.0209815,0.0273866,1.4525
0.791,TRAPJ,37.5513,0,0,0,0,0,-0.0210268,0.0273519,1.4525
0.792,TRAPJ,37.6462,0,0,0,0,0,-0.021072,0.027317,1.4525
0.793,TRAPJ,37.7412,0,0,0,0,0,-0.0211173,0.027282,1.4525
0.794,TRAPJ,37.8363,0,0,0,0,0,-0.0211626,0.0272469,1.4525
0.795,TRAPJ,37.9315,0,0,0,0,0,-0.0212078,0.0272117,1.4525
0.796,TRAPJ,38.0269,0,0,0,0,0,-0.0212531,0.0271764,1.4525
0.797,TRAPJ,38.1224,0,0,0,0,0,-0.0212983,0.0271409,1.4525
0.798,TRAPJ,38.218,0,0,0,0,0,-0.0213436,0.0271054,1.4525
0.799,TRAPJ,38.3137,0,0,0,0,0,-0.0213889,0.0270697,1.4525
0.8,TRAPJ,38.4096,0,0,0,0,0,-0.0214341,0.0270338,1.4525
0.801,TRAPJ,38.5055,0,0,0,0,0,-0.0214794,0.0269979,1.4525
0.802,TRAPJ,38.6016,0,0,0,0,0,-0.0215246,0.0269619,1.4525
0.803,TRAPJ,38.6978,0,0,0,0,0,-0.0215698,0.0269257,1.4525
0.804,TRAPJ,38.7941,0,0,0,0,0,-0.0216151,0.0268894,1.4525
0.805,TRAPJ,38.8906,0,0,0,0,0,-0.0216603,0.026853,1.4525
0.806,TRAPJ,38.9871,0,0,0,0,0,-0.0217055,0.0268164,1.4525
0.807,TRAPJ,39.0838,0,0,0,0,0,-0.0217508,0.0267797,1.4525
0.808,TRAPJ,39.1806,0,0,0,0,0,-0.021796,0.026743,1.4525
0.809,TRAPJ,39.2775,0,0,0,0,0,-0.0218412,0.026706,1.4525
0.81,TRAPJ,39.3746,0,0,0,0,0,-0.0218864,0.026669,1.4525
0.811,TRAPJ,39.4717,0,0,0,0,0,-0.0219316,0.0266319,1.4525
0.812,TRAPJ,39.569,0,0,0,0,0,-0.0219768,0.0265946,1.4525
0.813,TRAPJ,39.6664,0,0,0,0,0,-0.0220219,0.0265572,1.4525
0.814,TRAPJ,39.764,0,0,0,0,0,-0.0220671,0.0265197,1.4525
0.815,TRAPJ,39.8616,0,0,0,0,0,-0.0221123,0.026482,1.4525
0.816,TRAPJ,39.9594,0,0,0,0,0,-0.0221574,0.0264443,1.4525
0.817,TRAPJ,40.0572,0,0,0,0,0,-0.0222026,0.0264064,1.4525
0.818,TRAPJ,40.1552,0,0,0,0,0,-0.0222477,0.0263684,1.4525
0.819,TRAPJ,40.2533,0,0,0,0,0,-0.0222928,0.0263302,1.4525
0.82,TRAPJ,40.3516,0,0,0,0,0,-0.0223379,0.026292,1.4525
0.821,TRAPJ,40.4499,0,0,0,0,0,-0.022383,0.0262536,1.4525
0.822,TRAPJ,40.5484,0,0,0,0,0,-0.0224281,0.0262151,1.4525
0.823,TRAPJ,40.647,0,0,0,0,0,-0.0224732,0.0261764,1.4525
0.824,TRAPJ,40.7457,0,0,0,0,0,-0.0225183,0.0261377,1.4525
0.825,TRAPJ,40.8446,0,0,0,0,0,-0.0225633,0.0260988,1.4525
0.826,TRAPJ,40.9435,0,0,0,0,0,-0.0226084,0.0260598,1.4525
0.827,TRAPJ,41.0426,0,0,0,0,0,-0.0226534,0.0260206,1.4525
0.828,TRAPJ,41.1418,0,0,0,0,0,-0.0226984,0.0259814,1.4525
0.829,TRAPJ,41.2411,0,0,0,0,0,-0.0227434,0.025942,1.4525
0.83,TRAPJ,41.3406,0,0,0,0,0,-0.0227884,0.0259025,1.4525
0.831,TRAPJ,41.4401,0,0,0,0,0,-0.0228334,0.0258629,1.4525
0.832,TRAPJ,41.5398,0,0,0,0,0,-0.0228783,0.0258231,1.4525
0.833,TRAPJ,41.6396,0,0,0,0,0,-0.0229233,0.0257832,1.4525
0.834,TRAPJ,41.7395,0,0,0,0,0,-0.0229682,0.0257432,1.4525
0.835,TRAPJ,41.8395,0,0,0,0,0,-0.0230131,0.025703,1.4525
0.836,TRAPJ,41.9397,0,0,0,0,0,-0.023058,0.0256628,1.4525
0.837,TRAPJ,42.04,0,0,0,0,0,-0.0231029,0.0256224,1.4525
0.838,TRAPJ,42.1404,0,0,0,0,0,-0.0231477,0.0255819,1.4525
0.839,TRAPJ,42.2409,0,0,0,0,0,-0.0231926,0.0255412,1.4525
0.84,TRAPJ,42.3415,0,0,0,0,0,-0.0232374,0.0255004,1.4525
0.841,TRAPJ,42.4423,0,0,0,0,0,-0.0232822,0.0254595,1.4525
0.842,TRAPJ,42.5431,0,0,0,0,0,-0.023327,0.0254185,1.4525
0.843,TRAPJ,42.6441,0,0,0,0,0,-0.0233718,0.0253774,1.4525
0.844,TRAPJ,42.7452,0,0,0,0,0,-0.0234165,0.0253361,1.4525
0.845,TRAPJ,42.8465,0,0,0,0,0,-0.0234612,0.0252947,1.4525
0.846,TRAPJ,42.9478,0,0,0,0,0,-0.023506,0.0252531,1.4525
0.847,TRAPJ,43.0493,0,0,0,0,0,-0.0235506,0.0252115,1.4525
0.848,TRAPJ,43.1509,0,0,0,0,0,-0.0235953,0.0251697,1.4525
0.849,TRAPJ,43.2526,0,0,0,0,0,-0.02364,0.0251277,1.4525
0.85,TRAPJ,43.3544,0,0,0,0,0,-0.0236846,0.0250857,1.4525
0.851,TRAPJ,43.4564,0,0,0,0,0,-0.0237292,0.0250435,1.4525
0.852,TRAPJ,43.5584,0,0,0,0,0,-0.0237737,0.0250012,1.4525
0.853,TRAPJ,43.6606,0,0,0,0,0,-0.0238183,0.0249587,1.4525
0.854,TRAPJ,43.7629,0,0,0,0,0,-0.0238628,0.0249162,1.4525
0.855,TRAPJ,43.8654,0,0,0,0,0,-0.0239073,0.0248735,1.4525
0.856,TRAPJ,43.9679,0,0,0,0,0,-0.0239518,0.0248306,1.4525
0.857,TRAPJ,44.0706,0,0,0,0,0,-0.0239963,0.0247877,1.4525
0.858,TRAPJ,44.1734,0,0,0,0,0,-0.0240407,0.0247446,1.4525
0.859,TRAPJ,44.2763,0,0,0,0,0,-0.0240851,0.0247014,1.4525
0.86,TRAPJ,44.3793,0,0,0,0,0,-0.0241295,0.024658,1.4525
0.861,TRAPJ,44.4825,0,0,0,0,0,-0.0241738,0.0246145,1.4525
0.862,TRAPJ,44.5857,0,0,0,0,0,-0.0242182,0.0245709,1.4525
0.863,TRAPJ,44.6891,0,0,0,0,0,-0.0242625,0.0245272,1.4525
0.864,TRAPJ,44.7926,0,0,0,0,0,-0.0243067,0.0244833,1.4525
0.865,TRAPJ,44.8963,0,0,0,0,0,-0.024351,0.0244393,1.4525
0.866,TRAPJ,45,0,0,0,0,0,-0.0243952,0.0243952,1.4525
0.867,TRAPJ,45.1039,0,0,0,0,0,-0.0244394,0.0243509,1.4525
0.868,TRAPJ,45.2079,0,0,0,0,0,-0.0244835,0.0243065,1.4525
0.869,TRAPJ,45.312,0,0,0,0,0,-0.0245276,0.024262,1.4525
0.87,TRAPJ,45.4162,0,0,0,0,0,-0.0245717,0.0242173,1.4525
0.871,TRAPJ,45.5205,0,0,0,0,0,-0.0246158,0.0241726,1.4525
0.872,TRAPJ,45.625,0,0,0,0,0,-0.0246598,0.0241276,1.4525
0.873,TRAPJ,45.7296,0,0,0,0,0,-0.0247038,0.0240826,1.4525
0.874,TRAPJ,45.8343,0,0,0,0,0,-0.0247478,0.0240374,1.4525
0.875,TRAPJ,45.9391,0,0,0,0,0,-0.0247917,0.0239921,1.4525
0.876,TRAPJ,46.044,0,0,0,0,0,-0.0248356,0.0239466,1.4525
0.877,TRAPJ,46.1491,0,0,0,0,0,-0.0248795,0.023901,1.4525
0.878,TRAPJ,46.2543,0,0,0,0,0,-0.0249233,0.0238553,1.4525
0.879,TRAPJ,46.3596,0,0,0,0,0,-0.0249671,0.0238095,1.4525
0.88,TRAPJ,46.465,0,0,0,0,0,-0.0250109,0.0237635,1.4525
0.881,TRAPJ,46.5706,0,0,0,0,0,-0.0250546,0.0237174,1.4525
0.882,TRAPJ,46.6762,0,0,0,0,0,-0.0250983,0.0236711,1.4525
0.883,TRAPJ,46.782,0,0,0,0,0,-0.025142,0.0236248,1.4525
0.884,TRAPJ,46.8879,0,0,0,0,0,-0.0251856,0.0235783,1.4525
0.885,TRAPJ,46.9939,0,0,0,0,0,-0.0252292,0.0235316,1.4525
0.886,TRAPJ,47.1001,0,0,0,0,0,-0.0252728,0.0234848,1.4525
0.887,TRAPJ,47.2063,0,0,0,0,0,-0.0253163,0.0234379,1.4525
0.888,TRAPJ,47.3127,0,0,0,0,0,-0.0253597,0.0233909,1.4525
0.889,TRAPJ,47.4192,0,0,0,0,0,-0.0254032,0.0233437,1.4525
0.89,TRAPJ,47.5258,0,0,0,0,0,-0.0254466,0.0232964,1.4525
0.891,TRAPJ,47.6326,0,0,0,0,0,-0.0254899,0.0232489,1.4525
0.892,TRAPJ,47.7394,0,0,0,0,0,-0.0255332,0.0232014,1.4525
0.893,TRAPJ,47.8464,0,0,0,0,0,-0.0255765,0.0231537,1.4525
0.894,TRAPJ,47.9535,0,0,0,0,0,-0.0256198,0.0231058,1.4525
0.895,TRAPJ,48.0607,0,0,0,0,0,-0.0256629,0.0230578,1.4525
0.896,TRAPJ,48.1681,0,0,0,0,0,-0.0257061,0.0230097,1.4525
0.897,TRAPJ,48.2755,0,0,0,0,0,-0.0257492,0.0229614,1.4525
0.898,TRAPJ,48.3831,0,0,0,0,0,-0.0257923,0.0229131,1.4525
0.899,TRAPJ,48.4908,0,0,0,0,0,-0.0258353,0.0228645,1.4525
0.9,TRAPJ,48.5986,0,0,0,0,0,-0.0258783,0.0228159,1.4525
0.901,TRAPJ,48.7066,0,0,0,0,0,-0.0259212,0.0227671,1.4525
0.902,TRAPJ,48.8146,0,0,0,0,0,-0.0259641,0.0227182,1.4525
0.903,TRAPJ,48.9228,0,0,0,0,0,-0.026007,0.0226691,1.4525
0.904,TRAPJ,49.0311,0,0,0,0,0,-0.0260498,0.0226199,1.4525
0.905,TRAPJ,49.1395,0,0,0,0,0,-0.0260925,0.0225706,1.4525
0.906,TRAPJ,49.248,0,0,0,0,0,-0.0261352,0.0225211,1.4525
0.907,TRAPJ,49.3567,0,0,0,0,0,-0.0261779,0.0224715,1.4525
0.908,TRAPJ,49.4655,0,0,0,0,0,-0.0262205,0.0224218,1.4525
0.909,TRAPJ,49.5744,0,0,0,0,0,-0.0262631,0.0223719,1.4525
0.91,TRAPJ,49.6834,0,0,0,0,0,-0.0263056,0.0223219,1.4525
0.911,TRAPJ,49.7925,0,0,0,0,0,-0.0263481,0.0222717,1.4525
0.912,TRAPJ,49.9018,0,0,0,0,0,-0.0263905,0.0222215,1.4525
0.913,TRAPJ,50.0111,0,0,0,0,0,-0.0264328,0.022171,1.4525
0.914,TRAPJ,50.1206,0,0,0,0,0,-0.0264752,0.0221205,1.4525
0.915,TRAPJ,50.2302,0,0,0,0,0,-0.0265174,0.0220698,1.4525
0.916,TRAPJ,50.34,0,0,0,0,0,-0.0265597,0.022019,1.4525
0.917,TRAPJ,50.4498,0,0,0,0,0,-0.0266018,0.021968,1.4525
0.918,TRAPJ,50.5598,0,0,0,0,0,-0.0266439,0.0219169,1.4525
0.919,TRAPJ,50.6699,0,0,0,0,0,-0.026686,0.0218657,1.4525
0.92,TRAPJ,50.7801,0,0,0,0,0,-0.026728,0.0218143,1.4525
0.921,TRAPJ,50.8904,0,0,0,0,0,-0.02677,0.0217628,1.4525
0.922,TRAPJ,51.0009,0,0,0,0,0,-0.0268119,0.0217111,1.4525
0.923,TRAPJ,51.1115,0,0,0,0,0,-0.0268537,0.0216594,1.4525
0.924,TRAPJ,51.2221,0,0,0,0,0,-0.0268955,0.0216074,1.4525
0.925,TRAPJ,51.333,0,0,0,0,0,-0.0269373,0.0215554,1.4525
0.926,TRAPJ,51.4439,0,0,0,0,0,-0.0269789,0.0215032,1.4525
0.927,TRAPJ,51.5549,0,0,0,0,0,-0.0270206,0.0214509,1.4525
0.928,TRAPJ,51.6661,0,0,0,0,0,-0.0270621,0.0213984,1.4525
0.929,TRAPJ,51.7774,0,0,0,0,0,-0.0271036,0.0213458,1.4525
0.93,TRAPJ,51.8888,0,0,0,0,0,-0.0271451,0.021293,1.4525
0.931,TRAPJ,52.0003,0,0,0,0,0,-0.0271865,0.0212402,1.4525
0.932,TRAPJ,52.112,0,0,0,0,0,-0.0272278,0.0211871,1.4525
0.933,TRAPJ,52.2238,0,0,0,0,0,-0.0272691,0.021134,1.4525
0.934,TRAPJ,52.3356,0,0,0,0,0,-0.0273103,0.0210807,1.4525
0.935,TRAPJ,52.4476,0,0,0,0,0,-0.0273515,0.0210273,1.4525
0.936,TRAPJ,52.5598,0,0,0,0,0,-0.0273926,0.0209737,1.4525
0.937,TRAPJ,52.672,0,0,0,0,0,-0.0274336,0.02092,1.4525
0.938,TRAPJ,52.7844,0,0,0,0,0,-0.0274746,0.0208662,1.4525
0.939,TRAPJ,52.8969,0,0,0,0,0,-0.0275155,0.0208122,1.4525
0.94,TRAPJ,53.0095,0,0,0,0,0,-0.0275564,0.0207581,1.4525
0.941,TRAPJ,53.1222,0,0,0,0,0,-0.0275971,0.0207038,1.4525
0.942,TRAPJ,53.2351,0,0,0,0,0,-0.0276379,0.0206494,1.4525
0.943,TRAPJ,53.348,0,0,0,0,0,-0.0276785,0.0205949,1.4525
0.944,TRAPJ,53.4611,0,0,0,0,0,-0.0277191,0.0205402,1.4525
0.945,TRAPJ,53.5743,0,0,0,0,0,-0.0277597,0.0204854,1.4525
0.946,TRAPJ,53.6876,0,0,0,0,0,-0.0278001,0.0204305,1.4525
0.947,TRAPJ,53.8011,0,0,0,0,0,-0.0278405,0.0203754,1.4525
0.948,TRAPJ,53.9146,0,0,0,0,0,-0.0278808,0.0203201,1.4525
0.949,TRAPJ,54.0283,0,0,0,0,0,-0.0279211,0.0202648,1.4525
0.95,TRAPJ,54.1421,0,0,0,0,0,-0.0279613,0.0202093,1.4525
0.951,TRAPJ,54.2561,0,0,0,0,0,-0.0280014,0.0201537,1.4525
0.952,TRAPJ,54.3701,0,0,0,0,0,-0.0280415,0.0200979,1.4525
0.953,TRAPJ,54.4843,0,0,0,0,0,-0.0280815,0.020042,1.4525
0.954,TRAPJ,54.5985,0,0,0,0,0,-0.0281214,0.0199859,1.4525
0.955,TRAPJ,54.7129,0,0,0,0,0,-0.0281613,0.0199297,1.4525
0.956,TRAPJ,54.8275,0,0,0,0,0,-0.028201,0.0198734,1.4525
0.957,TRAPJ,54.9421,0,0,0,0,0,-0.0282407,0.0198169,1.4525
0.958,TRAPJ,55.0569,0,0,0,0,0,-0.0282804,0.0197603,1.4525
0.959,TRAPJ,55.1718,0,0,0,0,0,-0.0283199,0.0197036,1.4525
0.96,TRAPJ,55.2868,0,0,0,0,0,-0.0283594,0.0196467,1.4525
0.961,TRAPJ,55.4019,0,0,0,0,0,-0.0283988,0.0195897,1.4525
0.962,TRAPJ,55.5171,0,0,0,0,0,-0.0284382,0.0195325,1.4525
0.963,TRAPJ,55.6325,0,0,0,0,0,-0.0284775,0.0194752,1.4525
0.964,TRAPJ,55.748,0,0,0,0,0,-0.0285167,0.0194178,1.4525
0.965,TRAPJ,55.8636,0,0,0,0,0,-0.0285558,0.0193602,1.4525
0.966,TRAPJ,55.9793,0,0,0,0,0,-0.0285948,0.0193025,1.4525
0.967,TRAPJ,56.0951,0,0,0,0,0,-0.0286338,0.0192446,1.4525
0.968,TRAPJ,56.2111,0,0,0,0,0,-0.0286727,0.0191867,1.4525
0.969,TRAPJ,56.3272,0,0,0,0,0,-0.0287115,0.0191285,1.4525
0.97,TRAPJ,56.4433,0,0,0,0,0,-0.0287502,0.0190703,1.4525
0.971,TRAPJ,56.5597,0,0,0,0,0,-0.0287889,0.0190119,1.4525
0.972,TRAPJ,56.6761,0,0,0,0,0,-0.0288275,0.0189533,1.4525
0.973,TRAPJ,56.7927,0,0,0,0,0,-0.0288659,0.0188946,1.4525
0.974,TRAPJ,56.9093,0,0,0,0,0,-0.0289044,0.0188358,1.4525
0.975,TRAPJ,57.0261,0,0,0,0,0,-0.0289427,0.0187768,1.4525
0.976,TRAPJ,57.1431,0,0,0,0,0,-0.028981,0.0187177,1.4525
0.977,TRAPJ,57.2601,0,0,0,0,0,-0.0290191,0.0186585,1.4525
0.978,TRAPJ,57.3772,0,0,0,0,0,-0.0290572,0.0185991,1.4525
0.979,TRAPJ,57.4945,0,0,0,0,0,-0.0290952,0.0185396,1.4525
0.98,TRAPJ,57.6119,0,0,0,0,0,-0.0291332,0.01848,1.4525
0.981,TRAPJ,57.7294,0,0,0,0,0,-0.029171,0.0184202,1.4525
0.982,TRAPJ,57.8471,0,0,0,0,0,-0.0292088,0.0183602,1.4525
0.983,TRAPJ,57.9648,0,0,0,0,0,-0.0292464,0.0183002,1.4525
0.984,TRAPJ,58.0827,0,0,0,0,0,-0.029284,0.01824,1.4525
0.985,TRAPJ,58.2007,0,0,0,0,0,-0.0293215,0.0181796,1.4525
0.986,TRAPJ,58.3188,0,0,0,0,0,-0.0293589,0.0181191,1.4525
0.987,TRAPJ,58.437,0,0,0,0,0,-0.0293963,0.0180585,1.4525
0.988,TRAPJ,58.5554,0,0,0,0,0,-0.0294335,0.0179978,1.4525
0.989,TRAPJ,58.6739,0,0,0,0,0,-0.0294707,0.0179369,1.4525
0.99,TRAPJ,58.7925,0,0,0,0,0,-0.0295077,0.0178758,1.4525
0.991,TRAPJ,58.9112,0,0,0,0,0,-0.0295447,0.0178146,1.4525
0.992,TRAPJ,59.03,0,0,0,0,0,-0.0295816,0.0177533,1.4525
0.993,TRAPJ,59.149,0,0,0,0,0,-0.0296184,0.0176919,1.4525
0.994,TRAPJ,59.268,0,0,0,0,0,-0.0296551,0.0176303,1.4525
0.995,TRAPJ,59.3872,0,0,0,0,0,-0.0296917,0.0175686,1.4525
0.996,TRAPJ,59.5065,0,0,0,0,0,-0.0297282,0.0175067,1.4525
0.997,TRAPJ,59.626,0,0,0,0,0,-0.0297646,0.0174447,1.4525
0.998,TRAPJ,59.7455,0,0,0,0,0,-0.029801,0.0173825,1.4525
0.999,TRAPJ,59.8652,0,0,0,0,0,-0.0298372,0.0173203,1.4525
1,TRAPJ,59.985,0,0,0,0,0,-0.0298734,0.0172578,1.4525
1.001,TRAPJ,55.7689,0,0,0,0,0,-0.0285237,0.0194074,1.4525
1.002,TRAPJ,55.8565,0,0,0,0,0,-0.0285534,0.0193637,1.4525
1.003,TRAPJ,55.9439,0,0,0,0,0,-0.0285829,0.0193201,1.4525
1.004,TRAPJ,56.0313,0,0,0,0,0,-0.0286123,0.0192765,1.4525
1.005,TRAPJ,56.1185,0,0,0,0,0,-0.0286416,0.019233,1.4525
1.006,TRAPJ,56.2056,0,0,0,0,0,-0.0286708,0.0191894,1.4525
1.007,TRAPJ,56.2926,0,0,0,0,0,-0.0286999,0.0191458,1.4525
1.008,TRAPJ,56.3795,0,0,0,0,0,-0.0287289,0.0191023,1.4525
1.009,TRAPJ,56.4662,0,0,0,0,0,-0.0287578,0.0190588,1.4525
1.01,TRAPJ,56.5528,0,0,0,0,0,-0.0287866,0.0190153,1.4525
1.011,TRAPJ,56.6393,0,0,0,0,0,-0.0288153,0.0189718,1.4525
1.012,TRAPJ,56.7257,0,0,0,0,0,-0.0288439,0.0189283,1.4525
1.013,TRAPJ,56.812,0,0,0,0,0,-0.0288723,0.0188849,1.4525
1.014,TRAPJ,56.8981,0,0,0,0,0,-0.0289007,0.0188415,1.4525
1.015,TRAPJ,56.9842,0,0,0,0,0,-0.0289289,0.018798,1.4525
1.016,TRAPJ,57.0701,0,0,0,0,0,-0.0289571,0.0187547,1.4525
1.017,TRAPJ,57.1559,0,0,0,0,0,-0.0289851,0.0187113,1.4525
1.018,TRAPJ,57.2415,0,0,0,0,0,-0.0290131,0.0186679,1.4525
1.019,TRAPJ,57.3271,0,0,0,0,0,-0.0290409,0.0186246,1.4525
1.02,TRAPJ,57.4125,0,0,0,0,0,-0.0290687,0.0185813,1.4525
1.021,TRAPJ,57.4978,0,0,0,0,0,-0.0290963,0.018538,1.4525
1.022,TRAPJ,57.583,0,0,0,0,0,-0.0291238,0.0184947,1.4525
1.023,TRAPJ,57.6681,0,0,0,0,0,-0.0291513,0.0184514,1.4525
1.024,TRAPJ,57.753,0,0,0,0,0,-0.0291786,0.0184082,1.4525
1.025,TRAPJ,57.8378,0,0,0,0,0,-0.0292058,0.0183649,1.4525
1.026,TRAPJ,57.9225,0,0,0,0,0,-0.0292329,0.0183217,1.4525
1.027,TRAPJ,58.0071,0,0,0,0,0,-0.0292599,0.0182786,1.4525
1.028,TRAPJ,58.0916,0,0,0,0,0,-0.0292869,0.0182354,1.4525
1.029,TRAPJ,58.176,0,0,0,0,0,-0.0293137,0.0181923,1.4525
1.03,TRAPJ,58.2602,0,0,0,0,0,-0.0293404,0.0181492,1.4525
1.031,TRAPJ,58.3443,0,0,0,0,0,-0.029367,0.0181061,1.4525
1.032,TRAPJ,58.4283,0,0,0,0,0,-0.0293935,0.018063,1.4525
1.033,TRAPJ,58.5122,0,0,0,0,0,-0.0294199,0.01802,1.4525
1.034,TRAPJ,58.5959,0,0,0,0,0,-0.0294462,0.0179769,1.4525
1.035,TRAPJ,58.6795,0,0,0,0,0,-0.0294724,0.0179339,1.4525
1.036,TRAPJ,58.7631,0,0,0,0,0,-0.0294985,0.017891,1.4525
1.037,TRAPJ,58.8464,0,0,0,0,0,-0.0295245,0.017848,1.4525
1.038,TRAPJ,58.9297,0,0,0,0,0,-0.0295505,0.0178051,1.4525
1.039,TRAPJ,59.0129,0,0,0,0,0,-0.0295763,0.0177622,1.4525
1.04,TRAPJ,59.0959,0,0,0,0,0,-0.029602,0.0177193,1.4525
1.041,TRAPJ,59.1788,0,0,0,0,0,-0.0296276,0.0176764,1.4525
1.042,TRAPJ,59.2616,0,0,0,0,0,-0.0296531,0.0176336,1.4525
1.043,TRAPJ,59.3443,0,0,0,0,0,-0.0296785,0.0175908,1.4525
1.044,TRAPJ,59.4268,0,0,0,0,0,-0.0297038,0.017548,1.4525
1.045,TRAPJ,59.5093,0,0,0,0,0,-0.029729,0.0175053,1.4525
1.046,TRAPJ,59.5916,0,0,0,0,0,-0.0297542,0.0174625,1.4525
1.047,TRAPJ,59.6738,0,0,0,0,0,-0.0297792,0.0174198,1.4525
1.048,TRAPJ,59.7559,0,0,0,0,0,-0.0298041,0.0173772,1.4525
1.049,TRAPJ,59.8378,0,0,0,0,0,-0.0298289,0.0173345,1.4525
1.05,TRAPJ,59.9196,0,0,0,0,0,-0.0298537,0.0172919,1.4525
1.051,TRAPJ,60.0014,0,0,0,0,0,-0.0298783,0.0172493,1.4525
1.052,TRAPJ,60.083,0,0,0,0,0,-0.0299028,0.0172067,1.4525
1.053,TRAPJ,60.1644,0,0,0,0,0,-0.0299273,0.0171642,1.4525
1.054,TRAPJ,60.2458,0,0,0,0,0,-0.0299516,0.0171217,1.4525
1.055,TRAPJ,60.327,0,0,0,0,0,-0.0299758,0.0170792,1.4525
1.056,TRAPJ,60.4081,0,0,0,0,0,-0.03,0.0170367,1.4525
1.057,TRAPJ,60.4891,0,0,0,0,0,-0.0300241,0.0169943,1.4525
1.058,TRAPJ,60.57,0,0,0,0,0,-0.030048,0.0169519,1.4525
1.059,TRAPJ,60.6508,0,0,0,0,0,-0.0300719,0.0169095,1.4525
1.06,TRAPJ,60.7314,0,0,0,0,0,-0.0300956,0.0168672,1.4525
1.061,TRAPJ,60.8119,0,0,0,0,0,-0.0301193,0.0168249,1.4525
1.062,TRAPJ,60.8923,0,0,0,0,0,-0.0301429,0.0167826,1.4525
1.063,TRAPJ,60.9726,0,0,0,0,0,-0.0301664,0.0167404,1.4525
1.064,TRAPJ,61.0528,0,0,0,0,0,-0.0301898,0.0166981,1.4525
1.065,TRAPJ,61.1328,0,0,0,0,0,-0.0302131,0.0166559,1.4525
1.066,TRAPJ,61.2127,0,0,0,0,0,-0.0302363,0.0166138,1.4525
1.067,TRAPJ,61.2925,0,0,0,0,0,-0.0302594,0.0165717,1.4525
1.068,TRAPJ,61.3722,0,0,0,0,0,-0.0302824,0.0165296,1.4525
1.069,TRAPJ,61.4518,0,0,0,0,0,-0.0303053,0.0164875,1.4525
1.07,TRAPJ,61.5312,0,0,0,0,0,-0.0303282,0.0164455,1.4525
1.071,TRAPJ,61.6105,0,0,0,0,0,-0.0303509,0.0164035,1.4525
1.072,TRAPJ,61.6897,0,0,0,0,0,-0.0303735,0.0163615,1.4525
1.073,TRAPJ,61.7688,0,0,0,0,0,-0.0303961,0.0163195,1.4525
1.074,TRAPJ,61.8478,0,0,0,0,0,-0.0304186,0.0162776,1.4525
1.075,TRAPJ,61.9266,0,0,0,0,0,-0.0304409,0.0162358,1.4525
1.076,TRAPJ,62.0054,0,0,0,0,0,-0.0304632,0.0161939,1.4525
1.077,TRAPJ,62.084,0,0,0,0,0,-0.0304854,0.0161521,1.4525
1.078,TRAPJ,62.1624,0,0,0,0,0,-0.0305075,0.0161103,1.4525
1.079,TRAPJ,62.2408,0,0,0,0,0,-0.0305295,0.0160686,1.4525
1.08,TRAPJ,62.319,0,0,0,0,0,-0.0305514,0.0160269,1.4525
1.081,TRAPJ,62.3972,0,0,0,0,0,-0.0305732,0.0159852,1.4525
1.082,TRAPJ,62.4752,0,0,0,0,0,-0.030595,0.0159436,1.4525
1.083,TRAPJ,62.5531,0,0,0,0,0,-0.0306166,0.015902,1.4525
1.084,TRAPJ,62.6308,0,0,0,0,0,-0.0306382,0.0158604,1.4525
1.085,TRAPJ,62.7085,0,0,0,0,0,-0.0306596,0.0158189,1.4525
1.086,TRAPJ,62.786,0,0,0,0,0,-0.030681,0.0157774,1.4525
1.087,TRAPJ,62.8634,0,0,0,0,0,-0.0307023,0.0157359,1.4525
1.088,TRAPJ,62.9407,0,0,0,0,0,-0.0307235,0.0156945,1.4525
1.089,TRAPJ,63.0179,0,0,0,0,0,-0.0307446,0.0156531,1.4525
1.09,TRAPJ,63.0949,0,0,0,0,0,-0.0307656,0.0156117,1.4525
1.091,TRAPJ,63.1718,0,0,0,0,0,-0.0307866,0.0155704,1.4525
1.092,TRAPJ,63.2486,0,0,0,0,0,-0.0308074,0.0155291,1.4525
1.093,TRAPJ,63.3253,0,0,0,0,0,-0.0308282,0.0154879,1.4525
1.094,TRAPJ,63.4019,0,0,0,0,0,-0.0308488,0.0154467,1.4525
1.095,TRAPJ,63.4783,0,0,0,0,0,-0.0308694,0.0154055,1.4525
1.096,TRAPJ,63.5547,0,0,0,0,0,-0.0308899,0.0153644,1.4525
1.097,TRAPJ,63.6309,0,0,0,0,0,-0.0309103,0.0153233,1.4525
1.098,TRAPJ,63.707,0,0,0,0,0,-0.0309306,0.0152822,1.4525
1.099,TRAPJ,63.7829,0,0,0,0,0,-0.0309509,0.0152412,1.4525
1.1,TRAPJ,63.8588,0,0,0,0,0,-0.030971,0.0152002,1.4525
1.101,TRAPJ,63.9345,0,0,0,0,0,-0.0309911,0.0151592,1.4525
1.102,TRAPJ,64.0101,0,0,0,0,0,-0.0310111,0.0151183,1.4525
1.103,TRAPJ,64.0856,0,0,0,0,0,-0.031031,0.0150775,1.4525
1.104,TRAPJ,64.161,0,0,0,0,0,-0.0310508,0.0150366,1.4525
1.105,TRAPJ,64.2362,0,0,0,0,0,-0.0310705,0.0149958,1.4525
1.106,TRAPJ,64.3114,0,0,0,0,0,-0.0310901,0.0149551,1.4525
1.107,TRAPJ,64.3864,0,0,0,0,0,-0.0311097,0.0149144,1.4525
1.108,TRAPJ,64.4613,0,0,0,0,0,-0.0311291,0.0148737,1.4525
1.109,TRAPJ,64.536,0,0,0,0,0,-0.0311485,0.014833,1.4525
1.11,TRAPJ,64.6107,0,0,0,0,0,-0.0311678,0.0147925,1.4525
1.111,TRAPJ,64.6852,0,0,0,0,0,-0.031187,0.0147519,1.4525
1.112,TRAPJ,64.7596,0,0,0,0,0,-0.0312062,0.0147114,1.4525
1.113,TRAPJ,64.8339,0,0,0,0,0,-0.0312252,0.0146709,1.4525
1.114,TRAPJ,64.9081,0,0,0,0,0,-0.0312442,0.0146305,1.4525
1.115,TRAPJ,64.9821,0,0,0,0,0,-0.0312631,0.0145901,1.4525
1.116,TRAPJ,65.0561,0,0,0,0,0,-0.0312819,0.0145497,1.4525
1.117,TRAPJ,65.1299,0,0,0,0,0,-0.0313006,0.0145094,1.4525
1.118,TRAPJ,65.2036,0,0,0,0,0,-0.0313192,0.0144691,1.4525
1.119,TRAPJ,65.2772,0,0,0,0,0,-0.0313378,0.0144289,1.4525
1.12,TRAPJ,65.3506,0,0,0,0,0,-0.0313563,0.0143887,1.4525
1.121,TRAPJ,65.424,0,0,0,0,0,-0.0313746,0.0143486,1.4525
1.122,TRAPJ,65.4972,0,0,0,0,0,-0.031393,0.0143085,1.4525
1.123,TRAPJ,65.5703,0,0,0,0,0,-0.0314112,0.0142684,1.4525
1.124,TRAPJ,65.6432,0,0,0,0,0,-0.0314293,0.0142284,1.4525
1.125,TRAPJ,65.7161,0,0,0,0,0,-0.0314474,0.0141884,1.4525
1.126,TRAPJ,65.7888,0,0,0,0,0,-0.0314654,0.0141485,1.4525
1.127,TRAPJ,65.8614,0,0,0,0,0,-0.0314833,0.0141086,1.4525
1.128,TRAPJ,65.9339,0,0,0,0,0,-0.0315011,0.0140687,1.4525
1.129,TRAPJ,66.0063,0,0,0,0,0,-0.0315189,0.0140289,1.4525
1.13,TRAPJ,66.0786,0,0,0,0,0,-0.0315365,0.0139892,1.4525
1.131,TRAPJ,66.1507,0,0,0,0,0,-0.0315541,0.0139495,1.4525
1.132,TRAPJ,66.2227,0,0,0,0,0,-0.0315716,0.0139098,1.4525
1.133,TRAPJ,66.2946,0,0,0,0,0,-0.0315891,0.0138702,1.4525
1.134,TRAPJ,66.3664,0,0,0,0,0,-0.0316064,0.0138306,1.4525
1.135,TRAPJ,66.4381,0,0,0,0,0,-0.0316237,0.013791,1.4525
1.136,TRAPJ,66.5096,0,0,0,0,0,-0.0316409,0.0137515,1.4525
1.137,TRAPJ,66.581,0,0,0,0,0,-0.031658,0.0137121,1.4525
1.138,TRAPJ,66.6523,0,0,0,0,0,-0.031675,0.0136727,1.4525
1.139,TRAPJ,66.7235,0,0,0,0,0,-0.031692,0.0136333,1.4525
1.14,TRAPJ,66.7946,0,0,0,0,0,-0.0317089,0.013594,1.4525
1.141,TRAPJ,66.8655,0,0,0,0,0,-0.0317257,0.0135547,1.4525
1.142,TRAPJ,66.9363,0,0,0,0,0,-0.0317424,0.0135155,1.4525
1.143,TRAPJ,67.007,0,0,0,0,0,-0.0317591,0.0134763,1.4525
1.144,TRAPJ,67.0776,0,0,0,0,0,-0.0317756,0.0134372,1.4525
1.145,TRAPJ,67.1481,0,0,0,0,0,-0.0317921,0.0133981,1.4525
1.146,TRAPJ,67.2184,0,0,0,0,0,-0.0318086,0.0133591,1.4525
1.147,TRAPJ,67.2886,0,0,0,0,0,-0.0318249,0.0133201,1.4525
1.148,TRAPJ,67.3587,0,0,0,0,0,-0.0318412,0.0132811,1.4525
1.149,TRAPJ,67.4287,0,0,0,0,0,-0.0318574,0.0132422,1.4525
1.15,TRAPJ,67.4986,0,0,0,0,0,-0.0318735,0.0132034,1.4525
1.151,TRAPJ,67.5683,0,0,0,0,0,-0.0318896,0.0131646,1.4525
1.152,TRAPJ,67.6379,0,0,0,0,0,-0.0319055,0.0131258,1.4525
1.153,TRAPJ,67.7074,0,0,0,0,0,-0.0319214,0.0130871,1.4525
1.154,TRAPJ,67.7768,0,0,0,0,0,-0.0319373,0.0130484,1.4525
1.155,TRAPJ,67.8461,0,0,0,0,0,-0.031953,0.0130098,1.4525
1.156,TRAPJ,67.9152,0,0,0,0,0,-0.0319687,0.0129712,1.4525
1.157,TRAPJ,67.9843,0,0,0,0,0,-0.0319843,0.0129327,1.4525
1.158,TRAPJ,68.0532,0,0,0,0,0,-0.0319998,0.0128942,1.4525
1.159,TRAPJ,68.122,0,0,0,0,0,-0.0320153,0.0128558,1.4525
1.16,TRAPJ,68.1906,0,0,0,0,0,-0.0320307,0.0128174,1.4525
1.161,TRAPJ,68.2592,0,0,0,0,0,-0.032046,0.0127791,1.4525
1.162,TRAPJ,68.3276,0,0,0,0,0,-0.0320612,0.0127408,1.4525
1.163,TRAPJ,68.3959,0,0,0,0,0,-0.0320764,0.0127026,1.4525
1.164,TRAPJ,68.4641,0,0,0,0,0,-0.0320915,0.0126644,1.4525
1.165,TRAPJ,68.5322,0,0,0,0,0,-0.0321065,0.0126263,1.4525
1.166,TRAPJ,68.6001,0,0,0,0,0,-0.0321214,0.0125882,1.4525
1.167,TRAPJ,68.6679,0,0,0,0,0,-0.0321363,0.0125502,1.4525
1.168,TRAPJ,68.7356,0,0,0,0,0,-0.0321511,0.0125122,1.4525
1.169,TRAPJ,68.8032,0,0,0,0,0,-0.0321659,0.0124742,1.4525
1.17,TRAPJ,68.8707,0,0,0,0,0,-0.0321805,0.0124364,1.4525
1.171,TRAPJ,68.938,0,0,0,0,0,-0.0321951,0.0123985,1.4525
1.172,TRAPJ,69.0053,0,0,0,0,0,-0.0322097,0.0123607,1.4525
1.173,TRAPJ,69.0724,0,0,0,0,0,-0.0322241,0.012323,1.4525
1.174,TRAPJ,69.1394,0,0,0,0,0,-0.0322385,0.0122853,1.4525
1.175,TRAPJ,69.2062,0,0,0,0,0,-0.0322528,0.0122477,1.4525
1.176,TRAPJ,69.273,0,0,0,0,0,-0.0322671,0.0122101,1.4525
1.177,TRAPJ,69.3396,0,0,0,0,0,-0.0322812,0.0121726,1.4525
1.178,TRAPJ,69.4061,0,0,0,0,0,-0.0322954,0.0121351,1.4525
1.179,TRAPJ,69.4725,0,0,0,0,0,-0.0323094,0.0120977,1.4525
1.18,TRAPJ,69.5388,0,0,0,0,0,-0.0323234,0.0120603,1.4525
1.181,TRAPJ,69.6049,0,0,0,0,0,-0.0323373,0.0120229,1.4525
1.182,TRAPJ,69.671,0,0,0,0,0,-0.0323511,0.0119857,1.4525
1.183,TRAPJ,69.7369,0,0,0,0,0,-0.0323649,0.0119485,1.4525
1.184,TRAPJ,69.8027,0,0,0,0,0,-0.0323786,0.0119113,1.4525
1.185,TRAPJ,69.8683,0,0,0,0,0,-0.0323922,0.0118742,1.4525
1.186,TRAPJ,69.9339,0,0,0,0,0,-0.0324058,0.0118371,1.4525
1.187,TRAPJ,69.9993,0,0,0,0,0,-0.0324193,0.0118001,1.4525
1.188,TRAPJ,70.0646,0,0,0,0,0,-0.0324327,0.0117631,1.4525
1.189,TRAPJ,70.1298,0,0,0,0,0,-0.0324461,0.0117262,1.4525
1.19,TRAPJ,70.1949,0,0,0,0,0,-0.0324593,0.0116893,1.4525
1.191,TRAPJ,70.2599,0,0,0,0,0,-0.0324726,0.0116525,1.4525
1.192,TRAPJ,70.3247,0,0,0,0,0,-0.0324857,0.0116158,1.4525
1.193,TRAPJ,70.3894,0,0,0,0,0,-0.0324988,0.0115791,1.4525
1.194,TRAPJ,70.454,0,0,0,0,0,-0.0325119,0.0115424,1.4525
1.195,TRAPJ,70.5185,0,0,0,0,0,-0.0325248,0.0115058,1.4525
1.196,TRAPJ,70.5828,0,0,0,0,0,-0.0325377,0.0114693,1.4525
1.197,TRAPJ,70.6471,0,0,0,0,0,-0.0325506,0.0114328,1.4525
1.198,TRAPJ,70.7112,0,0,0,0,0,-0.0325634,0.0113964,1.4525
1.199,TRAPJ,70.7752,0,0,0,0,0,-0.0325761,0.01136,1.4525
1.2,TRAPJ,70.8391,0,0,0,0,0,-0.0325887,0.0113237,1.4525
1.201,TRAPJ,70.9028,0,0,0,0,0,-0.0326013,0.0112874,1.4525
1.202,TRAPJ,70.9664,0,0,0,0,0,-0.0326138,0.0112512,1.4525
1.203,TRAPJ,71.03,0,0,0,0,0,-0.0326263,0.011215,1.4525
1.204,TRAPJ,71.0934,0,0,0,0,0,-0.0326387,0.0111789,1.4525
1.205,TRAPJ,71.1566,0,0,0,0,0,-0.032651,0.0111429,1.4525
1.206,TRAPJ,71.2198,0,0,0,0,0,-0.0326632,0.0111069,1.4525
1.207,TRAPJ,71.2828,0,0,0,0,0,-0.0326754,0.0110709,1.4525
1.208,TRAPJ,71.3458,0,0,0,0,0,-0.0326876,0.011035,1.4525
1.209,TRAPJ,71.4086,0,0,0,0,0,-0.0326997,0.0109992,1.4525
1.21,TRAPJ,71.4712,0,0,0,0,0,-0.0327117,0.0109634,1.4525
1.211,TRAPJ,71.5338,0,0,0,0,0,-0.0327236,0.0109277,1.4525
1.212,TRAPJ,71.5962,0,0,0,0,0,-0.0327355,0.010892,1.4525
1.213,TRAPJ,71.6586,0,0,0,0,0,-0.0327473,0.0108564,1.4525
1.214,TRAPJ,71.7208,0,0,0,0,0,-0.0327591,0.0108209,1.4525
1.215,TRAPJ,71.7828,0,0,0,0,0,-0.0327708,0.0107854,1.4525
1.216,TRAPJ,71.8448,0,0,0,0,0,-0.0327824,0.0107499,1.4525
1.217,TRAPJ,71.9066,0,0,0,0,0,-0.032794,0.0107145,1.4525
1.218,TRAPJ,71.9684,0,0,0,0,0,-0.0328056,0.0106792,1.4525
1.219,TRAPJ,72.03,0,0,0,0,0,-0.032817,0.0106439,1.4525
1.22,TRAPJ,72.0914,0,0,0,0,0,-0.0328284,0.0106087,1.4525
1.221,TRAPJ,72.1528,0,0,0,0,0,-0.0328398,0.0105735,1.4525
1.222,TRAPJ,72.214,0,0,0,0,0,-0.032851,0.0105384,1.4525
1.223,TRAPJ,72.2752,0,0,0,0,0,-0.0328623,0.0105034,1.4525
1.224,TRAPJ,72.3362,0,0,0,0,0,-0.0328734,0.0104684,1.4525
1.225,TRAPJ,72.397,0,0,0,0,0,-0.0328845,0.0104335,1.4525
1.226,TRAPJ,72.4578,0,0,0,0,0,-0.0328956,0.0103986,1.4525
1.227,TRAPJ,72.5185,0,0,0,0,0,-0.0329066,0.0103638,1.4525
1.228,TRAPJ,72.579,0,0,0,0,0,-0.0329175,0.010329,1.4525
1.229,TRAPJ,72.6394,0,0,0,0,0,-0.0329284,0.0102943,1.4525
1.23,TRAPJ,72.6997,0,0,0,0,0,-0.0329392,0.0102596,1.4525
1.231,TRAPJ,72.7598,0,0,0,0,0,-0.0329499,0.010225,1.4525
1.232,TRAPJ,72.8199,0,0,0,0,0,-0.0329606,0.0101905,1.4525
1.233,TRAPJ,72.8798,0,0,0,0,0,-0.0329713,0.010156,1.4525
1.234,TRAPJ,72.9396,0,0,0,0,0,-0.0329819,0.0101216,1.4525
1.235,TRAPJ,72.9993,0,0,0,0,0,-0.0329924,0.0100872,1.4525
1.236,TRAPJ,73.0589,0,0,0,0,0,-0.0330029,0.0100529,1.4525
1.237,TRAPJ,73.1183,0,0,0,0,0,-0.0330133,0.0100187,1.4525
1.238,TRAPJ,73.1776,0,0,0,0,0,-0.0330236,0.00998449,1.4525
1.239,TRAPJ,73.2368,0,0,0,0,0,-0.0330339,0.00995036,1.4525
1.24,TRAPJ,73.2959,0,0,0,0,0,-0.0330442,0.00991629,1.4525
1.241,TRAPJ,73.3549,0,0,0,0,0,-0.0330544,0.00988228,1.4525
1.242,TRAPJ,73.4137,0,0,0,0,0,-0.0330645,0.00984832,1.4525
1.243,TRAPJ,73.4725,0,0,0,0,0,-0.0330746,0.00981442,1.4525
1.244,TRAPJ,73.5311,0,0,0,0,0,-0.0330846,0.00978059,1.4525
1.245,TRAPJ,73.5896,0,0,0,0,0,-0.0330946,0.00974681,1.4525
1.246,TRAPJ,73.6479,0,0,0,0,0,-0.0331045,0.00971309,1.4525
1.247,TRAPJ,73.7062,0,0,0,0,0,-0.0331143,0.00967943,1.4525
1.248,TRAPJ,73.7643,0,0,0,0,0,-0.0331241,0.00964583,1.4525
1.249,TRAPJ,73.8223,0,0,0,0,0,-0.0331339,0.00961229,1.4525
1.25,TRAPJ,73.8802,0,0,0,0,0,-0.0331436,0.00957881,1.4525
1.251,TRAPJ,73.938,0,0,0,0,0,-0.0331532,0.00954538,1.4525
1.252,TRAPJ,73.9956,0,0,0,0,0,-0.0331628,0.00951202,1.4525
1.253,TRAPJ,74.0532,0,0,0,0,0,-0.0331723,0.00947872,1.4525
1.254,TRAPJ,74.1106,0,0,0,0,0,-0.0331818,0.00944547,1.4525
1.255,TRAPJ,74.1679,0,0,0,0,0,-0.0331912,0.00941229,1.4525
1.256,TRAPJ,74.225,0,0,0,0,0,-0.0332006,0.00937916,1.4525
1.257,TRAPJ,74.2821,0,0,0,0,0,-0.0332099,0.0093461,1.4525
1.258,TRAPJ,74.339,0,0,0,0,0,-0.0332192,0.0093131,1.4525
1.259,TRAPJ,74.3958,0,0,0,0,0,-0.0332284,0.00928015,1.4525
1.26,TRAPJ,74.4525,0,0,0,0,0,-0.0332376,0.00924727,1.4525
1.261,TRAPJ,74.5091,0,0,0,0,0,-0.0332467,0.00921445,1.4525
1.262,TRAPJ,74.5655,0,0,0,0,0,-0.0332558,0.00918169,1.4525
1.263,TRAPJ,74.6219,0,0,0,0,0,-0.0332648,0.00914898,1.4525
1.264,TRAPJ,74.6781,0,0,0,0,0,-0.0332737,0.00911634,1.4525
1.265,TRAPJ,74.7342,0,0,0,0,0,-0.0332827,0.00908376,1.4525
1.266,TRAPJ,74.7902,0,0,0,0,0,-0.0332915,0.00905124,1.4525
1.267,TRAPJ,74.846,0,0,0,0,0,-0.0333003,0.00901879,1.4525
1.268,TRAPJ,74.9017,0,0,0,0,0,-0.0333091,0.00898639,1.4525
1.269,TRAPJ,74.9574,0,0,0,0,0,-0.0333178,0.00895405,1.4525
1.27,TRAPJ,75.0129,0,0,0,0,0,-0.0333264,0.00892178,1.4525
1.271,TRAPJ,75.0682,0,0,0,0,0,-0.0333351,0.00888957,1.4525
1.272,TRAPJ,75.1235,0,0,0,0,0,-0.0333436,0.00885741,1.4525
1.273,TRAPJ,75.1786,0,0,0,0,0,-0.0333521,0.00882532,1.4525
1.274,TRAPJ,75.2336,0,0,0,0,0,-0.0333606,0.00879329,1.4525
1.275,TRAPJ,75.2885,0,0,0,0,0,-0.033369,0.00876133,1.4525
1.276,TRAPJ,75.3433,0,0,0,0,0,-0.0333773,0.00872942,1.4525
1.277,TRAPJ,75.398,0,0,0,0,0,-0.0333857,0.00869758,1.4525
1.278,TRAPJ,75.4525,0,0,0,0,0,-0.0333939,0.00866579,1.4525
1.279,TRAPJ,75.5069,0,0,0,0,0,-0.0334021,0.00863407,1.4525
1.28,TRAPJ,75.5612,0,0,0,0,0,-0.0334103,0.00860242,1.4525
1.281,TRAPJ,75.6154,0,0,0,0,0,-0.0334184,0.00857082,1.4525
1.282,TRAPJ,75.6695,0,0,0,0,0,-0.0334265,0.00853929,1.4525
1.283,TRAPJ,75.7234,0,0,0,0,0,-0.0334345,0.00850781,1.4525
1.284,TRAPJ,75.7772,0,0,0,0,0,-0.0334425,0.0084764,1.4525
1.285,TRAPJ,75.8309,0,0,0,0,0,-0.0334504,0.00844506,1.4525
1.286,TRAPJ,75.8845,0,0,0,0,0,-0.0334583,0.00841377,1.4525
1.287,TRAPJ,75.938,0,0,0,0,0,-0.0334661,0.00838255,1.4525
1.288,TRAPJ,75.9913,0,0,0,0,0,-0.0334739,0.00835139,1.4525
1.289,TRAPJ,76.0445,0,0,0,0,0,-0.0334817,0.0083203,1.4525
1.29,TRAPJ,76.0976,0,0,0,0,0,-0.0334894,0.00828926,1.4525
1.291,TRAPJ,76.1506,0,0,0,0,0,-0.033497,0.00825829,1.4525
1.292,TRAPJ,76.2035,0,0,0,0,0,-0.0335046,0.00822738,1.4525
1.293,TRAPJ,76.2562,0,0,0,0,0,-0.0335122,0.00819654,1.4525
1.294,TRAPJ,76.3088,0,0,0,0,0,-0.0335197,0.00816576,1.4525
1.295,TRAPJ,76.3613,0,0,0,0,0,-0.0335272,0.00813504,1.4525
1.296,TRAPJ,76.4137,0,0,0,0,0,-0.0335346,0.00810438,1.4525
1.297,TRAPJ,76.466,0,0,0,0,0,-0.033542,0.00807379,1.4525
1.298,TRAPJ,76.5181,0,0,0,0,0,-0.0335493,0.00804326,1.4525
1.299,TRAPJ,76.5701,0,0,0,0,0,-0.0335566,0.0080128,1.4525
1.3,TRAPJ,76.622,0,0,0,0,0,-0.0335638,0.0079824,1.4525
1.301,TRAPJ,76.6738,0,0,0,0,0,-0.033571,0.00795206,1.4525
1.302,TRAPJ,76.7255,0,0,0,0,0,-0.0335782,0.00792178,1.4525
1.303,TRAPJ,76.777,0,0,0,0,0,-0.0335853,0.00789157,1.4525
1.304,TRAPJ,76.8284,0,0,0,0,0,-0.0335924,0.00786143,1.4525
1.305,TRAPJ,76.8798,0,0,0,0,0,-0.0335994,0.00783134,1.4525
1.306,TRAPJ,76.9309,0,0,0,0,0,-0.0336064,0.00780132,1.4525
1.307,TRAPJ,76.982,0,0,0,0,0,-0.0336133,0.00777137,1.4525
1.308,TRAPJ,77.0329,0,0,0,0,0,-0.0336202,0.00774148,1.4525
1.309,TRAPJ,77.0838,0,0,0,0,0,-0.0336271,0.00771165,1.4525
1.31,TRAPJ,77.1345,0,0,0,0,0,-0.0336339,0.00768189,1.4525
1.311,TRAPJ,77.1851,0,0,0,0,0,-0.0336407,0.00765219,1.4525
1.312,TRAPJ,77.2355,0,0,0,0,0,-0.0336474,0.00762256,1.4525
1.313,TRAPJ,77.2859,0,0,0,0,0,-0.0336541,0.00759299,1.4525
1.314,TRAPJ,77.3361,0,0,0,0,0,-0.0336607,0.00756348,1.4525
1.315,TRAPJ,77.3862,0,0,0,0,0,-0.0336673,0.00753404,1.4525
1.316,TRAPJ,77.4362,0,0,0,0,0,-0.0336739,0.00750467,1.4525
1.317,TRAPJ,77.4861,0,0,0,0,0,-0.0336804,0.00747536,1.4525
1.318,TRAPJ,77.5358,0,0,0,0,0,-0.0336869,0.00744611,1.4525
1.319,TRAPJ,77.5854,0,0,0,0,0,-0.0336933,0.00741693,1.4525
1.32,TRAPJ,77.635,0,0,0,0,0,-0.0336997,0.00738781,1.4525
1.321,TRAPJ,77.6843,0,0,0,0,0,-0.0337061,0.00735876,1.4525
1.322,TRAPJ,77.7336,0,0,0,0,0,-0.0337124,0.00732977,1.4525
1.323,TRAPJ,77.7828,0,0,0,0,0,-0.0337187,0.00730085,1.4525
1.324,TRAPJ,77.8318,0,0,0,0,0,-0.0337249,0.007272,1.4525
1.325,TRAPJ,77.8807,0,0,0,0,0,-0.0337311,0.0072432,1.4525
1.326,TRAPJ,77.9295,0,0,0,0,0,-0.0337372,0.00721448,1.4525
1.327,TRAPJ,77.9782,0,0,0,0,0,-0.0337434,0.00718582,1.4525
1.328,TRAPJ,78.0267,0,0,0,0,0,-0.0337494,0.00715722,1.4525
1.329,TRAPJ,78.0751,0,0,0,0,0,-0.0337555,0.00712869,1.4525
1.33,TRAPJ,78.1235,0,0,0,0,0,-0.0337615,0.00710023,1.4525
1.331,TRAPJ,78.1716,0,0,0,0,0,-0.0337674,0.00707183,1.4525
1.332,TRAPJ,78.2197,0,0,0,0,0,-0.0337734,0.00704349,1.4525
1.333,TRAPJ,78.2677,0,0,0,0,0,-0.0337792,0.00701522,1.4525
1.334,TRAPJ,78.3155,0,0,0,0,0,-0.0337851,0.00698702,1.4525
1.335,TRAPJ,78.3632,0,0,0,0,0,-0.0337909,0.00695889,1.4525
1.336,TRAPJ,78.4108,0,0,0,0,0,-0.0337967,0.00693081,1.4525
1.337,TRAPJ,78.4583,0,0,0,0,0,-0.0338024,0.00690281,1.4525
1.338,TRAPJ,78.5056,0,0,0,0,0,-0.0338081,0.00687487,1.4525
1.339,TRAPJ,78.5529,0,0,0,0,0,-0.0338137,0.006847,1.4525
1.34,TRAPJ,78.6,0,0,0,0,0,-0.0338194,0.00681919,1.4525
1.341,TRAPJ,78.647,0,0,0,0,0,-0.0338249,0.00679145,1.4525
1.342,TRAPJ,78.6938,0,0,0,0,0,-0.0338305,0.00676377,1.4525
1.343,TRAPJ,78.7406,0,0,0,0,0,-0.033836,0.00673617,1.4525
1.344,TRAPJ,78.7872,0,0,0,0,0,-0.0338415,0.00670862,1.4525
1.345,TRAPJ,78.8338,0,0,0,0,0,-0.0338469,0.00668115,1.4525
1.346,TRAPJ,78.8801,0,0,0,0,0,-0.0338523,0.00665374,1.4525
1.347,TRAPJ,78.9264,0,0,0,0,0,-0.0338577,0.00662639,1.4525
1.348,TRAPJ,78.9726,0,0,0,0,0,-0.033863,0.00659912,1.4525
1.349,TRAPJ,79.0186,0,0,0,0,0,-0.0338683,0.00657191,1.4525
1.35,TRAPJ,79.0645,0,0,0,0,0,-0.0338735,0.00654476,1.4525
1.351,TRAPJ,79.1103,0,0,0,0,0,-0.0338788,0.00651768,1.4525
1.352,TRAPJ,79.156,0,0,0,0,0,-0.0338839,0.00649067,1.4525
1.353,TRAPJ,79.2016,0,0,0,0,0,-0.0338891,0.00646373,1.4525
1.354,TRAPJ,79.247,0,0,0,0,0,-0.0338942,0.00643685,1.4525
1.355,TRAPJ,79.2923,0,0,0,0,0,-0.0338993,0.00641004,1.4525
1.356,TRAPJ,79.3375,0,0,0,0,0,-0.0339043,0.0063833,1.4525
1.357,TRAPJ,79.3826,0,0,0,0,0,-0.0339093,0.00635662,1.4525
1.358,TRAPJ,79.4276,0,0,0,0,0,-0.0339143,0.00633001,1.4525
1.359,TRAPJ,79.4724,0,0,0,0,0,-0.0339193,0.00630347,1.4525
1.36,TRAPJ,79.5171,0,0,0,0,0,-0.0339242,0.00627699,1.4525
1.361,TRAPJ,79.5617,0,0,0,0,0,-0.033929,0.00625058,1.4525
1.362,TRAPJ,79.6062,0,0,0,0,0,-0.0339339,0.00622424,1.4525
1.363,TRAPJ,79.6506,0,0,0,0,0,-0.0339387,0.00619797,1.4525
1.364,TRAPJ,79.6948,0,0,0,0,0,-0.0339435,0.00617176,1.4525
1.365,TRAPJ,79.7389,0,0,0,0,0,-0.0339482,0.00614562,1.4525
1.366,TRAPJ,79.7829,0,0,0,0,0,-0.0339529,0.00611955,1.4525
1.367,TRAPJ,79.8268,0,0,0,0,0,-0.0339576,0.00609354,1.4525
1.368,TRAPJ,79.8706,0,0,0,0,0,-0.0339622,0.0060676,1.4525
1.369,TRAPJ,79.9142,0,0,0,0,0,-0.0339669,0.00604173,1.4525
1.37,TRAPJ,79.9577,0,0,0,0,0,-0.0339714,0.00601593,1.4525
1.371,TRAPJ,80.0011,0,0,0,0,0,-0.033976,0.0059902,1.4525
1.372,TRAPJ,80.0444,0,0,0,0,0,-0.0339805,0.00596453,1.4525
1.373,TRAPJ,80.0876,0,0,0,0,0,-0.033985,0.00593893,1.4525
1.374,TRAPJ,80.1306,0,0,0,0,0,-0.0339894,0.00591339,1.4525
1.375,TRAPJ,80.1735,0,0,0,0,0,-0.0339939,0.00588793,1.4525
1.376,TRAPJ,80.2163,0,0,0,0,0,-0.0339982,0.00586253,1.4525
1.377,TRAPJ,80.259,0,0,0,0,0,-0.0340026,0.0058372,1.4525
1.378,TRAPJ,80.3016,0,0,0,0,0,-0.0340069,0.00581194,1.4525
1.379,TRAPJ,80.344,0,0,0,0,0,-0.0340112,0.00578675,1.4525
1.38,TRAPJ,80.3864,0,0,0,0,0,-0.0340155,0.00576162,1.4525
1.381,TRAPJ,80.4286,0,0,0,0,0,-0.0340197,0.00573656,1.4525
1.382,TRAPJ,80.4706,0,0,0,0,0,-0.0340239,0.00571157,1.4525
1.383,TRAPJ,80.5126,0,0,0,0,0,-0.0340281,0.00568665,1.4525
1.384,TRAPJ,80.5545,0,0,0,0,0,-0.0340322,0.0056618,1.4525
1.385,TRAPJ,80.5962,0,0,0,0,0,-0.0340364,0.00563701,1.4525
1.386,TRAPJ,80.6378,0,0,0,0,0,-0.0340404,0.0056123,1.4525
1.387,TRAPJ,80.6793,0,0,0,0,0,-0.0340445,0.00558765,1.4525
1.388,TRAPJ,80.7206,0,0,0,0,0,-0.0340485,0.00556306,1.4525
1.389,TRAPJ,80.7619,0,0,0,0,0,-0.0340525,0.00553855,1.4525
1.39,TRAPJ,80.803,0,0,0,0,0,-0.0340565,0.00551411,1.4525
1.391,TRAPJ,80.844,0,0,0,0,0,-0.0340604,0.00548973,1.4525
1.392,TRAPJ,80.8849,0,0,0,0,0,-0.0340643,0.00546542,1.4525
1.393,TRAPJ,80.9257,0,0,0,0,0,-0.0340682,0.00544118,1.4525
1.394,TRAPJ,80.9663,0,0,0,0,0,-0.0340721,0.00541701,1.4525
1.395,TRAPJ,81.0069,0,0,0,0,0,-0.0340759,0.00539291,1.4525
1.396,TRAPJ,81.0473,0,0,0,0,0,-0.0340797,0.00536888,1.4525
1.397,TRAPJ,81.0876,0,0,0,0,0,-0.0340835,0.00534491,1.4525
1.398,TRAPJ,81.1277,0,0,0,0,0,-0.0340872,0.00532101,1.4525
1.399,TRAPJ,81.1678,0,0,0,0,0,-0.0340909,0.00529719,1.4525
1.4,TRAPJ,81.2077,0,0,0,0,0,-0.0340946,0.00527343,1.4525
1.401,TRAPJ,81.2475,0,0,0,0,0,-0.0340982,0.00524973,1.4525
1.402,TRAPJ,81.2872,0,0,0,0,0,-0.0341019,0.00522611,1.4525
1.403,TRAPJ,81.3268,0,0,0,0,0,-0.0341055,0.00520256,1.4525
1.404,TRAPJ,81.3662,0,0,0,0,0,-0.034109,0.00517907,1.4525
1.405,TRAPJ,81.4056,0,0,0,0,0,-0.0341126,0.00515566,1.4525
1.406,TRAPJ,81.4448,0,0,0,0,0,-0.0341161,0.00513231,1.4525
1.407,TRAPJ,81.4839,0,0,0,0,0,-0.0341196,0.00510903,1.4525
1.408,TRAPJ,81.5228,0,0,0,0,0,-0.0341231,0.00508582,1.4525
1.409,TRAPJ,81.5617,0,0,0,0,0,-0.0341265,0.00506268,1.4525
1.41,TRAPJ,81.6004,0,0,0,0,0,-0.0341299,0.00503961,1.4525
1.411,TRAPJ,81.639,0,0,0,0,0,-0.0341333,0.00501661,1.4525
1.412,TRAPJ,81.6775,0,0,0,0,0,-0.0341367,0.00499368,1.4525
1.413,TRAPJ,81.7159,0,0,0,0,0,-0.03414,0.00497081,1.4525
1.414,TRAPJ,81.7542,0,0,0,0,0,-0.0341433,0.00494802,1.4525
1.415,TRAPJ,81.7923,0,0,0,0,0,-0.0341466,0.00492529,1.4525
1.416,TRAPJ,81.8303,0,0,0,0,0,-0.0341499,0.00490264,1.4525
1.417,TRAPJ,81.8682,0,0,0,0,0,-0.0341531,0.00488005,1.4525
1.418,TRAPJ,81.906,0,0,0,0,0,-0.0341563,0.00485753,1.4525
1.419,TRAPJ,81.9436,0,0,0,0,0,-0.0341595,0.00483508,1.4525
1.42,TRAPJ,81.9812,0,0,0,0,0,-0.0341627,0.0048127,1.4525
1.421,TRAPJ,82.0186,0,0,0,0,0,-0.0341658,0.00479039,1.4525
1.422,TRAPJ,82.0559,0,0,0,0,0,-0.0341689,0.00476815,1.4525
1.423,TRAPJ,82.0931,0,0,0,0,0,-0.034172,0.00474598,1.4525
1.424,TRAPJ,82.1301,0,0,0,0,0,-0.0341751,0.00472388,1.4525
1.425,TRAPJ,82.167,0,0,0,0,0,-0.0341781,0.00470185,1.4525
1.426,TRAPJ,82.2039,0,0,0,0,0,-0.0341811,0.00467988,1.4525
1.427,TRAPJ,82.2406,0,0,0,0,0,-0.0341841,0.00465799,1.4525
1.428,TRAPJ,82.2771,0,0,0,0,0,-0.0341871,0.00463616,1.4525
1.429,TRAPJ,82.3136,0,0,0,0,0,-0.03419,0.00461441,1.4525
1.43,TRAPJ,82.3499,0,0,0,0,0,-0.0341929,0.00459273,1.4525
1.431,TRAPJ,82.3862,0,0,0,0,0,-0.0341958,0.00457111,1.4525
1.432,TRAPJ,82.4223,0,0,0,0,0,-0.0341987,0.00454956,1.4525
1.433,TRAPJ,82.4582,0,0,0,0,0,-0.0342016,0.00452809,1.4525
1.434,TRAPJ,82.4941,0,0,0,0,0,-0.0342044,0.00450668,1.4525
1.435,TRAPJ,82.5298,0,0,0,0,0,-0.0342072,0.00448535,1.4525
1.436,TRAPJ,82.5654,0,0,0,0,0,-0.03421,0.00446408,1.4525
1.437,TRAPJ,82.6009,0,0,0,0,0,-0.0342127,0.00444288,1.4525
1.438,TRAPJ,82.6363,0,0,0,0,0,-0.0342155,0.00442175,1.4525
1.439,TRAPJ,82.6716,0,0,0,0,0,-0.0342182,0.0044007,1.4525
1.44,TRAPJ,82.7067,0,0,0,0,0,-0.0342209,0.00437971,1.4525
1.441,TRAPJ,82.7418,0,0,0,0,0,-0.0342235,0.00435879,1.4525
1.442,TRAPJ,82.7767,0,0,0,0,0,-0.0342262,0.00433794,1.4525
1.443,TRAPJ,82.8114,0,0,0,0,0,-0.0342288,0.00431717,1.4525
1.444,TRAPJ,82.8461,0,0,0,0,0,-0.0342314,0.00429646,1.4525
1.445,TRAPJ,82.8806,0,0,0,0,0,-0.034234,0.00427582,1.4525
1.446,TRAPJ,82.9151,0,0,0,0,0,-0.0342366,0.00425525,1.4525
1.447,TRAPJ,82.9494,0,0,0,0,0,-0.0342391,0.00423475,1.4525
1.448,TRAPJ,82.9835,0,0,0,0,0,-0.0342416,0.00421433,1.4525
1.449,TRAPJ,83.0176,0,0,0,0,0,-0.0342441,0.00419397,1.4525
1.45,TRAPJ,83.0516,0,0,0,0,0,-0.0342466,0.00417368,1.4525
1.451,TRAPJ,83.0854,0,0,0,0,0,-0.0342491,0.00415346,1.4525
1.452,TRAPJ,83.1191,0,0,0,0,0,-0.0342515,0.00413331,1.4525
1.453,TRAPJ,83.1527,0,0,0,0,0,-0.0342539,0.00411324,1.4525
1.454,TRAPJ,83.1861,0,0,0,0,0,-0.0342563,0.00409323,1.4525
1.455,TRAPJ,83.2195,0,0,0,0,0,-0.0342587,0.00407329,1.4525
1.456,TRAPJ,83.2527,0,0,0,0,0,-0.0342611,0.00405342,1.4525
1.457,TRAPJ,83.2858,0,0,0,0,0,-0.0342634,0.00403363,1.4525
1.458,TRAPJ,83.3188,0,0,0,0,0,-0.0342657,0.0040139,1.4525
1.459,TRAPJ,83.3517,0,0,0,0,0,-0.034268,0.00399425,1.4525
1.46,TRAPJ,83.3844,0,0,0,0,0,-0.0342703,0.00397466,1.4525
1.461,TRAPJ,83.417,0,0,0,0,0,-0.0342725,0.00395514,1.4525
1.462,TRAPJ,83.4495,0,0,0,0,0,-0.0342748,0.0039357,1.4525
1.463,TRAPJ,83.4819,0,0,0,0,0,-0.034277,0.00391632,1.4525
1.464,TRAPJ,83.5142,0,0,0,0,0,-0.0342792,0.00389702,1.4525
1.465,TRAPJ,83.5463,0,0,0,0,0,-0.0342814,0.00387779,1.4525
1.466,TRAPJ,83.5784,0,0,0,0,0,-0.0342835,0.00385862,1.4525
1.467,TRAPJ,83.6103,0,0,0,0,0,-0.0342857,0.00383953,1.4525
1.468,TRAPJ,83.6421,0,0,0,0,0,-0.0342878,0.00382051,1.4525
1.469,TRAPJ,83.6737,0,0,0,0,0,-0.0342899,0.00380155,1.4525
1.47,TRAPJ,83.7053,0,0,0,0,0,-0.034292,0.00378267,1.4525
1.471,TRAPJ,83.7367,0,0,0,0,0,-0.0342941,0.00376386,1.4525
1.472,TRAPJ,83.768,0,0,0,0,0,-0.0342961,0.00374512,1.4525
1.473,TRAPJ,83.7992,0,0,0,0,0,-0.0342982,0.00372645,1.4525
1.474,TRAPJ,83.8303,0,0,0,0,0,-0.0343002,0.00370785,1.4525
1.475,TRAPJ,83.8612,0,0,0,0,0,-0.0343022,0.00368932,1.4525
1.476,TRAPJ,83.8921,0,0,0,0,0,-0.0343042,0.00367086,1.4525
1.477,TRAPJ,83.9228,0,0,0,0,0,-0.0343061,0.00365248,1.4525
1.478,TRAPJ,83.9534,0,0,0,0,0,-0.0343081,0.00363416,1.4525
1.479,TRAPJ,83.9838,0,0,0,0,0,-0.03431,0.00361591,1.4525
1.48,TRAPJ,84.0142,0,0,0,0,0,-0.0343119,0.00359774,1.4525
1.481,TRAPJ,84.0444,0,0,0,0,0,-0.0343138,0.00357963,1.4525
1.482,TRAPJ,84.0745,0,0,0,0,0,-0.0343157,0.0035616,1.4525
1.483,TRAPJ,84.1045,0,0,0,0,0,-0.0343175,0.00354363,1.4525
1.484,TRAPJ,84.1344,0,0,0,0,0,-0.0343194,0.00352574,1.4525
1.485,TRAPJ,84.1641,0,0,0,0,0,-0.0343212,0.00350792,1.4525
1.486,TRAPJ,84.1938,0,0,0,0,0,-0.034323,0.00349017,1.4525
1.487,TRAPJ,84.2233,0,0,0,0,0,-0.0343248,0.00347249,1.4525
1.488,TRAPJ,84.2527,0,0,0,0,0,-0.0343266,0.00345488,1.4525
1.489,TRAPJ,84.282,0,0,0,0,0,-0.0343283,0.00343734,1.4525
1.49,TRAPJ,84.3111,0,0,0,0,0,-0.0343301,0.00341987,1.4525
1.491,TRAPJ,84.3402,0,0,0,0,0,-0.0343318,0.00340247,1.4525
1.492,TRAPJ,84.3691,0,0,0,0,0,-0.0343335,0.00338515,1.4525
1.493,TRAPJ,84.3979,0,0,0,0,0,-0.0343352,0.00336789,1.4525
1.494,TRAPJ,84.4265,0,0,0,0,0,-0.0343369,0.00335071,1.4525
1.495,TRAPJ,84.4551,0,0,0,0,0,-0.0343386,0.00333359,1.4525
1.496,TRAPJ,84.4835,0,0,0,0,0,-0.0343402,0.00331655,1.4525
1.497,TRAPJ,84.5118,0,0,0,0,0,-0.0343419,0.00329958,1.4525
1.498,TRAPJ,84.54,0,0,0,0,0,-0.0343435,0.00328268,1.4525
1.499,TRAPJ,84.5681,0,0,0,0,0,-0.0343451,0.00326585,1.4525
1.5,TRAPJ,84.5961,0,0,0,0,0,-0.0343467,0.00324909,1.4525
1.501,TRAPJ,84.6239,0,0,0,0,0,-0.0343482,0.0032324,1.4525
1.502,TRAPJ,84.6516,0,0,0,0,0,-0.0343498,0.00321578,1.4525
1.503,TRAPJ,84.6792,0,0,0,0,0,-0.0343513,0.00319924,1.4525
1.504,TRAPJ,84.7067,0,0,0,0,0,-0.0343529,0.00318276,1.4525
1.505,TRAPJ,84.7341,0,0,0,0,0,-0.0343544,0.00316636,1.4525
1.506,TRAPJ,84.7613,0,0,0,0,0,-0.0343559,0.00315003,1.4525
1.507,TRAPJ,84.7884,0,0,0,0,0,-0.0343574,0.00313377,1.4525
1.508,TRAPJ,84.8154,0,0,0,0,0,-0.0343589,0.00311758,1.4525
1.509,TRAPJ,84.8423,0,0,0,0,0,-0.0343603,0.00310146,1.4525
1.51,TRAPJ,84.8691,0,0,0,0,0,-0.0343618,0.00308541,1.4525
1.511,TRAPJ,84.8957,0,0,0,0,0,-0.0343632,0.00306943,1.4525
1.512,TRAPJ,84.9222,0,0,0,0,0,-0.0343646,0.00305353,1.4525
1.513,TRAPJ,84.9486,0,0,0,0,0,-0.034366,0.00303769,1.4525
1.514,TRAPJ,84.9749,0,0,0,0,0,-0.0343674,0.00302193,1.4525
1.515,TRAPJ,85.0011,0,0,0,0,0,-0.0343688,0.00300623,1.4525
1.516,TRAPJ,85.0271,0,0,0,0,0,-0.0343701,0.00299061,1.4525
1.517,TRAPJ,85.053,0,0,0,0,0,-0.0343715,0.00297506,1.4525
1.518,TRAPJ,85.0788,0,0,0,0,0,-0.0343728,0.00295959,1.4525
1.519,TRAPJ,85.1045,0,0,0,0,0,-0.0343741,0.00294418,1.4525
1.52,TRAPJ,85.1301,0,0,0,0,0,-0.0343755,0.00292884,1.4525
1.521,TRAPJ,85.1555,0,0,0,0,0,-0.0343768,0.00291358,1.4525
1.522,TRAPJ,85.1808,0,0,0,0,0,-0.034378,0.00289838,1.4525
1.523,TRAPJ,85.206,0,0,0,0,0,-0.0343793,0.00288326,1.4525
1.524,TRAPJ,85.2311,0,0,0,0,0,-0.0343806,0.00286821,1.4525
1.525,TRAPJ,85.2561,0,0,0,0,0,-0.0343818,0.00285323,1.4525
1.526,TRAPJ,85.2809,0,0,0,0,0,-0.034383,0.00283832,1.4525
1.527,TRAPJ,85.3057,0,0,0,0,0,-0.0343843,0.00282348,1.4525
1.528,TRAPJ,85.3303,0,0,0,0,0,-0.0343855,0.00280872,1.4525
1.529,TRAPJ,85.3547,0,0,0,0,0,-0.0343867,0.00279402,1.4525
1.53,TRAPJ,85.3791,0,0,0,0,0,-0.0343879,0.0027794,1.4525
1.531,TRAPJ,85.4034,0,0,0,0,0,-0.034389,0.00276485,1.4525
1.532,TRAPJ,85.4275,0,0,0,0,0,-0.0343902,0.00275037,1.4525
1.533,TRAPJ,85.4515,0,0,0,0,0,-0.0343913,0.00273596,1.4525
1.534,TRAPJ,85.4754,0,0,0,0,0,-0.0343925,0.00272162,1.4525
1.535,TRAPJ,85.4991,0,0,0,0,0,-0.0343936,0.00270735,1.4525
1.536,TRAPJ,85.5228,0,0,0,0,0,-0.0343947,0.00269316,1.4525
1.537,TRAPJ,85.5463,0,0,0,0,0,-0.0343958,0.00267904,1.4525
1.538,TRAPJ,85.5697,0,0,0,0,0,-0.0343969,0.00266498,1.4525
1.539,TRAPJ,85.593,0,0,0,0,0,-0.034398,0.002651,1.4525
1.54,TRAPJ,85.6162,0,0,0,0,0,-0.0343991,0.00263709,1.4525
1.541,TRAPJ,85.6392,0,0,0,0,0,-0.0344001,0.00262326,1.4525
1.542,TRAPJ,85.6622,0,0,0,0,0,-0.0344012,0.00260949,1.4525
1.543,TRAPJ,85.685,0,0,0,0,0,-0.0344022,0.00259579,1.4525
1.544,TRAPJ,85.7077,0,0,0,0,0,-0.0344032,0.00258217,1.4525
1.545,TRAPJ,85.7302,0,0,0,0,0,-0.0344042,0.00256862,1.4525
1.546,TRAPJ,85.7527,0,0,0,0,0,-0.0344053,0.00255514,1.4525
1.547,TRAPJ,85.775,0,0,0,0,0,-0.0344062,0.00254173,1.4525
1.548,TRAPJ,85.7972,0,0,0,0,0,-0.0344072,0.00252839,1.4525
1.549,TRAPJ,85.8193,0,0,0,0,0,-0.0344082,0.00251513,1.4525
1.55,TRAPJ,85.8413,0,0,0,0,0,-0.0344092,0.00250193,1.4525
1.551,TRAPJ,85.8631,0,0,0,0,0,-0.0344101,0.00248881,1.4525
1.552,TRAPJ,85.8849,0,0,0,0,0,-0.0344111,0.00247576,1.4525
1.553,TRAPJ,85.9065,0,0,0,0,0,-0.034412,0.00246278,1.4525
1.554,TRAPJ,85.928,0,0,0,0,0,-0.0344129,0.00244987,1.4525
1.555,TRAPJ,85.9493,0,0,0,0,0,-0.0344138,0.00243703,1.4525
1.556,TRAPJ,85.9706,0,0,0,0,0,-0.0344147,0.00242427,1.4525
1.557,TRAPJ,85.9917,0,0,0,0,0,-0.0344156,0.00241158,1.4525
1.558,TRAPJ,86.0127,0,0,0,0,0,-0.0344165,0.00239895,1.4525
1.559,TRAPJ,86.0336,0,0,0,0,0,-0.0344174,0.0023864,1.4525
1.56,TRAPJ,86.0544,0,0,0,0,0,-0.0344182,0.00237393,1.4525
1.561,TRAPJ,86.075,0,0,0,0,0,-0.0344191,0.00236152,1.4525
1.562,TRAPJ,86.0956,0,0,0,0,0,-0.0344199,0.00234918,1.4525
1.563,TRAPJ,86.116,0,0,0,0,0,-0.0344208,0.00233692,1.4525
1.564,TRAPJ,86.1363,0,0,0,0,0,-0.0344216,0.00232473,1.4525
1.565,TRAPJ,86.1565,0,0,0,0,0,-0.0344224,0.00231261,1.4525
1.566,TRAPJ,86.1765,0,0,0,0,0,-0.0344232,0.00230056,1.4525
1.567,TRAPJ,86.1965,0,0,0,0,0,-0.034424,0.00228858,1.4525
1.568,TRAPJ,86.2163,0,0,0,0,0,-0.0344248,0.00227668,1.4525
1.569,TRAPJ,86.236,0,0,0,0,0,-0.0344256,0.00226484,1.4525
1.57,TRAPJ,86.2555,0,0,0,0,0,-0.0344264,0.00225308,1.4525
1.571,TRAPJ,86.275,0,0,0,0,0,-0.0344271,0.00224139,1.4525
1.572,TRAPJ,86.2943,0,0,0,0,0,-0.0344279,0.00222977,1.4525
1.573,TRAPJ,86.3135,0,0,0,0,0,-0.0344286,0.00221822,1.4525
1.574,TRAPJ,86.3326,0,0,0,0,0,-0.0344294,0.00220675,1.4525
1.575,TRAPJ,86.3516,0,0,0,0,0,-0.0344301,0.00219534,1.4525
1.576,TRAPJ,86.3705,0,0,0,0,0,-0.0344308,0.00218401,1.4525
1.577,TRAPJ,86.3892,0,0,0,0,0,-0.0344315,0.00217275,1.4525
1.578,TRAPJ,86.4078,0,0,0,0,0,-0.0344322,0.00216156,1.4525
1.579,TRAPJ,86.4263,0,0,0,0,0,-0.0344329,0.00215045,1.4525
1.58,TRAPJ,86.4447,0,0,0,0,0,-0.0344336,0.0021394,1.4525
1.581,TRAPJ,86.463,0,0,0,0,0,-0.0344343,0.00212843,1.4525
1.582,TRAPJ,86.4811,0,0,0,0,0,-0.034435,0.00211753,1.4525
1.583,TRAPJ,86.4991,0,0,0,0,0,-0.0344356,0.0021067,1.4525
1.584,TRAPJ,86.517,0,0,0,0,0,-0.0344363,0.00209594,1.4525
1.585,TRAPJ,86.5348,0,0,0,0,0,-0.0344369,0.00208525,1.4525
1.586,TRAPJ,86.5525,0,0,0,0,0,-0.0344376,0.00207464,1.4525
1.587,TRAPJ,86.57,0,0,0,0,0,-0.0344382,0.0020641,1.4525
1.588,TRAPJ,86.5874,0,0,0,0,0,-0.0344388,0.00205362,1.4525
1.589,TRAPJ,86.6047,0,0,0,0,0,-0.0344394,0.00204323,1.4525
1.59,TRAPJ,86.6219,0,0,0,0,0,-0.0344401,0.0020329,1.4525
1.591,TRAPJ,86.639,0,0,0,0,0,-0.0344407,0.00202264,1.4525
1.592,TRAPJ,86.6559,0,0,0,0,0,-0.0344413,0.00201246,1.4525
1.593,TRAPJ,86.6727,0,0,0,0,0,-0.0344418,0.00200235,1.4525
1.594,TRAPJ,86.6894,0,0,0,0,0,-0.0344424,0.00199231,1.4525
1.595,TRAPJ,86.706,0,0,0,0,0,-0.034443,0.00198234,1.4525
1.596,TRAPJ,86.7225,0,0,0,0,0,-0.0344436,0.00197244,1.4525
1.597,TRAPJ,86.7388,0,0,0,0,0,-0.0344441,0.00196262,1.4525
1.598,TRAPJ,86.7551,0,0,0,0,0,-0.0344447,0.00195286,1.4525
1.599,TRAPJ,86.7712,0,0,0,0,0,-0.0344452,0.00194318,1.4525
1.6,TRAPJ,86.7871,0,0,0,0,0,-0.0344458,0.00193357,1.4525
1.601,TRAPJ,86.803,0,0,0,0,0,-0.0344463,0.00192403,1.4525
1.602,TRAPJ,86.8188,0,0,0,0,0,-0.0344468,0.00191457,1.4525
1.603,TRAPJ,86.8344,0,0,0,0,0,-0.0344474,0.00190518,1.4525
1.604,TRAPJ,86.8499,0,0,0,0,0,-0.0344479,0.00189585,1.4525
1.605,TRAPJ,86.8653,0,0,0,0,0,-0.0344484,0.0018866,1.4525
1.606,TRAPJ,86.8805,0,0,0,0,0,-0.0344489,0.00187742,1.4525
1.607,TRAPJ,86.8957,0,0,0,0,0,-0.0344494,0.00186832,1.4525
1.608,TRAPJ,86.9107,0,0,0,0,0,-0.0344499,0.00185928,1.4525
1.609,TRAPJ,86.9256,0,0,0,0,0,-0.0344503,0.00185032,1.4525
1.61,TRAPJ,86.9404,0,0,0,0,0,-0.0344508,0.00184143,1.4525
1.611,TRAPJ,86.9551,0,0,0,0,0,-0.0344513,0.00183261,1.4525
1.612,TRAPJ,86.9696,0,0,0,0,0,-0.0344518,0.00182386,1.4525
1.613,TRAPJ,86.984,0,0,0,0,0,-0.0344522,0.00181519,1.4525
1.614,TRAPJ,86.9983,0,0,0,0,0,-0.0344527,0.00180659,1.4525
1.615,TRAPJ,87.0125,0,0,0,0,0,-0.0344531,0.00179805,1.4525
1.616,TRAPJ,87.0266,0,0,0,0,0,-0.0344536,0.00178959,1.4525
1.617,TRAPJ,87.0406,0,0,0,0,0,-0.034454,0.00178121,1.4525
1.618,TRAPJ,87.0544,0,0,0,0,0,-0.0344544,0.00177289,1.4525
1.619,TRAPJ,87.0681,0,0,0,0,0,-0.0344548,0.00176465,1.4525
1.62,TRAPJ,87.0817,0,0,0,0,0,-0.0344553,0.00175647,1.4525
1.621,TRAPJ,87.0951,0,0,0,0,0,-0.0344557,0.00174837,1.4525
1.622,TRAPJ,87.1085,0,0,0,0,0,-0.0344561,0.00174035,1.4525
1.623,TRAPJ,87.1217,0,0,0,0,0,-0.0344565,0.00173239,1.4525
1.624,TRAPJ,87.1348,0,0,0,0,0,-0.0344569,0.00172451,1.4525
1.625,TRAPJ,87.1478,0,0,0,0,0,-0.0344573,0.00171669,1.4525
1.626,TRAPJ,87.1607,0,0,0,0,0,-0.0344576,0.00170895,1.4525
1.627,TRAPJ,87.1735,0,0,0,0,0,-0.034458,0.00170128,1.4525
1.628,TRAPJ,87.1861,0,0,0,0,0,-0.0344584,0.00169369,1.4525
1.629,TRAPJ,87.1986,0,0,0,0,0,-0.0344588,0.00168616,1.4525
1.63,TRAPJ,87.211,0,0,0,0,0,-0.0344591,0.00167871,1.4525
1.631,TRAPJ,87.2233,0,0,0,0,0,-0.0344595,0.00167133,1.4525
1.632,TRAPJ,87.2354,0,0,0,0,0,-0.0344598,0.00166402,1.4525
1.633,TRAPJ,87.2474,0,0,0,0,0,-0.0344602,0.00165678,1.4525
1.634,TRAPJ,87.2594,0,0,0,0,0,-0.0344605,0.00164962,1.4525
1.635,TRAPJ,87.2712,0,0,0,0,0,-0.0344609,0.00164252,1.4525
1.636,TRAPJ,87.2828,0,0,0,0,0,-0.0344612,0.0016355,1.4525
1.637,TRAPJ,87.2944,0,0,0,0,0,-0.0344615,0.00162855,1.4525
1.638,TRAPJ,87.3058,0,0,0,0,0,-0.0344619,0.00162168,1.4525
1.639,TRAPJ,87.3171,0,0,0,0,0,-0.0344622,0.00161487,1.4525
1.64,TRAPJ,87.3283,0,0,0,0,0,-0.0344625,0.00160814,1.4525
1.641,TRAPJ,87.3394,0,0,0,0,0,-0.0344628,0.00160148,1.4525
1.642,TRAPJ,87.3504,0,0,0,0,0,-0.0344631,0.00159489,1.4525
1.643,TRAPJ,87.3612,0,0,0,0,0,-0.0344634,0.00158837,1.4525
1.644,TRAPJ,87.3719,0,0,0,0,0,-0.0344637,0.00158192,1.4525
1.645,TRAPJ,87.3825,0,0,0,0,0,-0.034464,0.00157555,1.4525
1.646,TRAPJ,87.393,0,0,0,0,0,-0.0344643,0.00156925,1.4525
1.647,TRAPJ,87.4033,0,0,0,0,0,-0.0344646,0.00156302,1.4525
1.648,TRAPJ,87.4136,0,0,0,0,0,-0.0344649,0.00155686,1.4525
1.649,TRAPJ,87.4237,0,0,0,0,0,-0.0344651,0.00155077,1.4525
1.65,TRAPJ,87.4337,0,0,0,0,0,-0.0344654,0.00154476,1.4525
1.651,TRAPJ,87.4436,0,0,0,0,0,-0.0344657,0.00153882,1.4525
1.652,TRAPJ,87.4533,0,0,0,0,0,-0.0344659,0.00153295,1.4525
1.653,TRAPJ,87.463,0,0,0,0,0,-0.0344662,0.00152715,1.4525
1.654,TRAPJ,87.4725,0,0,0,0,0,-0.0344664,0.00152142,1.4525
1.655,TRAPJ,87.4819,0,0,0,0,0,-0.0344667,0.00151577,1.4525
1.656,TRAPJ,87.4912,0,0,0,0,0,-0.0344669,0.00151019,1.4525
1.657,TRAPJ,87.5003,0,0,0,0,0,-0.0344672,0.00150468,1.4525
1.658,TRAPJ,87.5094,0,0,0,0,0,-0.0344674,0.00149924,1.4525
1.659,TRAPJ,87.5183,0,0,0,0,0,-0.0344676,0.00149388,1.4525
1.66,TRAPJ,87.5271,0,0,0,0,0,-0.0344679,0.00148858,1.4525
1.661,TRAPJ,87.5358,0,0,0,0,0,-0.0344681,0.00148336,1.4525
1.662,TRAPJ,87.5443,0,0,0,0,0,-0.0344683,0.00147821,1.4525
1.663,TRAPJ,87.5528,0,0,0,0,0,-0.0344685,0.00147313,1.4525
1.664,TRAPJ,87.5611,0,0,0,0,0,-0.0344687,0.00146813,1.4525
1.665,TRAPJ,87.5693,0,0,0,0,0,-0.034469,0.00146319,1.4525
1.666,TRAPJ,87.5774,0,0,0,0,0,-0.0344692,0.00145833,1.4525
1.667,TRAPJ,87.5853,0,0,0,0,0,-0.0344694,0.00145354,1.4525
1.668,TRAPJ,87.5932,0,0,0,0,0,-0.0344696,0.00144882,1.4525
1.669,TRAPJ,87.6009,0,0,0,0,0,-0.0344698,0.00144418,1.4525
1.67,TRAPJ,87.6085,0,0,0,0,0,-0.03447,0.0014396,1.4525
1.671,TRAPJ,87.616,0,0,0,0,0,-0.0344701,0.0014351,1.4525
1.672,TRAPJ,87.6233,0,0,0,0,0,-0.0344703,0.00143067,1.4525
1.673,TRAPJ,87.6306,0,0,0,0,0,-0.0344705,0.00142631,1.4525
1.674,TRAPJ,87.6377,0,0,0,0,0,-0.0344707,0.00142203,1.4525
1.675,TRAPJ,87.6447,0,0,0,0,0,-0.0344709,0.00141781,1.4525
1.676,TRAPJ,87.6516,0,0,0,0,0,-0.034471,0.00141367,1.4525
1.677,TRAPJ,87.6584,0,0,0,0,0,-0.0344712,0.0014096,1.4525
1.678,TRAPJ,87.665,0,0,0,0,0,-0.0344714,0.0014056,1.4525
1.679,TRAPJ,87.6715,0,0,0,0,0,-0.0344715,0.00140168,1.4525
1.68,TRAPJ,87.6779,0,0,0,0,0,-0.0344717,0.00139782,1.4525
1.681,TRAPJ,87.6842,0,0,0,0,0,-0.0344718,0.00139404,1.4525
1.682,TRAPJ,87.6904,0,0,0,0,0,-0.034472,0.00139033,1.4525
1.683,TRAPJ,87.6964,0,0,0,0,0,-0.0344721,0.00138669,1.4525
1.684,TRAPJ,87.7024,0,0,0,0,0,-0.0344723,0.00138313,1.4525
1.685,TRAPJ,87.7082,0,0,0,0,0,-0.0344724,0.00137963,1.4525
1.686,TRAPJ,87.7139,0,0,0,0,0,-0.0344725,0.00137621,1.4525
1.687,TRAPJ,87.7194,0,0,0,0,0,-0.0344727,0.00137286,1.4525
1.688,TRAPJ,87.7249,0,0,0,0,0,-0.0344728,0.00136958,1.4525
1.689,TRAPJ,87.7302,0,0,0,0,0,-0.0344729,0.00136638,1.4525
1.69,TRAPJ,87.7354,0,0,0,0,0,-0.0344731,0.00136324,1.4525
1.691,TRAPJ,87.7405,0,0,0,0,0,-0.0344732,0.00136018,1.4525
1.692,TRAPJ,87.7455,0,0,0,0,0,-0.0344733,0.00135719,1.4525
1.693,TRAPJ,87.7503,0,0,0,0,0,-0.0344734,0.00135428,1.4525
1.694,TRAPJ,87.755,0,0,0,0,0,-0.0344735,0.00135143,1.4525
1.695,TRAPJ,87.7597,0,0,0,0,0,-0.0344736,0.00134866,1.4525
1.696,TRAPJ,87.7641,0,0,0,0,0,-0.0344737,0.00134596,1.4525
1.697,TRAPJ,87.7685,0,0,0,0,0,-0.0344738,0.00134333,1.4525
1.698,TRAPJ,87.7728,0,0,0,0,0,-0.0344739,0.00134077,1.4525
1.699,TRAPJ,87.7769,0,0,0,0,0,-0.034474,0.00133828,1.4525
1.7,TRAPJ,87.7809,0,0,0,0,0,-0.0344741,0.00133587,1.4525
1.701,TRAPJ,87.7848,0,0,0,0,0,-0.0344742,0.00133353,1.4525
1.702,TRAPJ,87.7886,0,0,0,0,0,-0.0344743,0.00133126,1.4525
1.703,TRAPJ,87.7922,0,0,0,0,0,-0.0344744,0.00132906,1.4525
1.704,TRAPJ,87.7958,0,0,0,0,0,-0.0344745,0.00132694,1.4525
1.705,TRAPJ,87.7992,0,0,0,0,0,-0.0344746,0.00132488,1.4525
1.706,TRAPJ,87.8025,0,0,0,0,0,-0.0344746,0.0013229,1.4525
1.707,TRAPJ,87.8056,0,0,0,0,0,-0.0344747,0.00132099,1.4525
1.708,TRAPJ,87.8087,0,0,0,0,0,-0.0344748,0.00131916,1.4525
1.709,TRAPJ,87.8116,0,0,0,0,0,-0.0344748,0.00131739,1.4525
1.71,TRAPJ,87.8144,0,0,0,0,0,-0.0344749,0.0013157,1.4525
1.711,TRAPJ,87.8171,0,0,0,0,0,-0.034475,0.00131408,1.4525
1.712,TRAPJ,87.8197,0,0,0,0,0,-0.034475,0.00131253,1.4525
1.713,TRAPJ,87.8222,0,0,0,0,0,-0.0344751,0.00131105,1.4525
